/* XPM */
static char * East_xpm[] = {
"128 128 459 2",
"  	c #6C9D42",
". 	c #6C9F43",
"+ 	c #6D9E43",
"@ 	c #6E9748",
"# 	c #6E9848",
"$ 	c #79AD4B",
"% 	c #79AD49",
"& 	c #79AD4A",
"* 	c #6F9947",
"= 	c #6E9846",
"- 	c #6F9945",
"; 	c #6F9946",
"> 	c #79A84A",
", 	c #74B04C",
"' 	c #6FA246",
") 	c #709746",
"! 	c #75A64B",
"~ 	c #74A74B",
"{ 	c #699D48",
"] 	c #6B9D48",
"^ 	c #75A64D",
"/ 	c #76A847",
"( 	c #76A849",
"_ 	c #76A848",
": 	c #699B44",
"< 	c #6C9546",
"[ 	c #6C9547",
"} 	c #6C9647",
"| 	c #76A74B",
"1 	c #77A84C",
"2 	c #6B9847",
"3 	c #6B9845",
"4 	c #6C9E42",
"5 	c #6D9D43",
"6 	c #6E9845",
"7 	c #6C9D43",
"8 	c #74A64B",
"9 	c #77A54D",
"0 	c #76A64D",
"a 	c #6D9647",
"b 	c #77A74C",
"c 	c #76A84C",
"d 	c #6E9946",
"e 	c #79A94A",
"f 	c #709747",
"g 	c #6C9E49",
"h 	c #6A9D48",
"i 	c #76A54D",
"j 	c #6B9945",
"k 	c #6B9846",
"l 	c #6F9849",
"m 	c #6E9844",
"n 	c #6F9848",
"o 	c #6E9945",
"p 	c #75B04C",
"q 	c #6B9D46",
"r 	c #6A9D47",
"s 	c #76A74C",
"t 	c #6E9847",
"u 	c #79AC4B",
"v 	c #75B04D",
"w 	c #6A9E48",
"x 	c #6B9E48",
"y 	c #75A54D",
"z 	c #77A44D",
"A 	c #75A848",
"B 	c #75A747",
"C 	c #6A9C44",
"D 	c #6C9945",
"E 	c #77A648",
"F 	c #75A74E",
"G 	c #75A84C",
"H 	c #73A84C",
"I 	c #71A74A",
"J 	c #70A749",
"K 	c #71A749",
"L 	c #78AB4F",
"M 	c #78AB50",
"N 	c #73A949",
"O 	c #72AA49",
"P 	c #6FA649",
"Q 	c #6FA549",
"R 	c #6D9A45",
"S 	c #79A44B",
"T 	c #79A44C",
"U 	c #79AE4D",
"V 	c #79AF4D",
"W 	c #78AD4D",
"X 	c #6A5438",
"Y 	c #695038",
"Z 	c #695037",
"` 	c #695238",
" .	c #689742",
"..	c #689842",
"+.	c #689942",
"@.	c #699942",
"#.	c #79A64C",
"$.	c #7AA74C",
"%.	c #7BA950",
"&.	c #7CAA50",
"*.	c #7BA94F",
"=.	c #71A04A",
"-.	c #70A04A",
";.	c #7AA64C",
">.	c #71A84A",
",.	c #72A84A",
"'.	c #72A74A",
").	c #695138",
"!.	c #694D37",
"~.	c #694F37",
"{.	c #679741",
"].	c #79A74C",
"^.	c #7BA74C",
"/.	c #74A84C",
"(.	c #6FA64A",
"_.	c #695137",
":.	c #694D36",
"<.	c #73AA49",
"[.	c #7CA950",
"}.	c #75A74D",
"|.	c #75A84D",
"1.	c #73A948",
"2.	c #6EA548",
"3.	c #79AE4C",
"4.	c #6A5037",
"5.	c #694D35",
"6.	c #684C36",
"7.	c #79A34C",
"8.	c #78AD4C",
"9.	c #74A84D",
"0.	c #6E9A45",
"a.	c #694F36",
"b.	c #6F9A45",
"c.	c #74A64C",
"d.	c #74A74C",
"e.	c #74A74D",
"f.	c #75A64E",
"g.	c #75A74C",
"h.	c #78AA50",
"i.	c #73A849",
"j.	c #79AD4C",
"k.	c #78AC4C",
"l.	c #695036",
"m.	c #79A84C",
"n.	c #7BAA4F",
"o.	c #70A14A",
"p.	c #689C42",
"q.	c #679C42",
"r.	c #75A54C",
"s.	c #6A5338",
"t.	c #695338",
"u.	c #6A9E44",
"v.	c #6A9F45",
"w.	c #69A045",
"x.	c #6E9C44",
"y.	c #6E9B44",
"z.	c #695337",
"A.	c #72A248",
"B.	c #72A348",
"C.	c #71A247",
"D.	c #729F48",
"E.	c #739F48",
"F.	c #72A048",
"G.	c #719847",
"H.	c #719747",
"I.	c #6C9A49",
"J.	c #6C9B49",
"K.	c #6C9C48",
"L.	c #6E9B48",
"M.	c #6E9B46",
"N.	c #6F9C46",
"O.	c #6F9C47",
"P.	c #71A649",
"Q.	c #70A649",
"R.	c #70A648",
"S.	c #71A549",
"T.	c #71A748",
"U.	c #74AE4B",
"V.	c #75AE4B",
"W.	c #74AE4A",
"X.	c #75AF4B",
"Y.	c #6A9E45",
"Z.	c #6A9F44",
"`.	c #6E9A44",
" +	c #72A247",
".+	c #6C9B48",
"++	c #6E9B47",
"@+	c #70A548",
"#+	c #70A549",
"$+	c #74A54D",
"%+	c #71A147",
"&+	c #729948",
"*+	c #6C9B4A",
"=+	c #72A347",
"-+	c #719947",
";+	c #6D9A48",
">+	c #6E9C46",
",+	c #76A84B",
"'+	c #719848",
")+	c #694C37",
"!+	c #6F9B44",
"~+	c #6F9A44",
"{+	c #6A4C37",
"]+	c #6C9B47",
"^+	c #679D42",
"/+	c #689D42",
"(+	c #6F9C44",
"_+	c #72A147",
":+	c #73A048",
"<+	c #719646",
"[+	c #6A4E37",
"}+	c #6A4D36",
"|+	c #6A4E38",
"1+	c #6B4E38",
"2+	c #6B4D38",
"3+	c #6A5038",
"4+	c #6C9A47",
"5+	c #6C9A4A",
"6+	c #6E9A46",
"7+	c #70A448",
"8+	c #70A449",
"9+	c #74AD4A",
"0+	c #75AD4A",
"a+	c #72AC48",
"b+	c #72AB48",
"c+	c #73A149",
"d+	c #73A04B",
"e+	c #73A049",
"f+	c #729F46",
"g+	c #719F45",
"h+	c #719F46",
"i+	c #71A046",
"j+	c #72A046",
"k+	c #77A447",
"l+	c #77A347",
"m+	c #6D513C",
"n+	c #6D4E3C",
"o+	c #75A94B",
"p+	c #75AB4B",
"q+	c #9D7255",
"r+	c #9E7356",
"s+	c #9C7455",
"t+	c #9C7355",
"u+	c #9E7255",
"v+	c #6B5137",
"w+	c #695438",
"x+	c #74A648",
"y+	c #75A849",
"z+	c #719E45",
"A+	c #75AA4B",
"B+	c #9F7356",
"C+	c #9D7455",
"D+	c #75A749",
"E+	c #73A14A",
"F+	c #6C4E3C",
"G+	c #75AB4A",
"H+	c #694C36",
"I+	c #9E7354",
"J+	c #9F7454",
"K+	c #9D7456",
"L+	c #75A648",
"M+	c #729F45",
"N+	c #6D4E3B",
"O+	c #72AC49",
"P+	c #72AB49",
"Q+	c #709F45",
"R+	c #75AA4A",
"S+	c #9E7454",
"T+	c #73A249",
"U+	c #70A045",
"V+	c #695035",
"W+	c #9D7454",
"X+	c #729E45",
"Y+	c #9F7455",
"Z+	c #9C7354",
"`+	c #6B4D37",
" @	c #72AB4A",
".@	c #72AA4A",
"+@	c #739F4A",
"@@	c #6D5239",
"#@	c #6C5039",
"$@	c #6C4F39",
"%@	c #719D45",
"&@	c #77A247",
"*@	c #6F523D",
"=@	c #6E4F3D",
"-@	c #6E4F3C",
";@	c #6F4F3C",
">@	c #6B5138",
",@	c #75A84A",
"'@	c #6E5039",
")@	c #6C5038",
"!@	c #6D5339",
"~@	c #75A548",
"{@	c #75A748",
"]@	c #6F9A47",
"^@	c #6F9A48",
"/@	c #6F9948",
"(@	c #695237",
"_@	c #6C5239",
":@	c #CC986E",
"<@	c #CE996F",
"[@	c #CE996D",
"}@	c #CC986C",
"|@	c #9D7353",
"1@	c #9C7356",
"2@	c #9C7456",
"3@	c #9C7454",
"4@	c #9E7455",
"5@	c #9E7557",
"6@	c #CD986D",
"7@	c #CE996E",
"8@	c #70503D",
"9@	c #9D7354",
"0@	c #CD996D",
"a@	c #CD996F",
"b@	c #CF9A70",
"c@	c #CF9A6E",
"d@	c #CF9A6F",
"e@	c #70513E",
"f@	c #9F7555",
"g@	c #CE9A6E",
"h@	c #6F9A49",
"i@	c #9E7456",
"j@	c #A07555",
"k@	c #CE9A70",
"l@	c #A07457",
"m@	c #6C4F38",
"n@	c #6A4D37",
"o@	c #9D7355",
"p@	c #CE9970",
"q@	c #6D4F39",
"r@	c #A17555",
"s@	c #6F9A4A",
"t@	c #6E9947",
"u@	c #9E7256",
"v@	c #6E5139",
"w@	c #CD986F",
"x@	c #6F523A",
"y@	c #9E7555",
"z@	c #9E7556",
"A@	c #9F7657",
"B@	c #71523E",
"C@	c #A07456",
"D@	c #A07655",
"E@	c #73A34D",
"F@	c #74A24E",
"G@	c #9B7554",
"H@	c #A17557",
"I@	c #CD986E",
"J@	c #8B6650",
"K@	c #89654F",
"L@	c #89644E",
"M@	c #8A664F",
"N@	c #CD996E",
"O@	c #CC986D",
"P@	c #71513E",
"Q@	c #6D4F3D",
"R@	c #D09B6F",
"S@	c #74A24D",
"T@	c #9C7554",
"U@	c #88644E",
"V@	c #9F7457",
"W@	c #9C7556",
"X@	c #9F7557",
"Y@	c #8B664F",
"Z@	c #88654E",
"`@	c #9E7554",
" #	c #88654F",
".#	c #89654E",
"+#	c #CE9B6E",
"@#	c #6C4F37",
"##	c #9F7654",
"$#	c #9D7556",
"%#	c #74A34D",
"&#	c #75A24E",
"*#	c #9D7356",
"=#	c #9F7456",
"-#	c #73533F",
";#	c #6F513E",
">#	c #8B6750",
",#	c #8A654F",
"'#	c #72523E",
")#	c #A27656",
"!#	c #9D7554",
"~#	c #D09B70",
"{#	c #CE9B70",
"]#	c #9F7355",
"^#	c #9F7354",
"/#	c #70513D",
"(#	c #CF9B6E",
"_#	c #6F4F3D",
":#	c #9F7556",
"<#	c #9E7458",
"[#	c #9D7558",
"}#	c #9D7557",
"|#	c #9C7457",
"1#	c #70503E",
"2#	c #CC996D",
"3#	c #9C7353",
"4#	c #A07557",
"5#	c #6F503D",
"6#	c #6D4F3C",
"7#	c #6E5140",
"8#	c #85989D",
"9#	c #859A9E",
"0#	c #86999E",
"a#	c #86999D",
"b#	c #9E7358",
"c#	c #9E7355",
"d#	c #6D5140",
"e#	c #84999E",
"f#	c #859A9F",
"g#	c #9D7559",
"h#	c #85999E",
"i#	c #839B9F",
"j#	c #A17457",
"k#	c #839A9E",
"l#	c #849A9F",
"m#	c #715341",
"n#	c #859A9D",
"o#	c #859B9E",
"p#	c #879A9E",
"q#	c #869A9E",
"r#	c #88999D",
"s#	c #9F7559",
"t#	c #A17655",
"u#	c #A07455",
"v#	c #9F7656",
"w#	c #CE9A6F",
"x#	c #A07556",
"y#	c #CD9A6E",
"z#	c #CF9B70",
"A#	c #6C4E3B",
"B#	c #71513D",
"C#	c #A07554",
"D#	c #9F7458",
"E#	c #9B7355",
"F#	c #849A9E",
"G#	c #CC996F",
"H#	c #72513E",
"I#	c #9E7558",
"J#	c #6B4E3C",
"K#	c #9D7458",
"L#	c #849A9D",
"M#	c #869A9D",
"N#	c #6C4F3D",
"O#	c #88644F",
"P#	c #CE9B6F",
"Q#	c #73533E",
"R#	c #CD9A6F",
"S#	c #6F513D",
"T#	c #CD9A6D",
"U#	c #9B7354",
"V#	c #9E7353",
"W#	c #CC9A6D",
"X#	c #CE9A71",
"Y#	c #87999D",
"Z#	c #6C4F3C",
"  . +     . +   @ @ @ @ @ @ @ # $ $ $ $ % $ & & * = * = - = * ; > > > > > > > > , , , , , , , , ' ' ' ' ' ' ' ' ) ) ) ) ) ) ) ) ! ! ~ ~ ! ! ~ ~ { { { { ] ] { { ^ ^ ^ ^ ^ ^ ^ ^ / / / / / / ( _ : : : : : : : : < [ < < [ [ [ } | 1 1 1 1 1 1 1 2 2 2 2 3 3 3 3 ",
"  . 4 +   . 4 5 @ @ @ @ @ @ @ # $ $ $ $ % $ & & * = = * 6 = = * > > > > > > > > , , , , , , , , ' ' ' ' ' ' ' ' ) ) ) ) ) ) ) ) ! ! ~ ~ ~ ~ ~ ~ { { { { ] ] { { ^ ^ ^ ^ ^ ^ ^ ^ / / / / / / _ ( : : : : : : : : < [ [ [ [ [ [ } 1 1 1 1 1 1 1 1 2 2 2 2 3 3 3 3 ",
"+   +   +   + 7 @ @ @ @ @ @ @ # & & % % $ $ $ $ * * = * ; * * = > > > > > > > > , , , , , , , , ' ' ' ' ' ' ' ' ) ) ) ) ) ) ) ) ~ ~ ~ ~ ~ ~ ~ 8 ] ] { { { { { { 9 9 ^ ^ 9 9 0 ^ / / / / _ _ ( / : : : : : : : : [ } [ [ [ [ [ a b 1 1 1 1 1 1 c 3 3 3 3 3 3 3 3 ",
"+   +   +   +   @ @ @ @ @ @ @ # & & % % $ $ $ $ d = * * * = = * > > > > > > > e , , , , , , , , ' ' ' ' ' ' ' ' ) ) ) ) ) ) f f ~ ~ ~ ~ ~ ~ ~ 8 g ] { { { { { { 9 9 ^ ^ 9 9 ^ 0 / / / / ( / / ( : : : : : : : : [ } [ [ [ [ [ [ 1 1 1 1 1 1 1 1 3 3 3 3 3 3 3 3 ",
".     + .     + @ @ @ @ @ @ @ # $ % $ $ $ $ $ $ d = = * = = - - > > > > > > > > , , , , , , , , ' ' ' ' ' ' ' ' ) ) ) ) ) ) ) ) ~ ~ ~ ~ ~ ~ ~ ~ h h { { { { { { i ^ ^ ^ ^ ^ ^ ^ / / / / ( ( / / : : : : : : : : [ [ [ [ [ [ [ } 1 1 1 1 1 1 1 1 j 3 k k 3 3 3 3 ",
"4 4   + 4 4   + @ @ l @ @ @ @ # $ % $ $ $ $ $ $ = = = * = ; m - > > > > > > > > , , , , , , , , ' ' ' ' ' ' ' ' ) ) ) ) ) ) ) ) ~ ~ ~ ~ ~ ~ ~ ~ h h { { { { { { i ^ ^ ^ ^ ^ ^ ^ / / / / ( ( / / : : : : : : : : [ [ [ [ < < < [ 1 1 1 1 1 1 1 1 3 3 k k 3 3 3 3 ",
"    +       + 5 @ n @ @ @ @ @ n $ $ $ $ & & $ $ - = = = ; - ; o > > > > > > > > , , , , , p , , ' ' ' ' ' ' ' ' f f ) ) ) ) ) ) ~ ~ ~ ~ ~ ~ ~ ~ { { q q r h h ] ^ ^ ^ ^ ^ ^ 9 9 / / / / _ _ / ( : : : : : : : : [ [ [ [ [ [ [ [ s 1 1 1 1 1 1 1 3 3 3 3 3 3 3 3 ",
"+ +   + + +   + @ t @ @ @ @ @ # u $ u u & & u u * - ; ; o d ; o > > > > > > > > , , , , p , v , ' ' ' ' ' ' ' ' f f ) ) ) ) ) ) ~ ~ ! ! ~ ~ ~ ~ w w q q x x h w y y y y y y z z / / / / A A ( B C : : : : : : : } [ [ a [ a [ a s 1 b 1 1 1 1 | D 3 3 3 3 3 3 3 ",
"E E E E E E E E - - - o - - - - F G G G H H G F I J K K J K K K L L L L M L L L N N N N O O N N P P P P P P P Q R R R R R R R R S S T T S S S S U V V V V V V W X Y Y Y Z Z Y `  ...+.+.......@.#.$.$.$.$.$.$.$.%.&.&.%.&.%.%.*.=.-.-.-.-.-.-.-.$.$.$.$.;.$.$.$.",
"E E E E E E E E - - - - - - - - G F G G G G F G >.J >.,.K >.,.'.L L L L L M L L N N N N O O N N P P P P P P P Q R R R R R R R R S S S S S S S S V V V V V V V U ).!.!.!.!.!.!.~. .{.............].$.$.$.$.$.$.$.*.&.&.&.&.&.&.&.-.-.-.-.-.-.-.-.$.$.$.$.$.^.$.$.",
"E E E E E E E E - - - - - - - - /./.F F F F G G >.J K >.,.,.K ,.L L L L L L L L N N N N N N O O (.(.P P P P P P R R R R R R R R S S S S S S S S V V V V V V V U _.!.!.:.!.!.!.~. ...............$.$.$.$.$.$.$.$.&.&.&.&.&.&.*.*.-.-.-.-.-.-.-.-.$.$.$.$.$.$.$.$.",
"E E E E E E E E - - - - - - - - /./.F F F F G G >.J K K K K >.K L L L L L L L L <.N N N N N O O P P P P P P P P R R R R R R R R S S S S S S S S V V V V V V V U _.!.!.:.!.!.!.~. ...............$.$.$.$.$.$.$.$.&.&.&.&.&.&.[.&.-.-.-.-.-.-.-.-.$.$.$.$.$.$.$.$.",
"E E E E E E E E - - - - o - - - }.|.G H F F F F K ,.>.J J >.>.>.L L L L L L L L 1.N N N N N N N P P P 2.P P P P R R R R R R R R S S S S S S S S V V V V V V V 3.4.!.5.5.!.6.!.~. ...............$.$.$.$.$.$.$.$.&.*.&.&.&.&.&.&.-.-.-.-.-.-.-.-.$.$.$.$.$.$.$.$.",
"E E E E E E E E - - - - o - - - }.|.G H G G F F ,.K J >.K >.J I L L L L L L L L N 1.N N N N N N P P P P P P P P R R R R R R R R 7.S S S S S S S V V V V V V V 8.4.!.!.!.!.!.!.~. ...............$.$.$.$.$.$.$.$.&.*.&.&.&.&.&.&.-.-.-.-.-.-.-.-.$.$.$.$.$.$.$.$.",
"E E E E E E E E - - - - - - - - /./.9.9.F F G F K >.>.>.K ,.K >.L L L L L M L L <.N N N N N N N (.P P P P 2.P P R R R R R R R 0.S S S S S S S S V V V V V V V U Z !.!.!.!.!.:.a. ...............].$.$.$.$.$.$.$.&.&.*.&.&.&.&.&.-.-.-.-.-.-.-.-.$.$.$.$.$.$.$.$.",
"E E E E E E E E - - - - - - - b.c.d.e.e.f.f.f.g.J >.>.J K K J I L L L L L h.L L i.i.i.i.i.i.i.i.(.P P P P P P P R R R R R R R R S S S S S S S S j.U 8.3.8.8.U k.l.:.!.!.!.!.:.l. ...............].$.$.$.m.$.$.$.n.&.&.&.n.&.&.&.o.-.-.-.-.-.-.-.$.$.$.$.$.$.$.$.",
"p.q.q.q.p.q.q.p.^ ^ ^ ^ ^ ^ ^ r.s.Y Z Z Z Z Z t.u.v.v.v.w.w.v.v.x.x.x.x.x.x.x.y.t.Z Z Z Z Z Z z.A.B.B.B.C.C.B.B.D.D.E.F.F.F.F.F.G.G.G.G.G.G.G.H.t.Z Z _.).).Z Z !.!.!.!.!.!.!.Z I.J.K.K.K.K.J.J.L.L.M.M.M.N.N.O.P.Q.R.R.P.S.R.T.U.V.U.W.X.X.W.W.1 | | 1 1 1 1 b ",
"q.q.q.q.q.q.q.q.^ ^ ^ ^ ^ ^ ^ y Y !.:.:.!.!.!.Z Y.Z.v.v.w.w.v.v.x.x.x.x.x.x.x.`.Z !.:.:.!.6.:.Z  +B.B.B.B.B.B.B.D.E.E.F.F.F.F.F.G.G.G.G.G.G.G.H.~.!.!.:.!.!.!.!.!.!.!.!.!.!.:.~..+K.K.K.K.K.K.K.L.L.M.M.M.M.M.++@+R.R.R.#+R.R.R.X.X.W.X.X.X.X.V.1 | 1 | s s | 1 ",
"q.q.q.q.q.q.q.q.^ ^ ^ ^ ^ ^ ^ $+Z !.:.:.!.!.:.Z Y.v.v.v.v.v.v.Z.x.x.x.x.x.x.x.y.Z !.!.!.!.!.!.Z %+B.B.B.B.B.B.C.F.F.F.F.F.F.F.F.G.G.G.G.G.G.&+H.~.:.!.!.!.!.!.!.!.!.!.:.!.!.!.~..+K.*+K.K.K.K.K.++++M.M.M.M.M.M.R.R.#+#+R.R.R.R.U.X.W.X.X.X.X.W.1 | s | 1 s 1 1 ",
"q.q.q.q.q.q.q.q.^ ^ ^ ^ ^ ^ ^ y Z !.!.!.!.!.!.Z Y.v.v.v.v.v.v.Z.x.x.x.x.x.x.x.y.~.!.!.!.!.!.!.Z %+B.B.B.B.B.B.C.F.F.F.F.F.F.F.F.G.G.G.G.&+G.&+H.Z :.!.!.!.!.!.!.!.!.!.!.!.6.!.~..+K.*+K.K.K.K.K.M.M.M.M.M.M.M.M.R.R.#+#+R.R.R.R.W.W.X.X.X.X.W.V.1 | s 1 s 1 s s ",
"q.q.q.q.q.q.q.q.^ ^ ^ ^ ^ ^ ^ y Y !.!.!.!.!.!.Z Y.v.v.v.v.Z.v.Z.x.x.x.x.x.x.x.y.Z !.!.!.!.!.!.Z  +=+B.B.C.B.B.B.F.F.F.F.F.F.F.D.-+&+G.G.G.G.G.H.Z !.!.!.!.!.:.:.!.!.!.!.!.!.!.~.;+K.K.K.K.K.K.K.M.M.M.M.L.M.M.>+R.R.R.R.R.R.R.R.W.X.X.X.X.X.X.X.,+| 1 | 1 | s s ",
"q.q.q.q.q.q.q.q.^ ^ ^ ^ ^ ^ ^ y Z !.!.!.!.!.!.~.Y.v.v.v.v.Z.Z.v.x.x.x.x.x.x.x.y.Z !.!.!.!.!.!.Z A.B.B.B.B.B.B.B.F.F.F.F.F.F.F.D.&+'+G.G.G.G.G.H.Z !.!.!.!.!.!.!.!.!.!.!.!.!.!.~.;+K.K.K.K.K.K.K.M.M.M.M.M.L.M.M.R.R.R.R.R.R.R.R.W.X.X.X.X.X.W.W.,+| 1 1 | | 1 s ",
"q.q.q.q.q.q.q.q.^ ^ ^ ^ ^ ^ ^ y l.!.!.!.!.!.)+Z Y.v.v.v.v.v.v.v.x.x.!+x.x.x.x.~+Z !.!.!.:.:.!.Z A.B.B.B.B.B.B.B.F.F.F.F.F.F.F.F.-+G.G.G.G.G.G.H.Z !.!.!.!.!.:.!.:.:.!.!.!.!.{+Z ]+K.K.*+K.K.K.K.++++M.M.O.M.M.M.#+#+Q.Q.R.R.#+R.X.W.X.X.X.X.W.W.| 1 | 1 1 | | 1 ",
"^+^+q.q.^+^+q./+^ ^ ^ ^ ^ ^ ^ y Z 5.!.!.!.!.!.~.Y.v.v.v.v.v.v.v.x.x.x.(+x.x.!+y.Z !.!.!.:.:.!.Y _+A.A.A._+ + + +:+:+F.F.F.F.F.F.H.H.H.H.H.H.H.<+~.!.!.!.!.!.!.:.[+[+[+}+|+1+2+3+4+.+.+5+.+]+.+.+6+6+6+6+6+6+6+M.7+7+7+@+@+@+8+@+9+9+V.V.9+0+9+0+,+,+| | | 1 1 | ",
"a+a+a+a+a+a+a+b+c+c+c+c+c+c+d+e+Z !.!.!.!.!.:.Z f+g+h+i+g+j+j+g+k+k+k+k+k+k+k+l+m+n+n+n+n+n+n+n+Z Z Z Z l.l.Z t.o+p+p+p+p+p+p+o+t.~.~.~.Z Z ~.~.!.!.!.!.!.!.!.|+q+r+s+t+u+u+u+q+v+Z Z Z Z Z Z Z Z Z Z ~.Z Z ~.~.Z l.Z Z Z Z l.l.Z _.)._.4.Z Z w+x+y+y+y+y+y+y+y+",
"a+a+a+a+a+a+a+a+c+c+c+c+c+c+d+e+Z !.!.!.!.!.6.Z z+g+g+g+g+g+j+j+k+k+k+k+k+k+k+l+m+n+n+n+n+n+n+n+!.!.!.:.:.:.:.Z A+p+p+p+p+p+p+A+Z !.!.!.!.6.!.!.!.!.!.!.!.!.!.|+u+B+C+C+B+B+B+u+[+!.!.!.!.!.!.!.!.!.!.!.!.!.!.!.)+:.!.!.!.!.!.!.!.!.!.!.{+!.!.Z D+y+y+y+y+y+y+y+",
"a+a+a+a+a+a+a+a+c+c+c+E+c+c+c+e+Z !.!.!.!.!.!.Z z+j+g+g+g+g+g+j+k+k+k+k+k+k+k+l+m+n+n+n+F+F+n+n+!.!.!.!.!.!.!.Z A+p+p+p+p+G+p+A+Z !.!.!.!.!.!.!.!.!.!.H+!.!.!.|+I+J+K+K+J+J+B+u+|+!.!.:.!.!.!.!.!.!.!.!.!.!.!.!.!.!.!.!.!.!.!.!.!.!.!.!.!.!.!.Z L+y+y+y+y+y+y+y+",
"a+a+a+a+a+a+a+a+c+c+E+c+c+c+c+e+Z !.!.!.!.!.!.Z z+g+j+j+j+j+j+M+k+k+k+k+k+k+k+l+m+n+N+N+n+n+n+n+!.!.!.!.!.!.!.Z A+p+p+p+G+p+p+A+Z !.!.!.!.!.!.!.!.!.{+!.!.!.!.|+I+J+K+K+J+J+B+u+|+!.!.:.!.!.!.!.!.!.!.!.!.!.!.!.!.!.!.!.!.!.!.!.!.!.!.!.!.!.!.Z D+y+y+y+y+y+y+y+",
"a+a+O+O+a+a+O+P+c+c+c+c+E+E+c+e+Z !.:.:.!.!.!.Z z+g+j+g+g+j+Q+j+k+k+k+k+k+k+k+l+m+n+n+n+n+n+n+n+!.!.!.!.!.!.5.Z A+p+p+p+p+p+p+R+Z !.!.!.!.!.!.!.!.!.:.:.!.!.:.[+u+K+K+K+S+S+B+u+|+!.!.!.!.!.!.!.!.!.!.!.!.!.!.!.!.!.6.!.!.!.!.!.!.!.!.!.!.!.!.Z D+y+y+y+y+y+y+y+",
"a+a+O+O+a+a+O+P+T+c+c+c+E+E+c+e+Z !.:.:.!.!.!.Z z+j+g+j+g+j+U+j+k+k+k+k+k+k+k+l+m+n+n+n+n+n+n+n+!.!.!.!.!.!.!.V+A+p+p+p+p+p+p+R+Z !.!.!.!.!.!.!.!.!.!.!.!.6.!.[+u+K+C+W+J+S+K+t+|+!.!.!.!.!.!.!.!.!.!.!.!.!.!.!.!.!.!.!.!.!.!.!.!.!.!.!.!.!.!.Z x+y+y+y+y+y+y+y+",
"a+a+a+a+a+a+a+a+c+c+E+c+c+c+c+e+Z !.!.!.!.!.!.Z X+g+g+g+g+g+i+U+k+k+k+k+k+k+k+l+m+n+n+n+n+n+n+n+!.!.!.!.!.!.!.Z A+p+p+p+p+p+p+A+Z !.!.!.!.!.!.!.!.!.!.:.!.!.!.|+u+B+Y+Y+J+W+C+Z+`+{+!.!.!.!.!.!.!.!.!.!.!.!.!.!.!.!.!.!.!.:.!.!.!.:.!.!.!.!.!.Z D+y+y+y+y+y+y+y+",
"a+a+ @ @a+a+ @.@e+e++@e+e+e+e+E.@@#@#@#@#@$@$@@@%@z+M+z+z+z+z+X+l+l+l+l+l+l+l+&@*@=@=@=@-@;@-@-@|+|+|+|+|+|+|+>@,@A+A+A+A+A+A+,@>@|+[+|+[+|+|+|+|+|+[+|+|+|+|+$@r+B+Y+Y+J+W+C+t+'@#@)@)@#@$@#@#@!.!.!.!.!.!.!.!.|+|+|+|+[+[+|+|+#@)@#@#@)@)@#@!@~@x+D+D+D+x+{@x+",
"]@^@^@^@]@^@^@/@(@Z Z Z Z Z Z _@:@<@[@[@[@[@[@}@_@Z Z Z Z Z Z Z Z Z Z Z Z Z Z >@|@S+1@1@W+I+I+I+u+u+I+I+u+u+I+|@>@Z 3+3+Z Z Z >@q+u+I+I+Z+W+2@t+t+t+u+u+3@Z+u+u+B+B+4@4@K+K+K+5@6@7@[@[@[@[@[@}@8@n+n+n+N+N+n+=@|@I+I+3@9@9@I+W+6@0@0@<@[@[@[@}@_@Z Z Z Z Z Z Z ",
"^@^@^@^@^@^@^@/@~.!.!.!.!.!.!.$@a@b@c@c@c@c@d@7@$@!.:.:.!.!.!.!.!.!.!.!.!.!.!.|+r+B+K+K+S+W+B+B+B+B+J+J+B+B+J+I+|+!.!.!.!.!.!.[+t+K+J+J+J+J+K+K+C+C+B+B+K+K+B+B+B+B+4@S+B+B+K+5@7@d@c@c@c@c@c@[@e@n+n+n+n+n+n+=@I+J+J+W+S+S+J+f@g@c@b@c@c@c@c@0@$@!.!.!.!.!.!.!.",
"h@h@^@^@h@h@^@/@Z !.!.!.!.!.!.#@0@c@c@b@c@c@c@[@)@:.:.:.!.:.!.!.!.5.!.!.!.!.!.|+9@S+B+B+J+J+B+B+W+W+J+J+C+C+J+I+[+!.!.!.!.!.!.`+I+J+B+B+B+B+Y+Y+K+K+B+B+K+K+i@r+J+J+Y+J+B+J+C+j@k@b@c@c@c@d@c@[@e@n+n+n+n+n+n+=@1@K+Y+Y+S+S+J+l@7@c@c@c@d@c@c@[@m@!.!.!.!.n@!.!.",
"h@h@^@^@h@h@^@/@~.!.!.!.!.!.!.#@0@c@c@b@c@c@c@[@$@!.!.:.!.:.!.!.5.:.!.!.!.!.!.|+W+S+B+B+J+J+B+B+W+W+J+J+C+C+J+I+|+:.6.!.!.!.{+|+o@K+B+B+B+B+Y+Y+K+K+B+B+K+K+i@i@J+J+J+Y+J+B+4@j@p@b@c@c@c@d@c@[@e@n+n+n+n+n+n+=@K+K+Y+Y+4@4@J+l@7@c@c@c@d@c@c@[@#@!.!.6.}+:.:.:.",
"^@^@^@^@^@^@^@/@Z !.!.!.!.!.!.#@0@c@c@c@c@b@c@[@#@!.!.!.!.!.{+!.!.!.!.!.!.:.!.|+u+B+K+K+J+W+B+B+K+K+K+K+K+K+J+I+|+!.!.!.!.)+!.|+I+J+J+J+K+W+W+K+S+J+B+B+J+J+S+S+W+W+J+J+J+J+J+j@<@d@b@b@c@c@c@[@e@n+n+n+n+n+n+=@S+J+J+J+K+K+B+5@7@c@c@c@c@c@b@<@q@:.!.!.!.!.!.!.",
"^@^@^@^@^@^@^@/@Z !.!.!.!.!.!.#@[@c@c@c@b@c@c@[@#@!.!.!.!.!.!.n@!.!.!.!.:.:.!.|+u+B+K+K+J+W+B+B+K+K+K+K+K+K+C+t+|+!.!.!.!.!.!.|+I+J+J+J+K+W+K+W+J+S+B+B+J+J+S+S+J+J+J+J+J+J+J+r@7@d@b@b@c@c@c@[@e@n+n+n+n+n+n+=@S+J+Y+Y+K+K+B+5@7@c@c@c@c@c@b@<@q@:.!.!.!.!.!.!.",
"h@s@^@^@h@s@^@t@Z !.!.!.!.!.!.m@[@c@c@c@b@b@b@<@m@!.!.!.!.!.!.!.!.!.!.!.!.:.!.|+t+K+B+J+J+W+B+B+K+K+B+B+B+B+K+t+|+!.!.!.!.!.!.|+u+B+B+B+J+J+W+W+S+S+4@4@J+J+J+J+B+B+B+B+S+S+K+5@g@c@c@c@c@c@c@7@e@n+n+n+n+n+n+=@u@B+B+J+Y+J+W+j@g@c@c@c@c@c@b@<@#@!.:.:.!.:.!.!.",
"^@h@^@^@^@h@^@/@>@|+|+|+|+|+|+v@6@7@7@7@<@p@p@w@x@#@#@m@#@#@#@#@!.!.!.!.:.!.!.|+K+5@l@j@j@y@l@l@K+K+B+B+B+B+K+t+$@|+|+|+|+|+|+$@B+l@l@l@j@j@5@z@9@9@9@9@I+I+S+I+l@l@l@l@f@j@5@A@g@c@c@c@c@c@c@[@B@=@=@=@=@=@=@8@B+l@j@l@C@j@j@D@g@c@c@c@c@c@b@a@#@!.:.:.:.!.!.!.",
"E@E@E@E@E@E@E@F@G@I+t+I+I+I+u+u+l@l@f@f@l@l@l@H@6@[@[@[@[@[@[@}@8@n+n+n+n+n+n+8@I@7@7@7@7@7@7@6@J@K@K@K@L@K@K@M@I+S+9@I+I+I+o@i@N@7@g@g@7@g@g@O@P@=@=@=@=@Q@=@P@I@7@7@7@7@7@7@7@c@c@c@d@b@R@c@7@4@t+t+9@1@1@I+J+0@7@7@7@7@7@7@7@c@c@c@c@c@c@c@0@$@!.6.!.:.:.!.!.",
"E@E@E@E@E@E@E@S@T@4@B+W+J+J+J+J+B+B+S+S+B+B+B+l@7@c@c@c@c@c@c@[@e@n+n+n+n+n+n+e@7@d@c@c@c@c@c@[@M@U@U@K@U@K@K@K@J+J+S+S+J+J+r+V@7@d@d@c@c@c@c@0@e@n+n+n+n+F+n+e@[@d@c@c@c@c@c@c@c@c@c@d@b@c@c@7@z@C+S+K+K+K+J+j@7@c@c@c@c@c@c@c@c@c@c@c@c@c@c@0@#@!.!.!.!.:.!.!.",
"E@E@E@E@E@E@E@S@W@K+B+B+J+Y+W+S+Y+J+W+K+C+W+J+r@7@c@c@c@c@c@d@7@e@F+n+n+n+n+n+e@0@c@c@c@c@d@c@g@M@K@U@U@K@K@U@K@W+K+J+K+B+B+K+X@k@b@c@c@c@c@c@0@e@n+n+n+n+n+n+e@[@c@c@c@c@c@c@d@c@c@b@b@c@c@c@7@j@W+K+W+4@4@K+X@7@c@d@d@d@c@c@c@c@c@c@c@c@c@c@[@#@!.!.!.!.!.!.!.",
"E@E@E@E@E@E@E@S@W@K+B+B+J+Y+S+W+Y+J+W+K+W+C+J+j@7@c@c@c@c@c@d@7@e@F+n+n+n+n+n+e@[@c@c@c@d@c@c@7@Y@U@U@U@U@Z@U@K@K+W+K+J+B+B+K+5@<@b@c@c@c@c@c@[@e@n+n+n+n+n+n+e@[@c@c@c@c@c@d@c@c@c@b@b@c@c@c@7@j@W+W+K+4@4@K+5@7@c@c@c@d@c@c@c@c@c@c@c@c@c@c@[@$@!.!.!.!.!.!.!.",
"E@E@E@E@E@E@E@S@`@J+C+Y+S+S+K+B+B+B+K+K+K+K+B+l@7@b@c@c@c@c@d@[@e@n+n+N+n+n+n+e@[@c@c@c@c@d@c@[@J@K@K@ #K@K@K@.#S+K+K+K+J+J+J+l@7@c@c@c@b@b@c@[@e@n+n+N+n+n+n+e@<@b@b@b@c@d@c@c@c@c@c@c@c@c@c@7@j@J+i@i@J+J+B+l@7@c@c@c@c@d@c@+#d@d@d@c@c@c@c@7@@#!.!.!.!.!.!.!.",
"E@E@E@E@E@E@E@S@##J+Y+C+S+S+B+K+B+B+K+K+K+K+B+l@<@c@c@c@c@c@c@7@e@n+n+N+n+n+n+e@[@c@c@c@c@d@c@[@J@U@K@K@K@K@K@K@S+K+K+K+J+J+J+l@7@c@c@c@b@b@c@[@e@n+N+n+n+n+n+e@<@b@b@b@c@d@c@c@c@c@c@c@c@c@c@7@j@J+K+z@J+J+B+l@7@c@c@c@c@d@c@+#d@d@d@c@c@c@c@N@#@!.!.!.!.!.!.!.",
"E@E@E@E@E@E@E@S@$#K+J+K+W+W+K+K+B+B+J+K+i@r+r+5@7@c@c@c@c@c@c@[@e@n+n+n+n+F+n+e@<@b@c@c@d@d@c@[@Y@U@U@K@K@U@U@.#J+J+W+Y+K+K+B+l@7@c@b@b@c@c@c@7@e@n+n+n+n+n+n+e@0@d@c@c@c@c@c@c@c@d@c@c@c@c@c@7@j@W+J+J+B+B+B+l@7@c@b@b@c@c@c@c@b@c@d@c@c@c@c@0@#@!.!.!.:.:.!.!.",
"S@S@S@%#S@S@S@&#W@i@J+K+J+J+K+K+r+u@I+1@*#*#u@=#0@7@7@7@7@7@7@6@-#e@e@e@e@;#e@-#<@b@c@c@d@d@c@[@>#K@K@.#K@.#K@,#J+J+J+C+K+K+B+l@6@[@<@<@[@[@7@O@'#=@=@=@=@=@=@P@}@N@[@[@[@[@7@7@[@7@[@[@[@[@[@6@)#y@j@j@l@l@l@H@7@+#b@b@c@c@c@c@[@<@7@7@[@[@[@}@x@#@$@#@#@$@$@#@",
"`@`@$#!#`@`@$#!#J+J+B+B+B+B+K+1@8@=@=@=@=@=@=@8@B+l@j@j@j@z@l@H@6@[@[@[@0@[@[@[@c@c@~#b@c@c@c@7@C@B+J+J+K+K+r+r+i@B+Y+J+J+J+J+J+Y@M@J@M@M@M@J@J@u+u@I+I+9@9@u@t+P@e@e@e@e@e@e@e@e@e@e@e@e@e@e@-#6@7@<@<@g@g@<@p@c@c@c@c@c@c@c@[@-#e@e@e@e@e@e@-#O@7@<@<@<@<@[@[@",
"J+J+i@S+J+J+i@S+Y+Y+B+B+B+B+K+1@=@n+n+n+n+n+n+=@u@B+Y+Y+C+J+B+l@7@c@c@c@c@c@c@c@c@c@{#{#c@c@c@7@l@B+B+B+K+K+i@i@i@r+J+Y+J+J+J+J+K@K@K@K@K@Z@U@.#B+B+J+J+S+S+K+u@=@n+n+n+n+n+n+n+n+n+n+n+n+n+n+e@7@d@b@b@c@c@b@b@c@c@c@c@c@c@c@[@e@n+n+n+n+n+n+e@[@c@b@b@b@b@c@c@",
"i@W+C+C+i@W+C+C+C+J+B+B+B+B+J+u+=@n+n+n+n+n+n+=@Z+W+J+W+W+W+K+5@7@c@b@b@d@c@c@c@d@d@b@c@c@c@c@7@f@S+J+J+Y+J+]#Y+J+W+K+r+B+B+B+B+,#K@U@ #K@K@K@K@^#Y+J+J+B+B+4@9@=@n+n+n+n+n+n+n+F+F+n+n+n+n+n+/#[@c@c@c@c@c@b@b@c@c@c@c@c@c@b@[@e@n+n+n+n+n+n+e@[@b@c@c@c@d@c@c@",
"S+K+Y+Y+S+K+Y+Y+C+J+B+B+B+B+B+I+=@n+n+n+n+n+n+=@3@W+J+W+J+J+K+5@7@c@b@b@d@c@c@c@d@c@c@b@c@c@c@7@f@S+J+J+J+J+Y+Y+J+W+r+K+B+B+B+B+K@K@U@K@K@U@K@K@^#Y+J+J+B+B+C+I+=@n+n+n+n+n+n+n+F+F+n+n+n+n+n+/#7@c@c@c@c@c@b@b@c@c@c@c@(#c@b@[@e@n+n+n+n+n+n+e@[@b@c@c@c@d@c@c@",
"K+4@J+J+K+4@J+J+Y+Y+B+B+4@4@B+u@=@n+n+n+n+n+n+=@o@4@z@K+J+J+W+f@7@c@b@b@c@c@c@c@d@c@c@c@c@c@c@g@5@K+Y+Y+Y+J+K+K+B+Y+i@i@B+B+J+W+K@K@U@U@U@U@U@K@B+B+K+K+S+S+B+B+=@n+n+N+n+n+n+n+n+n+n+n+n+n+n+e@<@b@c@c@b@b@d@c@c@c@b@b@c@c@c@[@8@n+n+F+n+n+n+e@a@b@c@c@c@c@c@c@",
"K+W+J+J+K+W+J+J+Y+Y+B+B+4@4@B+u@=@n+n+n+N+N+n+=@o@4@i@i@J+J+W+y@7@c@b@b@d@d@c@c@d@c@c@c@c@c@c@7@5@K+Y+]#Y+J+K+K+J+Y+i@i@B+B+W+J+K@K@U@K@K@K@K@K@B+B+K+K+S+S+B+u@=@n+N+n+n+n+n+n+n+n+n+n+n+n+n+e@<@b@c@b@b@b@c@d@d@d@b@b@c@c@c@[@/#n+F+n+n+n+n+e@<@b@c@c@c@c@c@c@",
"B+B+4@W+B+B+4@W+J+J+J+J+W+J+J+t+=@n+n+n+n+n+n+_#9@S+B+B+K+K+B+l@7@c@b@b@c@c@b@b@c@c@c@c@c@c@c@7@5@K+J+Y+i@K+B+B+S+S+K+K+J+J+Y+]#K@K@U@U@K@U@K@K@J+J+J+J+i@K+J+I+_#n+n+n+n+n+n+n+n+n+n+n+n+F+n+e@[@c@c@c@d@d@c@c@c@c@c@c@c@d@c@[@e@n+n+n+n+n+n+e@[@c@c@c@c@c@c@c@",
"l@l@f@y@l@l@f@y@I+I+u+u+S+W+t+|@8@=@=@=@=@=@=@8@|@S+B+B+K+K+B+l@0@7@<@<@g@g@<@p@c@c@c@c@c@c@c@7@K+1@I+J+*#1@u@u@S+S+K+K+J+J+J+J+.#U@U@U@U@ #U@K@z@z@:#X@<#[#}#|#1#=@=@=@=@=@=@=@=@=@=@=@=@=@=@B@[@c@c@d@c@c@c@c@7@7@7@7@7@7@g@2#P@=@=@=@=@=@=@P@6@7@7@7@g@g@7@7@",
"7@[@<@<@7@[@<@I@P@=@=@=@=@=@=@8@3#9@W+9@1@1@S+I+K@K@K@K@L@K@K@K@z@5@l@l@y@y@V@4#7@c@c@c@c@c@(#[@B@=@=@=@=@=@=@1#u@K+J+J+Y+J+B+u@5#=@-@-@6#6#6#7#8#9#0#0#0#0#0#a#b#1@1@1@I+t+S+I+J+c#u@u@I+I+K+K+<@b@c@c@c@c@d@g@)#r@j@5@l@l@l@l@I+I+1@1@u@1@u@u@z@:#j@j@l@l@j@j@",
"c@c@d@d@c@c@d@7@e@n+n+n+n+n+n+=@9@S+S+S+K+K+J+J+K@U@U@U@K@K@U@K@K+K+B+B+J+J+i@X@7@c@c@c@c@c@c@0@e@n+n+n+n+n+n+=@1@B+J+J+J+Y+B+u@_#n+n+n+n+N+F+d#e#f#f#f#f#f#f#0#g#B+B+B+J+K+J+J+J+B+B+B+B+B+K+X@p@b@c@c@c@c@c@7@j@J+J+K+B+B+B+B+J+J+K+K+K+B+B+B+4@C+J+J+B+B+J+J+",
"c@c@b@b@c@c@b@<@P@n+n+n+n+n+n+=@I+J+B+B+K+K+J+J+K@K@U@U@K@K@U@K@J+J+B+B+J+J+K+5@g@c@c@c@c@c@c@[@e@n+F+n+n+n+n+=@I+W+J+J+B+B+B+r+-@n+n+n+n+n+n+7#h#f#f#f#f#f#f#0#z@Y+B+B+B+B+J+J+J+Y+J+J+i@r+B+l@7@c@c@c@c@c@c@g@l@B+W+W+S+S+J+J+J+J+K+K+J+Y+B+B+B+B+J+C+J+Y+J+S+",
"c@c@b@b@c@c@b@<@e@n+n+n+n+n+n+=@I+J+B+B+B+B+J+J+K@K@K@K@K@K@K@.#J+J+B+B+J+J+K+X@7@c@c@c@c@c@c@[@e@n+n+F+n+n+n+=@Z+J+J+J+B+B+B+u@-@n+n+n+n+n+n+7#h#f#f#f#f#f#f#0#X@J+B+B+B+B+J+J+Y+J+J+J+i@i@B+l@7@c@c@c@d@d@c@g@l@B+W+W+S+S+J+J+J+J+K+K+Y+J+B+B+B+B+C+J+Y+J+J+S+",
"c@c@c@c@c@c@c@[@e@n+n+n+F+n+n+-@t+J+S+S+B+B+B+B+.#K@U@K@U@U@K@K@W+J+K+C+B+B+K+5@p@b@b@b@c@c@b@<@e@n+n+n+n+n+n+=@I+J+K+K+B+B+J+I+=@n+n+n+n+n+n+7#h#f#f#f#i#i#f#a#:#J+J+J+J+J+K+K+Y+J+B+B+Y+K+i@X@<@b@c@c@b@b@c@7@j#B+B+B+J+J+Y+Y+i@i@K+K+J+J+J+J+J+J+C+C+4@4@K+B+",
"c@c@c@c@c@c@c@[@e@n+n+n+F+n+N+=@I+K+S+S+B+B+B+B+K@U@U@U@ # #K@K@W+J+4@C+B+B+K+5@<@b@b@b@c@c@b@<@e@n+n+n+n+n+n+=@I+J+K+K+B+B+J+I+=@n+n+F+n+n+n+7#h#f#f#f#i#i#f#a#<#B+J+J+J+J+K+K+Y+Y+B+B+Y+K+i@X@7@c@c@c@b@b@c@7@l@B+B+B+J+J+Y+Y+i@i@K+K+J+J+J+J+J+J+4@4@4@4@B+K+",
"d@c@c@c@d@c@c@7@e@n+n+n+n+n+n+=@*#i@S+S+i@i@K+K+K@K@U@U@K@U@K@K@J+J+C+J+K+K+Y+j@7@c@c@c@c@c@c@[@e@n+n+n+n+n+n+=@u@B+B+B+C+C+J+I+=@n+n+n+n+n+n+7#k#i#f#f#f#f#l#0#<#r+B+B+B+B+B+B+B+B+B+B+B+B+B+l@7@c@b@b@c@c@c@7@j@J+J+J+i@K+B+B+J+J+B+B+Y+Y+J+J+J+J+B+B+B+B+S+S+",
"d@c@c@c@d@c@c@7@P@=@=@=@=@=@=@8@i@V@5@A@X@V@5@5@M@K@K@K@K@K@K@M@J+J+C+J+K+K+J+j@0@7@7@7@7@7@7@6@-#e@e@e@e@e@e@P@u@B+B+B+C+C+J+I+P@e@e@e@e@e@e@m#n#o#p#p#p#p#q#r#s#V@l@l@5@5@5@5@B+B+B+B+B+B+B+C@6@[@<@<@[@[@7@6@t#j@j@j@X@X@l@l@J+J+B+B+]#C@J+J+S+I+u@u@u@u@9@9@",
"c@c@c@c@c@c@c@7@B+u@I+I+u@u@I+J+a@p@p@p@7@7@7@0@u#]#S+W+K+K+*#*#J+J+J+J+B+B+]#Y+l@l@:#j@y@y@j@v#w@<@[@[@[@[@[@6@f@r+B+B+B+B+J+j@6@7@[@[@7@7@[@[@w#w#w#w#k@k@w#w#7@7@7@7@<@<@<@6@Y@.#K@K@K@K@.#.#P@e@e@e@e@e@e@-#6@7@7@7@7@7@7@0@C@J+C+W+J+C+J+I+8@=@=@=@=@=@=@=@",
"c@c@c@c@c@c@c@7@l@B+J+J+B+B+J+j@<@b@b@b@c@c@c@7@x#Y+W+J+K+K+i@i@J+J+J+J+B+B+]#Y+B+B+C+J+J+J+J+z@p@b@c@c@c@c@c@7@4#S+B+B+B+B+J+j@g@c@c@c@d@d@c@c@c@c@c@c@d@d@c@c@c@c@c@c@c@c@b@<@M@K@K@U@U@K@.#U@-@n+n+n+N+N+n+e@[@c@c@c@c@c@c@7@j@B+C+W+J+C+J+S+=@n+n+n+n+n+n+n+",
"c@c@c@c@c@c@c@7@5@K+J+B+J+J+4@:#7@c@c@c@+#c@c@g@j@B+W+J+K+K+B+J+K+4@B+B+B+B+J+J+B+B+J+J+J+J+K+X@7@c@c@c@c@c@c@7@l@B+S+S+B+B+J+j@7@c@c@c@c@c@b@b@c@c@c@c@c@c@c@c@c@c@c@c@d@c@d@y#M@ # #U@K@K@U@U@-@n+n+n+n+n+n+e@<@b@c@c@b@b@c@7@l@K+B+J+K+K+J+I+=@F+n+F+n+n+n+N+",
"c@c@c@c@c@c@c@7@5@K+J+B+J+J+C+:#7@c@c@c@c@+#c@7@l@J+S+S+K+K+B+J+K+4@B+B+B+B+J+J+B+B+J+J+J+J+K+5@7@c@c@c@c@c@c@7@l@B+S+S+B+B+J+j@7@c@c@c@c@c@b@b@c@c@c@c@c@c@c@c@c@c@c@c@c@d@c@[@M@U@U@K@K@K@U@U@-@n+n+n+F+F+n+e@<@b@c@c@b@b@d@7@l@K+J+C@J+J+W+Z+=@F+n+F+n+n+N+n+",
"c@c@c@c@c@c@c@7@j@J+B+B+K+K+W+j@7@d@c@c@c@c@c@7@X@i@S+S+B+B+J+J+4@y@J+B+J+K+B+B+K+K+J+J+J+J+4@j@7@c@c@c@c@d@b@<@l@B+B+B+B+B+B+l@7@c@c@c@c@b@b@b@(#c@c@c@b@c@c@c@b@b@b@b@c@c@c@[@J@K@K@K@K@K@K@U@6#n+n+n+n+n+n+e@[@c@c@c@c@c@c@7@l@B+B+B+]#Y+K+t+=@n+n+n+n+N+N+N+",
"c@c@c@c@c@c@c@7@j@Y+B+B+K+K+W+j@7@d@c@c@c@c@c@7@X@i@S+S+B+B+J+J+4@4@J+B+K+J+B+B+K+K+W+W+J+J+J+y@7@c@c@c@c@d@b@<@l@B+B+B+B+B+B+l@7@c@c@(#b@c@c@c@(#c@c@c@c@b@c@c@b@b@b@b@c@c@c@7@J@K@K@K@U@U@U@ #6#n+F+F+F+F+n+e@<@b@c@c@b@b@c@7@l@B+B+B+]#]#W+Z+=@n+n+n+n+N+n+n+",
"c@c@c@c@c@c@c@7@j@W+B+B+i@i@K+5@7@c@c@c@c@c@c@7@l@J+J+J+r+r+K+S+K+K+Y+Y+K+K+B+B+B+B+B+B+B+B+J+j@7@c@c@d@c@c@c@7@l@B+B+B+B+B+B+l@7@c@b@b@d@d@b@b@c@c@c@c@d@c@c@c@d@c@c@c@d@c@z#p@M@K@K@K@K@U@U@ #-@n+n+n+n+n+n+e@[@c@c@c@c@c@b@<@5@K+J+J+B+B+B+u@=@F+N+A#n+n+n+n+",
"[@[@[@[@[@[@[@6@j@W+B+B+i@i@K+5@0@y#c@7@<@<@7@0@B+I+I+I+*#*#9@2@B+B+J+J+K+K+B+B+B+B+B+B+B+B+J+j@0@7@7@7@<@<@<@N@C@u@u@u@u@u@u@B+0@7@<@p@<@<@p@<@7@7@7@7@7@7@7@g@[@7@[@7@7@7@k@w@Y@K@K@K@K@.#.#L@-@n+n+n+n+n+n+1#}@[@[@[@[@[@<@w@H@l@j@j@l@l@l@B+P@;#e@;#e@e@e@e@",
"e@e@/#/#e@e@/#B#I+J+J+J+Y+Y+K+K+l@l@j@j@l@l@j@Y+8@=@=@=@=@=@=@8@u@B+4@4@B+B+K+K+K@.#L@L@K@K@K@,#=#V@j@j@l@l@X@i@8@=@=@=@=@=@=@8@C#l@l@l@j@j@V@V@j#l@l@l@l@l@j@j@Y@J@J@J@M@J@Y@Y@K+r+K+K+J+J+B+u+=@n+n+n+n+n+n+F+1#e@e@e@e@e@e@-#I@<@g@7@7@7@<@7@[@[@0@0@[@[@N@N@",
"n+n+n+n+n+n+n+=@I+J+J+J+Y+Y+K+K+B+B+Y+Y+B+B+Y+I+=@n+n+n+n+n+n+=@u@B+4@4@K+K+K+2@.#K@K@K@U@U@U@K@r+i@J+J+B+B+i@*#=@n+n+n+n+n+n+=@I+B+B+B+J+J+i@i@B+B+B+B+B+B+B+B+.#U@K@K@K@U@U@K@K+B+B+B+J+J+B+u@=@n+n+n+n+n+n+F+n+n+n+n+=@n+n+e@0@c@c@+#c@c@d@c@c@c@c@c@c@c@c@c@",
"n+n+F+n+n+n+F+=@1@i@W+J+W+J+J+J+i@i@4@4@i@r+C+t+=@n+F+n+n+n+n+=@I+J+K+K+B+B+K+K+K@U@ # #U@U@K@K@r+i@B+B+B+B+J+I+=@n+n+N+n+n+n+=@u@B+K+J+B+B+J+J+J+J+B+B+J+J+B+B+K@K@U@ #K@K@U@K@r+B+J+W+J+J+J+I+=@n+n+n+n+n+n+n+F+F+n+n+n+n+n+e@[@d@c@c@c@c@c@c@c@c@b@c@c@c@c@c@",
"n+n+N+A#n+n+N+-@1@i@J+W+J+C+J+J+i@i@4@4@r+r+C+t+=@n+n+F+n+n+n+=@I+J+K+K+B+B+K+K+K@U@U@U@K@K@U@K@S+S+B+B+B+B+J+I+=@n+N+n+n+n+n+=@u@B+K+J+B+B+J+J+K+K+B+B+J+J+B+B+K@K@U@ #K@K@K@K@K+K+W+J+J+J+J+I+=@n+n+n+n+n+n+n+n+n+n+n+n+n+n+e@[@d@c@c@c@c@c@c@c@c@c@b@c@c@c@c@",
"n+n+N+N+n+n+N+-@u@B+4@4@W+K+B+B+B+J+K+K+B+B+J+Z+=@n+n+n+n+n+N+-@u+B+Y+Y+B+B+W+S+K@K@U@K@U@K@Z@L@B+B+K+B+W+W+K+1@=@n+n+n+n+n+n+=@I+J+J+J+B+B+J+J+4@S+J+J+K+i@B+J+K@U@K@K@U@K@K@K@J+J+J+J+S+S+J+S+=@n+n+n+n+n+n+F+n+n+F+n+n+n+n+;#[@c@c@c@c@c@c@c@c@c@c@c@d@c@d@c@",
"n+n+n+n+n+n+n+-@u@B+4@4@B+J+B+B+B+J+K+K+B+B+J+Z+=@n+n+n+n+n+n+=@u@B+]#B+K+K+y@S+L@U@U@U@K@K@K@K@B+B+B+K+W+W+5@1@=@n+n+n+n+n+n+=@K+K+J+J+B+B+J+J+4@J+J+J+K+i@J+B+K@U@U@U@Z@U@U@K@J+J+J+J+S+S+J+S+=@n+n+n+n+n+n+F+n+n+n+F+n+n+n+;#[@c@c@c@c@c@c@c@c@c@c@c@c@c@d@c@",
"n+n+n+n+n+n+n+=@u@B+B+B+J+J+B+B+B+B+J+J+B+B+B+r+=@n+n+n+n+n+n+-@1@K+J+K+Y+Y+J+J+K@U@K@U@U@U@K@K@B+B+J+J+J+B+i@*#=@n+n+n+n+n+n+_#I+J+K+K+W+J+C+C+4@4@B+B+B+B+J+W+.#K@U@K@K@U@U@K@B+B+r+i@i@i@J+I+=@n+n+n+n+n+n+n+n+n+n+n+n+n+n+e@p@b@c@c@c@c@d@d@c@c@d@c@c@c@c@c@",
"=@=@=@=@=@=@=@8@u@B+B+B+J+J+B+B+D#D#z@z@D#D#D#b#P@e@e@e@e@e@/#P@E#1@I+t+c#c#I+I+U@U@ #U@U@U@ #K@B+B+J+J+B+J+r+*#'#e@e@e@e@e@e@P@|@I+9@9@I+Z+t+t+4@4@B+B+B+B+J+W+K@K@K@K@.#K@.#,#B+B+i@i@i@i@J+I+8@=@=@_#=@=@=@=@n+n+n+n+n+n+n+e@w@p@7@7@7@7@<@<@7@[@[@7@[@[@[@[@",
"1@1@I+I+1@1@I+I+J+J+i@S+K+K+J+:#a#0#F#F#0#0#0#r#G#[@[@[@[@[@7@O@P@=@=@=@=@=@=@=@-@-@=@=@-@-@-@5#*#i@J+J+K+K+i@V@6@[@[@[@[@[@N@O@B@=@=@=@=@=@-@8@I+J+i@i@J+J+j@J+B+B+^#^#]#]#B+B+B+B+J+B+J+J+J+J+I+I+I+I+u@u@u@q+=@n+n+n+n+n+n+-@W+5@j@j@j@5@j#B+H#e@e@e@e@e@e@e@",
"B+B+J+J+B+B+J+J+J+J+S+i@K+K+J+X@0#f#i#i#f#f#f#p#w#c@c@c@c@c@c@7@e@n+n+n+n+n+n+n+n+n+n+n+n+n+n+=@*#i@J+J+K+K+K+X@7@c@c@c@c@c@c@7@e@n+n+n+F+F+n+-@S+J+S+S+J+J+J+J+B+B+Y+Y+Y+Y+B+=#B+B+B+J+J+J+J+J+J+J+J+J+B+B+B+u@=@n+n+n+n+n+n+-@Z+K+J+J+J+K+B+u@_#n+n+n+n+n+n+n+",
"4@4@J+J+4@4@J+J+B+B+J+J+J+K+i@I#0#f#i#i#f#f#i#o#w#c@c@c@c@c@c@[@/#n+n+n+n+n+n+n+n+n+n+n+n+n+n+=@u@B+K+K+S+S+J+j@<@b@c@c@c@c@c@7@e@n+n+n+n+n+n+=@1@K+K+K+K+K+B+B+B+B+B+B+J+J+S+S+K+K+J+J+J+J+J+J+K+K+W+J+B+B+K+1@=@n+n+n+N+n+n+=@1@K+J+C+i@i@B+u@-@n+J#J#n+n+n+n+",
"4@4@J+J+4@4@J+J+B+B+J+J+i@J+i@K#0#f#i#i#f#f#f#p#w#c@c@c@c@c@c@[@/#n+n+n+n+n+N+N+n+n+n+n+n+n+n+=@B+B+K+K+S+i@J+j@<@b@c@c@c@c@c@7@e@n+n+n+n+n+n+=@1@K+K+K+K+K+B+B+B+B+B+B+J+J+S+S+K+K+J+J+J+J+J+J+K+K+J+W+B+B+K+1@=@n+n+n+N+n+n+=@1@K+J+C+i@i@B+r+-@n+J#J#n+n+n+n+",
"J+K+J+J+J+K+J+J+i@i@4@S+J+J+Y+}#0#i#f#f#l#f#f#p#k@c@c@c@c@c@c@[@e@n+n+n+n+n+n+n+n+n+n+n+n+n+n+=@u@B+K+S+S+4@K+5@7@c@c@c@c@c@c@[@e@n+n+n+n+n+F+=@I+C+J+J+B+B+B+B+B+B+Y+J+B+B+4@4@K+J+B+B+S+S+B+B+J+W+B+B+J+J+B+u@-@n+n+n+n+n+n+-@u@B+J+W+J+J+K+2@=@n+F+A#n+n+n+n+",
"J+K+J+J+J+K+J+J+K+K+S+S+J+J+4@5@0#i#f#f#f#l#f#p#k@c@c@c@c@c@c@[@e@n+n+n+n+n+n+n+n+n+n+n+n+n+n+=@u@B+K+S+S+4@K+X@7@c@c@c@c@c@c@[@e@n+N+n+n+n+F+=@I+C+J+J+B+B+B+B+B+B+Y+J+B+B+4@4@K+J+B+B+S+S+B+B+J+W+B+B+J+J+B+u@-@n+n+n+n+n+N+=@u@B+J+W+J+J+K+1@=@n+N+n+n+n+n+n+",
"S+S+Y+Y+S+S+Y+Y+J+J+J+J+J+J+K+}#F#i#f#f#f#f#i#o#w#c@c@+#c@c@c@0@e@n+n+n+J#J#n+n+n+n+n+n+n+n+n+=@t+C+J+J+B+J+J+j@7@c@c@d@c@d@c@[@e@n+n+n+n+n+n+=@I+J+J+J+K+K+S+S+B+J+C+Y+J+J+K+B+K+K+J+J+J+J+J+J+B+B+r+i@J+B+S+*#-@n+n+n+n+n+n+=@1@K+Y+Y+K+K+J+I+=@n+n+n+n+n+N+N+",
"f@f@C@C@f@f@C@C@J+J+K+K+J+J+K+}#L#F#0#0#9#9#F#M#w#c@+#c@c@c@c@0@B@=@=@=@N#N#=@=@=@=@=@=@=@=@_#8@t+C+J+J+B+J+J+j@<@d@c@d@c@d@c@[@P@=@=@=@=@=@=@8@J+j@j@j@5@5@f@f@j@C@j@f@j@j@X@l@5@5@j@j@l@l@j@j@l@l@V@V@j@l@f@i@B@/#e@e@e@e@e@P@E#1@I+I+2@2@I+|@5#-@-@-@-@-@-@-@",
"7@7@<@<@7@7@<@a@j@W+Y+Y+K+K+4@4@[#g#<#D#<#<#$#A@p@b@c@c@c@c@c@7@z@1@J+S+I+t+1@u@I+I+I+I+*#r+c#c#B+B+B+B+J+J+B+l@<@d@d@c@c@c@c@7@B+u@S+9@K+1@I+J+0@7@7@7@7@7@7@7@7@7@7@g@7@7@y#g@7@7@c@c@p@<@7@7@<@<@k@p@p@<@7@<@0@0@[@[@[@[@7@O@P@=@=@=@=@=@Q@5#U@U@U@U@O#U@U@ #",
"c@c@b@b@c@c@b@<@j@S+J+Y+K+K+4@4@K+K+B+B+J+J+S+j@<@b@c@c@c@c@c@7@5@K+J+J+J+K+K+B+J+J+J+J+i@i@]#]#B+B+B+B+J+J+B+l@7@c@d@c@c@c@c@g@l@B+S+S+K+K+J+j@7@c@d@c@c@c@c@c@c@c@c@c@b@b@d@d@d@d@c@d@b@b@c@c@d@d@b@b@b@b@c@d@d@d@c@c@c@c@d@7@e@n+n+n+n+n+F+=@U@U@K@K@U@U@U@U@",
"c@c@c@c@c@c@c@7@:#4@J+J+4@4@J+J+J+J+C+S+C+J+B+j@7@c@c@c@b@b@c@7@j@J+W+W+B+B+B+B+S+K+i@r+Y+J+B+B+J+J+J+J+Y+Y+B+l@7@d@c@c@b@b@d@7@j@J+J+B+K+W+K+5@<@c@d@d@b@b@d@c@d@d@b@b@d@c@c@c@c@c@c@c@c@c@c@c@b@b@c@c@c@c@d@d@c@c@c@c@c@c@c@[@e@n+n+N+n+n+n+-@ #K@K@K@U@K@K@K@",
"c@c@c@c@c@c@c@7@:#4@J+J+4@4@J+J+J+J+S+C+C+J+J+C@7@c@c@c@b@b@d@7@j@J+W+W+K+K+B+B+S+K+i@r+Y+J+B+B+J+J+J+J+J+J+B+l@7@d@c@c@b@b@d@7@j@J+J+B+K+W+K+5@[@c@c@d@b@b@d@c@R@c@b@b@d@c@c@c@c@c@c@c@c@c@c@c@b@b@d@d@c@c@c@c@c@c@c@c@c@c@c@[@e@n+n+N+n+n+n+-@ #K@K@K@K@K@K@K@",
"c@c@c@c@c@c@c@7@5@K+K+K+i@i@K+K+K+K+B+B+B+B+J+j@7@c@c@c@c@c@c@7@j@J+K+K+B+B+W+J+B+B+K+K+K+J+4@4@J+W+J+J+C+K+B+5@7@c@c@c@d@c@c@7@l@B+4@Y+B+B+B+l@7@c@c@c@c@c@c@c@c@c@c@c@c@c@b@b@c@c@b@b@c@c@c@c@c@c@c@c@b@b@c@c@b@b@c@c@c@c@c@[@e@n+n+n+n+n+N+-@U@U@U@K@U@U@U@K@",
"c@c@c@(#c@c@c@g@5@K+Y+Y+i@i@K+K+K+K+B+B+B+B+J+j@7@c@c@c@c@c@c@7@j@J+K+K+B+B+W+J+B+B+K+K+K+J+4@4@J+W+J+J+S+4@B+5@7@c@c@c@c@d@c@7@l@B+z@4@B+B+B+l@7@c@c@c@c@c@c@c@c@c@c@c@c@c@b@b@d@d@b@b@c@c@c@c@c@c@c@c@b@b@c@c@b@b@c@c@c@c@c@[@e@n+n+n+n+n+N+-@U@U@U@K@K@K@ #U@",
"c@c@c@c@c@c@c@7@:#C+K+K+W+J+K+K+B+B+B+B+K+K+J+j@g@c@c@c@c@c@+#y#l@B+B+J+J+J+i@S+J+J+B+J+B+B+B+B+B+B+B+J+K+S+K+5@7@c@b@c@c@c@c@7@j@J+K+K+J+J+J+j@7@c@c@c@c@d@c@c@d@c@c@c@c@c@c@c@c@+#c@c@b@b@d@d@b@b@c@c@c@c@c@c@c@c@d@c@c@c@c@[@e@n+n+n+F+n+n+-@U@U@U@K@K@K@K@U@",
"c@c@c@c@c@c@c@7@z@C+K+K+W+S+K+K+B+B+B+B+K+K+J+j@7@c@c@c@c@c@c@7@l@B+J+B+J+Y+i@f@j@j@l@j@l@l@l@l@l@l@r@l@5@f@5@A@7@+#c@b@c@c@c@7@j@J+K+K+Y+J+J+j@a@<@7@7@7@7@7@7@d@c@c@c@c@c@c@c@c@+#P#c@b@b@d@d@<@<@[@[@0@0@[@[@c@c@d@c@c@c@c@[@Q#/#e@e@e@e@/#P@M@M@M@M@M@M@J@M@",
"b@b@c@c@b@b@c@[@J@K@K@K@K@K@.#,#K+K+J+J+B+B+C+:#7@c@b@b@d@c@c@7@j@J+B+B+B+B+B+l@0@g@g@g@c@7@g@g@7@7@7@7@<@<@7@7@c@c@c@c@c@d@d@7@V@r+B+B+i@i@r+K+:#:#j@j@v#j@l@H@g@c@c@c@b@b@c@c@c@c@c@c@b@b@d@7@-#/#e@e@e@e@e@-#[@c@c@c@c@c@c@c@N@[@[@[@[@[@[@N@R#R#7@7@[@[@[@[@",
"b@b@c@c@b@b@c@[@Y@U@K@K@K@U@Z@K@K+K+f@J+B+B+C+z@7@c@b@b@c@d@c@7@j@J+B+B+B+B+B+l@g@c@c@d@c@c@c@c@d@c@c@c@b@b@c@c@c@c@c@c@c@c@c@7@V@r+B+B+i@i@B+r+4@4@B+B+C+J+B+l@g@d@c@c@b@b@c@c@c@c@c@c@b@b@c@[@S#F+n+n+n+n+n+e@[@c@c@c@c@c@c@c@c@d@c@c@c@c@c@d@b@b@d@d@c@c@c@c@",
"c@c@c@c@c@c@c@[@J@K@U@U@K@K@U@.#K+K+J+K+B+B+B+l@7@c@c@c@c@c@c@7@l@B+J+J+J+J+J+j@7@c@c@d@c@c@c@d@b@b@c@c@c@b@d@d@c@c@b@b@c@c@c@7@j#B+S+i@K+K+Y+Y+K+K+B+B+C+C+4@:#7@c@b@b@c@d@c@c@c@c@c@c@d@c@c@7@;#F+F+n+n+n+n+e@7@c@c@c@c@c@d@c@c@c@c@c@c@c@c@c@c@c@c@c@c@c@c@d@",
"c@c@c@c@c@c@c@[@J@K@K@K@K@K@K@K@K+K+J+K+B+B+B+l@7@c@c@c@c@c@c@7@l@B+J+J+J+J+J+j@7@c@c@c@c@c@d@c@b@b@c@c@b@c@d@d@c@c@b@b@c@c@c@7@l@B+S+i@K+K+Y+Y+W+W+B+B+C+C+4@:#7@c@b@b@c@d@c@c@c@c@c@c@d@c@c@7@e@n+n+n+n+n+n+e@7@c@c@c@c@c@c@d@c@c@c@c@c@c@c@c@c@c@c@c@c@c@c@d@",
"c@c@c@c@c@c@c@[@M@U@K@K@U@U@U@K@J+J+B+B+K+K+W+y@7@c@c@c@c@c@c@7@j@C+K+K+B+B+B+l@7@c@c@c@c@c@c@c@c@c@c@(#b@b@d@d@b@b@d@c@c@c@c@7@j@J+J+J+S+W+J+J+Y+C+K+K+J+J+J+j@g@c@c@c@c@c@c@c@c@c@d@d@b@z#c@[@e@n+n+n+n+n+n+e@0@c@c@c@c@c@c@c@c@c@c@c@c@c@c@c@d@d@c@c@d@c@c@c@",
"c@c@d@d@c@c@d@7@J@K@K@K@K@K@K@K@J+J+B+B+C+C+W+y@7@c@c@c@c@c@d@7@y@J+K+K+B+B+B+l@7@c@c@c@c@c@c@c@c@c@(#c@b@b@c@c@b@b@c@c@c@c@c@7@j@J+J+J+S+J+J+J+Y+C+K+K+f@J+J+j@7@c@c@c@c@c@c@c@c@c@d@d@b@b@c@7@;#F+n+n+F+F+n+e@y#c@c@c@c@c@c@c@c@c@c@c@c@c@c@c@c@c@c@c@c@d@c@c@",
"c@c@d@c@c@c@d@7@J@K@U@K@K@U@U@K@B+B+i@i@i@r+B+l@7@c@b@b@c@c@c@7@j@J+B+B+W+J+B+l@7@c@c@c@c@c@b@b@c@c@c@d@c@c@c@c@c@c@c@c@b@b@c@7@j@J+J+J+B+B+C+C+K+C+C+C+J+J+Y+C@7@c@c@c@c@c@c@c@c@c@d@d@c@c@c@7@/#n+n+n+n+n+n+;#[@c@c@c@c@c@c@c@c@c@c@c@d@c@c@c@c@c@c@c@c@c@c@c@",
"[@[@[@7@[@[@[@I@J@K@K@U@U@K@K@K@B+B+K+K+i@r+B+l@7@c@b@b@c@c@c@7@:#C+l@B+W+J+B+l@6@[@[@7@[@[@<@<@7@7@7@g@7@7@7@7@[@[@[@[@<@<@<@w@)#j@j@j@l@l@y@y@K+W+C+4@J+J+Y+C@6@[@0@[@[@[@[@[@[@[@7@7@[@[@7@O@/#n+n+n+n+n+n+;#6@7@7@7@7@7@7@7@[@[@[@[@7@[@T#[@7@g@7@7@7@7@7@7@",
"M@Y@J@M@M@Y@J@M@U@ #K@U@K@K@U@K@J+J+J+y@B+B+4@:#<@b@c@c@c@c@c@g@j@J+B+B+K+K+J+J+M@M@J@M@M@M@M@>#C@l@l@l@l@l@r@J+B@e@e@e@P@e@e@-#w@w#7@7@7@7@<@a@5@K+i@r+B+B+J+I+P@/#e@e@e@e@e@e@e@/#e@e@e@e@e@1#n+n+n+n+n+n+n+=@4@:#f@j@j@j@l@l@J@J@Y@M@J@J@M@J@z@5@j@j@l@l@l@l@",
"K@K@K@U@K@K@K@U@ #U@U@U@K@ #U@K@K+K+J+W+B+B+4@:#<@b@c@c@c@c@c@7@j@Y+B+B+K+K+J+J+L@U@U@U@K@K@K@K@B+B+B+B+B+B+J+I+=@n+n+n+F+F+n+e@a@b@c@c@c@c@b@<@5@K+i@r+B+B+J+I+-@n+n+n+n+n+n+n+n+N+n+n+n+n+n+n+n+n+n+n+n+n+n+=@o@4@W+J+Y+Y+B+B+K@K@K@U@K@Z@U@K@K+K+J+J+B+B+B+B+",
"K@U@K@U@K@U@K@U@ #U@U@ #K@K@U@.#J+J+=#B+B+B+J+j@g@c@c@c@c@c@c@7@z@C+K+K+K+K+B+B+K@K@U@K@K@K@K@.#B+B+C+C+B+B+B+u@-@n+n+n+n+n+n+e@[@(#c@c@c@c@c@7@l@B+J+J+B+B+B+u@=@n+n+n+F+F+=@n+n+n+n+n+n+n+n+n+n+n+n+n+n+n+n+=@S+S+J+C+J+J+K+K+K@U@U@U@U@U@U@K@B+B+B+B+B+B+B+B+",
"U@K@U@U@U@K@U@U@K@K@U@ #K@K@K@K@J+J+B+B+B+B+J+j@g@c@c@c@c@c@c@7@j@J+K+K+K+K+B+B+K@U@U@K@K@K@K@L@B+B+C+C+B+B+B+r+-@n+n+n+n+n+n+e@[@c@c@c@c@c@c@7@l@B+J+J+B+B+B+u@=@n+n+n+n+n+n+n+n+n+n+n+n+n+F+F+n+n+n+n+n+n+n+=@9@S+J+C+J+J+K+K+K@K@K@K@K@U@U@K@B+B+B+B+B+B+B+B+",
"K@Z@U@U@K@Z@U@U@U@U@U@U@K@K@K@K@J+J+K+K+B+B+Y+z@7@c@c@c@c@c@c@7@j@J+C+C+B+B+J+J+K@U@U@U@K@U@U@K@J+J+S+S+J+J+J+I+=@n+n+n+F+n+n+e@a@b@b@b@d@b@c@7@l@B+4@4@C+J+4@9@=@F+n+n+n+n+n+n+n+n+n+n+n+n+F+F+n+n+n+N+n+N+F+=@I+J+J+Y+W+W+i@S+K@K@K@K@K@K@K@K@K+K+J+J+Y+Y+B+B+",
"K@U@K@K@K@U@K@K@K@K@K@K@K@K@K@.#J+J+K+K+B+B+]#z@7@c@c@c@c@c@c@7@j@J+Y+Y+B+B+J+J+K@K@U@U@K@U@ #K@J+J+S+S+J+J+J+I+=@F+n+n+F+n+n+e@a@b@b@b@b@d@d@7@l@B+4@S+J+C+4@9@=@F+n+n+n+n+n+n+n+n+n+n+n+n+n+n+n+n+n+N+n+n+F+=@I+J+J+Y+C+C+J+K+K@K@K@ #U@U@K@L@K+K+J+J+Y+Y+B+B+",
"K@U@U@U@K@U@U@U@U@U@U@U@U@Z@U@K@B+B+J+J+B+B+Y+j@7@c@d@d@b@b@b@<@j@J+B+B+J+J+K+K+K@U@U@K@K@U@K@K@B+K+K+K+J+J+C+t+=@n+n+n+n+n+n+e@[@c@c@c@c@c@b@7@l@B+Y+J+K+i@K+1@=@n+n+n+n+n+n+n+N+N+n+n+n+n+n+n+n+n+n+N+n+n+n+=@I+J+J+J+J+J+B+B+K@K@U@K@K@K@U@K@]#Y+4@4@i@i@B+B+",
"M@J@J@M@M@J@J@M@U@U@U@ #U@U@U@.#u@B+J+J+B+B+Y+j@6@[@g@[@p@<@<@w@j@J+B+B+C+C+K+K+>#M@Y@M@Y@M@J@>#u+1@1@2@I+I+s+U#8@5#=@=@=@=@=@B@[@c@c@c@c@c@c@<@l@B+Y+J+i@K+K+1@P@e@e@e@e@e@e@1#n+n+n+n+n+n+n+n+=@_#-@=@=@=@=@8@I+J+J+J+W+W+B+B+L@U@U@U@O#O#U@U@]#Y+4@4@i@i@B+B+",
"<@<@7@7@<@<@7@O@P@-@-@-@-@-@-@-@U@K@K@.#K@.#K@K@J@M@M@M@J@J@M@Y@J+J+B+K+J+K+B+l@I@7@[@[@[@[@[@O@P@=@=@=@=@=@=@8@|@I+u@u@I+I+I+J+7@c@b@c@c@c@c@g@j@J+W+W+W+J+J+j@6@[@[@[@[@[@<@:@1#n+F+F+n+n+n+=@V#S+I+I+u@u@u@I+K+K+J+J+J+J+K+K+5#-@-@-@-@-@-@5#1@K+K+K+Y+Y+B+B+",
"b@b@c@c@b@b@c@0@e@n+n+n+n+n+n+-@U@K@U@K@K@U@K@K@U@K@U@U@K@K@K@.#J+J+B+K+C+Y+B+l@7@c@c@c@c@c@c@[@e@n+F+n+F+F+n+=@I+J+B+B+J+J+J+j@<@c@d@d@c@c@c@g@j@J+W+4@J+W+J+j@7@c@c@c@c@c@b@<@e@n+n+n+n+n+n+=@S+J+J+J+B+B+B+J+K+K+J+J+J+J+B+u@Q@F+n+n+n+n+n+=@1@K+B+B+Y+Y+B+B+",
"d@d@c@c@d@d@c@[@e@n+n+n+F+n+n+-@U@U@U@Z@U@K@K@ #K@K@K@K@U@K@K@K@B+B+S+S+J+J+4@f@7@c@c@c@c@d@c@[@e@n+n+n+n+F+n+=@1@K+B+B+]#Y+B+l@7@c@c@d@c@c@c@7@y@S+B+B+K+K+i@X@<@b@d@c@c@c@d@7@e@n+n+n+n+n+n+=@r+B+K+K+B+B+J+J+S+S+Y+Y+K+K+J+I+=@n+n+n+n+n+n+=@1@K+J+J+J+J+W+W+",
"c@c@c@c@c@c@c@0@e@n+n+n+F+n+n+=@U@U@U@K@K@K@U@U@U@U@U@Z@U@K@K@K@B+B+S+S+J+J+S+f@7@c@c@c@d@c@c@[@e@n+n+n+n+F+n+_#1@K+K+K+Y+Y+B+l@7@d@d@c@c@c@c@7@f@J+K+K+K+K+K+A@p@b@c@d@c@c@c@7@e@n+n+n+n+n+n+=@r+B+K+K+B+B+J+J+K+K+Y+Y+K+K+J+I+=@n+n+n+n+n+n+=@3@W+J+J+J+J+W+W+",
"c@c@c@c@c@c@c@0@e@n+F+n+n+N+n+-@U@U@U@U@U@U@U@U@U@U@U@K@K@U@K@L@B+B+B+B+B+B+K+5@<@b@c@b@c@c@c@[@e@n+n+n+n+n+n+=@o@4@J+J+K+K+B+l@7@c@c@c@c@c@b@<@j@J+J+J+J+J+K+5@p@b@c@c@c@c@c@0@e@n+n+n+n+n+n+=@I+J+S+S+B+B+B+B+J+B+J+J+S+i@K+1@=@n+n+n+N+n+n+=@u@B+B+B+B+B+K+K+",
"c@c@c@c@c@c@c@[@e@n+n+F+N+n+n+-@U@K@K@K@K@K@U@U@K@K@U@U@K@U@K@K@B+B+B+B+B+B+B+l@<@b@b@c@c@c@c@[@e@n+n+n+N+N+n+=@o@4@J+J+J+J+B+l@7@d@c@c@c@c@b@<@j@J+J+J+B+B+K+5@<@b@c@c@c@c@c@[@e@n+n+n+n+n+n+=@I+J+S+S+B+B+B+B+J+B+J+J+S+i@K+1@=@n+n+n+n+N+n+=@u@B+B+B+B+B+K+K+",
"c@c@c@c@c@c@c@[@e@n+n+n+n+n+n+-@U@U@U@U@K@K@K@K@K@U@U@K@K@U@K@L@J+J+B+B+B+B+J+j@7@c@c@c@b@b@c@[@e@n+n+n+n+n+n+=@u@B+S+4@B+B+i@f@7@c@c@c@c@c@c@7@j@J+J+J+B+B+K+5@7@c@b@b@c@c@c@[@e@n+n+n+n+n+n+=@I+J+J+J+B+B+W+W+J+J+K+B+J+B+Y+I+=@n+n+n+n+F+n+=@W+J+B+B+]#Y+J+B+",
"7@7@7@7@7@7@7@6@1#n+n+n+n+n+n+-@U@K@U@U@.#K@U@U@.#K@K@.#K@L@K@,#J+J+B+B+B+B+J+j@W#y#7@7@<@<@7@6@'#=@=@=@=@=@=@8@u@B+4@S+B+B+4@f@0@7@7@7@7@7@7@0@j@J+J+J+B+B+K+5@a@R#X#X#w#w#w#G#e@n+n+n+n+n+n+=@|@I+S+S+u@u@I+I+j@j@X@V@C@j@j@Y+8@=@=@=@=@=@=@5#I+S+B+B+J+J+B+J+",
"M@Y@J@J@M@Y@J@M@-@n+n+n+n+n+n+6#U@K@K@K@K@K@U@K@I+J+J+S+W+W+J+J+i@K+J+J+J+J+J+J+j@r@l@l@l@l@j@j@1@1@t+t+1@1@I+I+J+B+J+B+i@i@J+K+l@X@j@x#:#x#X@5@J+J+B+B+J+4@J+:#r#q#p#p#p#p#p#Y#7#n+N+N+N+N+n+n+=@=@_#=@_#_#=@P@6@7@7@7@7@7@w#a@J+I+*#*#S+I+u@u@W+J+J+W+J+J+B+B+",
"U@U@K@K@U@U@K@O#-@n+n+n+n+n+n+6#U@K@K@U@K@U@U@K@J+J+W+W+W+W+J+J+K+i@J+J+J+J+Y+Y+J+J+B+B+B+B+J+J+K+K+C+C+K+K+Y+Y+J+B+B+J+i@i@K+J+B+K+J+J+4@4@K+K+J+J+J+J+4@J+J+z@0#l#f#f#f#f#f#h#7#n+n+n+F+F+n+n+n+n+n+n+F+F+N+/#7@c@c@c@c@c@b@w#j@J+i@i@J+J+B+B+W+J+W+J+J+J+B+B+",
"K@U@U@K@Z@U@U@U@-@n+n+n+n+n+n+-@ #K@U@U@ #K@K@,#J+J+J+J+J+J+K+K+J+J+W+4@B+B+J+J+K+K+J+J+B+B+K+K+J+J+B+B+B+K+B+B+J+J+J+J+B+B+J+W+K+K+W+K+B+B+B+B+J+J+K+K+S+S+4@[#0#f#f#f#f#i#f#h#7#n+n+n+n+n+n+n+n+n+n+n+n+n+n+e@[@c@c@c@d@c@d@7@5@K+B+K+K+K+K+K+B+B+J+J+S+S+4@4@",
"Z@K@U@K@K@K@U@O#-@n+n+n+n+n+n+-@U@K@K@U@U@K@K@,#J+J+J+J+J+Y+K+K+J+J+4@C+B+B+J+J+B+B+J+J+B+B+K+K+J+J+B+B+B+K+B+B+J+J+J+J+B+B+J+W+K+K+K+W+B+B+B+B+J+J+W+W+y@W+C+}#0#f#f#f#f#i#f#h#7#n+n+n+n+n+n+n+n+n+n+n+n+n+n+e@[@c@d@d@c@d@d@7@j@J+B+K+K+K+K+K+B+B+J+J+S+S+4@4@",
"Z@K@K@K@K@K@K@ #-@n+n+n+n+n+J#Z#U@K@K@U@K@U@K@K@r+i@i@K+K+K+K+i@B+B+Y+Y+C+C+i@i@J+J+K+i@J+j@i@r+i@K+K+S+B+B+B+J+i@i@Y+J+J+J+C+C+K+K+K+K+B+B+K+i@J+W+B+J+C+C+K+$#F#i#i#i#f#f#f#h#d#n+n+n+n+n+F+F+n+n+n+n+n+n+n+e@[@c@c@d@b@b@c@[@j@W+B+B+J+J+B+B+r+K+B+B+W+W+J+J+",
"K@U@K@K@K@U@K@U@-@n+n+n+n+n+J#Z#U@K@ #U@U@U@U@.#r+i@i@K+K+K+i@K+B+B+Y+Y+C+C+i@i@J+J+K+K+J+J+r+r+K+i@S+K+B+B+B+J+r+i@Y+J+J+J+C+C+K+K+K+K+B+B+i@K+J+W+B+Y+C+C+K+}#F#i#i#i#f#f#f#h#d#n+n+n+n+n+n+n+n+n+n+n+n+n+n+e@[@c@c@c@b@b@c@g@f@J+B+B+J+J+B+B+i@K+B+B+W+W+J+J+",
"K@K@U@K@K@K@U@U@-@n+n+n+n+n+n+-@U@K@ #K@K@K@U@K@K+K+B+B+J+J+4@4@J+J+S+S+B+B+W+W+K+K+J+J+B+B+B+B+J+J+K+K+J+C+i@i@B+B+B+B+K+K+K+K+K+K+C+C+K+K+W+J+J+J+B+B+J+J+B+<#0#f#f#f#f#f#f#h#7#F+n+n+n+n+n+n+n+n+n+n+n+n+n+e@[@c@c@c@c@c@c@7@j@J+K+K+K+B+J+J+J+J+B+B+B+B+i@K+",
"U@U@K@U@U@U@K@U@-@n+n+n+N+N+n+-@U@U@ #K@U@K@K@.#K+K+B+B+J+J+4@4@J+J+S+S+B+B+y@W+K+K+J+J+B+B+B+B+J+J+K+K+J+C+i@r+B+B+K+K+K+K+K+K+K+K+C+C+B+B+J+W+J+J+B+B+J+J+B+D#0#f#f#f#f#f#f#h#7#F+n+n+n+n+n+n+n+n+n+n+n+n+n+e@[@c@c@c@c@c@c@7@j@J+K+K+K+B+J+J+J+J+B+B+B+B+i@K+"};
