/* XPM */
static char * North_xpm[] = {
"128 128 111 2",
"  	c #F6FABD",
". 	c #F5FBBD",
"+ 	c #DEE7A5",
"@ 	c #DDE6A3",
"# 	c #DEE6A4",
"$ 	c #EFF2B7",
"% 	c #EEF2B7",
"& 	c #EEF1B6",
"* 	c #D5DB96",
"= 	c #D5DB95",
"- 	c #DDE7A3",
"; 	c #D3D6A1",
"> 	c #D3D6A0",
", 	c #DDE6A4",
"' 	c #F6FBBE",
") 	c #F6FCBE",
"! 	c #EDF2B6",
"~ 	c #D4DB95",
"{ 	c #D5DA96",
"] 	c #D3D5A0",
"^ 	c #DDE7A2",
"/ 	c #DFE7A3",
"( 	c #D5DA97",
"_ 	c #D2D6A1",
": 	c #EEF3B8",
"< 	c #EEF3B7",
"[ 	c #EEF2B6",
"} 	c #DEE6A3",
"| 	c #D3D69F",
"1 	c #D4D7A0",
"2 	c #F6FABC",
"3 	c #F7FABD",
"4 	c #DFE7A4",
"5 	c #DEE6A5",
"6 	c #EEF1B7",
"7 	c #DEE5A4",
"8 	c #D4D7A1",
"9 	c #F6FABE",
"0 	c #EEF3B6",
"a 	c #D5DA94",
"b 	c #D3D7A1",
"c 	c #F7FABE",
"d 	c #DFE7A5",
"e 	c #F5FBBE",
"f 	c #D4DB94",
"g 	c #F5FABD",
"h 	c #D2D5A0",
"i 	c #D3D59F",
"j 	c #D5DA95",
"k 	c #DDE5A3",
"l 	c #DEE7A4",
"m 	c #D2D6A0",
"n 	c #F6FBBD",
"o 	c #F6FBBC",
"p 	c #D6DB96",
"q 	c #D6DB95",
"r 	c #F6F9BD",
"s 	c #D4D7A2",
"t 	c #F6FABF",
"u 	c #D4D6A2",
"v 	c #F5F9BC",
"w 	c #F4F9BB",
"x 	c #D5DB97",
"y 	c #D6DA95",
"z 	c #D3D5A1",
"A 	c #DDE6A5",
"B 	c #F6FBBF",
"C 	c #F6FCBD",
"D 	c #D3D7A0",
"E 	c #F5FABC",
"F 	c #EDF1B6",
"G 	c #D4D6A0",
"H 	c #F7FABF",
"I 	c #D4D6A1",
"J 	c #EDF3B7",
"K 	c #D4DB96",
"L 	c #F5FABE",
"M 	c #DDE7A4",
"N 	c #DEE7A3",
"O 	c #D1D79F",
"P 	c #D2D7A0",
"Q 	c #DEE6A6",
"R 	c #D2D69F",
"S 	c #EFF2B6",
"T 	c #D2D79F",
"U 	c #DFE6A4",
"V 	c #F6F9BC",
"W 	c #F8FABE",
"X 	c #D4D5A1",
"Y 	c #DCE6A3",
"Z 	c #D5DB94",
"` 	c #D6DA96",
" .	c #EFF3B8",
"..	c #EFF2B8",
"+.	c #EEF2B8",
"@.	c #DDE5A4",
"#.	c #D4D69F",
"$.	c #F7FBBF",
"%.	c #F7FBBD",
"&.	c #F6F9BE",
"*.	c #F4FABD",
"=.	c #D6DB97",
"-.	c #D6DC96",
";.	c #EEF1B9",
">.	c #D4DA95",
",.	c #D3D6A2",
"'.	c #EEF1B8",
").	c #D4DA96",
"!.	c #F5F9BD",
"~.	c #DDE6A2",
"{.	c #EDF2B7",
"              . + @ @ @ @ @ @ # $ % % % % % % & * = = = = = = = - @ @ @ @ @ @ @ = = = = = = = = = = = = = = = = ; ; ; ; ; ; ; ; ; ; ; ; ; ; ; >                 ; ; ; ; ; ; ; ; , @ @ @ @ @ @ - = = = = = = = * > ; ; ; ; ; ; > % % % % % % % % @ @ @ @ @ @ @ @ ",
"              . + @ @ @ @ @ @ # $ % % % % % % & * = = = = = = = - @ @ @ @ @ @ @ = = = = = = = = = = = = = = = = ; ; ; ; ; ; ; ; ; ; ; ; ; ; ; >                 ; ; ; ; ; ; ; ; , @ @ @ @ @ @ - = = = = = = = * > ; ; ; ; ; ; > % % % % % % % % @ @ @ @ @ @ @ @ ",
"              . + @ @ @ @ @ @ # $ % % % % % % & * = = = = = = = - @ @ @ @ @ @ @ = = = = = = = = = = = = = = = = ; ; ; ; ; ; ; ; ; ; ; ; ; ; ; >                 ; ; ; ; ; ; ; ; , @ @ @ @ @ @ - = = = = = = = * > ; ; ; ; ; ; > % % % % % % % % @ @ @ @ @ @ @ @ ",
"              . + @ @ @ @ @ @ # $ % % % % % % & * = = = = = = = - @ @ @ @ @ @ @ = = = = = = = = = = = = = = = = ; ; ; ; ; ; ; ; ; ; ; ; ; ; ; >                 ; ; ; ; ; ; ; ; , @ @ @ @ @ @ - = = = = = = = * > ; ; ; ; ; ; > % % % % % % % % @ @ @ @ @ @ @ @ ",
"              . + @ @ @ @ @ @ # $ % % % % % % & * = = = = = = = - @ @ @ @ @ @ @ = = = = = = = = = = = = = = = = ; ; ; ; ; ; ; ; ; ; ; ; ; ; ; >                 ; ; ; ; ; ; ; ; , @ @ @ @ @ @ - = = = = = = = * > ; ; ; ; ; ; > % % % % % % % % @ @ @ @ @ @ @ @ ",
"              . + @ @ @ @ @ @ # $ % % % % % % & * = = = = = = = - @ @ @ @ @ @ @ = = = = = = = = = = = = = = = = ; ; ; ; ; ; ; ; ; ; ; ; ; ; ; >                 ; ; ; ; ; ; ; ; , @ @ @ @ @ @ - = = = = = = = * > ; ; ; ; ; ; > % % % % % % % % @ @ @ @ @ @ @ @ ",
"              . + @ @ @ @ @ @ # $ % % % % % % & * = = = = = = = - @ @ @ @ @ @ @ = = = = = = = = = = = = = = = = ; ; ; ; ; ; ; ; ; ; ; ; ; ; ; >                 ; ; ; ; ; ; ; ; , @ @ @ @ @ @ - = = = = = = = * > ; ; ; ; ; ; > % % % % % % % % @ @ @ @ @ @ @ @ ",
"' ' ' ' ' ' ' ) # @ @ @ @ @ @ , $ % % % % % % ! ~ ~ ~ ~ ~ ~ ~ ~ - @ @ @ @ @ @ @ = = = = = = = = = = = = = = = { ; ; ; ; ; ; ; ; ; ; ; ; ; ; ; > ' ' ' ' ' ' ' ' > ; ; ; ; ; ; ] - ^ ^ ^ ^ ^ ^ / = = = = = = = ( > ; ; ; ; ; ; _ : : : : : : : < @ ^ ^ ^ ^ ^ ^ ^ ",
"# # # # # # # , [ % % % % % % [ % % % % % % % % # } } } } } } @ @ @ @ @ @ @ @ @ = = = = = = = * | > > > > > > 1 % [ [ [ [ [ [ [   2 2 2 2 2 2 3 4 # # # # # # 5 . 2 2 2 2 2 2   * = = = = = = = | > > > > > > ; 6 [ [ [ [ [ [ $ 7 @ @ @ @ @ @ } ~ = = = = = = = ",
"@ @ @ @ @ @ @ @ % % % % % % % % % % % % % % % $ , @ @ @ @ @ @ @ @ @ @ @ @ @ @ @ = = = = = = = { > ; ; ; ; ; ; 8 % % % % % % % % 9             3 4 @ @ @ @ @ @ # .               = = = = = = = = > ; ; ; ; ; ; ; 6 % % % % % % $ # @ @ @ @ @ @ } ~ = = = = = = = ",
"@ @ @ @ @ @ @ @ % % % % % % % % % % % % % % % $ , @ @ @ @ @ @ @ @ @ @ @ @ @ @ @ = = = = = = = { > ; ; ; ; ; ; 8 % % % % % % % % 9             3 4 @ @ @ @ @ @ # .               = = = = = = = = > ; ; ; ; ; ; ; 6 % % % % % % $ # @ @ @ @ @ @ } ~ = = = = = = = ",
"@ @ @ @ @ @ @ @ % % % % % % % % % % % % % % % $ , @ @ @ @ @ @ @ @ @ @ @ @ @ @ @ = = = = = = = { > ; ; ; ; ; ; 8 % % % % % % % % 9             3 4 @ @ @ @ @ @ # .               = = = = = = = = > ; ; ; ; ; ; ; 6 % % % % % % $ # @ @ @ @ @ @ } ~ = = = = = = = ",
"@ @ @ @ @ @ @ @ % % % % % % % % % % % % % % % $ , @ @ @ @ @ @ @ @ @ @ @ @ @ @ @ = = = = = = = { > ; ; ; ; ; ; 8 % % % % % % % % 9             3 4 @ @ @ @ @ @ # .               = = = = = = = = > ; ; ; ; ; ; ; 6 % % % % % % $ # @ @ @ @ @ @ } ~ = = = = = = = ",
"@ @ @ @ @ @ @ @ % % % % % % % % % % % % % % % $ , @ @ @ @ @ @ @ @ @ @ @ @ @ @ @ = = = = = = = { > ; ; ; ; ; ; 8 % % % % % % % % 9             3 4 @ @ @ @ @ @ # .               = = = = = = = = > ; ; ; ; ; ; ; 6 % % % % % % $ # @ @ @ @ @ @ } ~ = = = = = = = ",
"@ @ @ @ @ @ @ @ % % % % % % % % % % % % % % % $ , @ @ @ @ @ @ @ @ @ @ @ @ @ @ @ = = = = = = = { > ; ; ; ; ; ; 8 % % % % % % % % 9             3 4 @ @ @ @ @ @ # .               = = = = = = = = > ; ; ; ; ; ; ; 6 % % % % % % $ # @ @ @ @ @ @ } ~ = = = = = = = ",
"# # # # # # # } [ [ [ [ [ [ [ 0 % % % % % % % % # } } } } } } # # # # # # # # } a = = = = = = ( > ; ; ; ; ; ; b % [ [ [ [ [ [ [ 9             c d # # # # # # # e 9 9 9 9 9 9   * * * * * * * = > ; ; ; ; ; ; > % % % % % % % $ # @ @ @ @ @ @ } ~ = = = = = = = ",
"= = = = = = = f # , , , , , , #   9 9 9 9 9 9 g h ] ] ] ] ] ] i j = = = = = = = | > > > > > > > 9 9 9 9 9 9 9 9 k , , , , , , , l l l l l l l l j = = = = = = * m > > > > > > > n o o o o o o ' % % % % % % % [ p p p p p p p q } @ @ @ @ @ @ # m > > > > > > > ",
"= = = = = = = ~ } @ @ @ @ @ @ } 3             2 ; ; ; ; ; ; ; > = = = = = = = = > ; ; ; ; ; ; ;               r @ @ @ @ @ @ @ @ @ @ @ @ @ @ @ @ = = = = = = = * ; ; ; ; ; ; ; s               t % % % % % % % [ * = = = = = = = # @ @ @ @ @ @ # _ ; ; ; ; ; ; ; ",
"= = = = = = = ~ } @ @ @ @ @ @ } 3             2 ; ; ; ; ; ; ; > = = = = = = = = > ; ; ; ; ; ; ;               r @ @ @ @ @ @ @ @ @ @ @ @ @ @ @ @ = = = = = = = * ; ; ; ; ; ; ; s               t % % % % % % % [ * = = = = = = = # @ @ @ @ @ @ # _ ; ; ; ; ; ; ; ",
"= = = = = = = ~ } @ @ @ @ @ @ } 3             2 ; ; ; ; ; ; ; > = = = = = = = = > ; ; ; ; ; ; ;               r @ @ @ @ @ @ @ @ @ @ @ @ @ @ @ @ = = = = = = = * ; ; ; ; ; ; ; s               t % % % % % % % [ * = = = = = = = # @ @ @ @ @ @ # _ ; ; ; ; ; ; ; ",
"= = = = = = = ~ } @ @ @ @ @ @ } 3             2 ; ; ; ; ; ; ; > = = = = = = = = > ; ; ; ; ; ; ;               r @ @ @ @ @ @ @ @ @ @ @ @ @ @ @ @ = = = = = = = * ; ; ; ; ; ; ; s               t % % % % % % % [ * = = = = = = = # @ @ @ @ @ @ # _ ; ; ; ; ; ; ; ",
"= = = = = = = ~ } @ @ @ @ @ @ } 3             2 ; ; ; ; ; ; ; > = = = = = = = = > ; ; ; ; ; ; ;               r @ @ @ @ @ @ @ @ @ @ @ @ @ @ @ @ = = = = = = = * ; ; ; ; ; ; ; s               t % % % % % % % [ * = = = = = = = # @ @ @ @ @ @ # _ ; ; ; ; ; ; ; ",
"= = = = = = = ~ } @ @ @ @ @ @ } 3             2 ; ; ; ; ; ; ; > = = = = = = = = > ; ; ; ; ; ; ;               r @ @ @ @ @ @ @ @ @ @ @ @ @ @ @ @ = = = = = = = * ; ; ; ; ; ; ; s               t % % % % % % % [ * = = = = = = = # @ @ @ @ @ @ # _ ; ; ; ; ; ; ; ",
"= = = = = = = ~ # , , , , , , }               2 ; ; ; ; ; ; ; > * * * * * * * * > u u u u u u b 2 v v v v v v w @ @ @ @ @ @ @ @ @ , , , , , , l * * * * * * * x > ; ; ; ; ; ; s               9 % % % % % % % % * = = = = = = = } , , , , , , # _ ; ; ; ; ; ; ; ",
"@ @ @ @ @ @ @ 5 > ; ; ; ; ; ; > g             9 [ % % % % % % % [ [ [ [ [ [ [ [ t             e # @ @ @ @ @ @ @ @ @ @ @ @ @ @ @ * = = = = = = { > > > > > > > > > ; ; ; ; ; ; s               g # , , , , , , } = = = = = = = = = = = = = = = * ; ; ; ; ; ; ; ; ",
"@ @ @ @ @ @ @ , > ; ; ; ; ; ; ; 2             9 % % % % % % % % % % % % % % % % t             . # @ @ @ @ @ @ @ @ @ @ @ @ @ @ , y = = = = = = = z ; ; ; ; ; ; ; ; ; ; ; ; ; ; s                 @ @ @ @ @ @ @ @ j = = = = = = = = = = = = = = * ; ; ; ; ; ; ; ; ",
"@ @ @ @ @ @ @ , > ; ; ; ; ; ; ; 2             9 % % % % % % % % % % % % % % % % t             . # @ @ @ @ @ @ @ @ @ @ @ @ @ @ , y = = = = = = = z ; ; ; ; ; ; ; ; ; ; ; ; ; ; s                 @ @ @ @ @ @ @ @ j = = = = = = = = = = = = = = * ; ; ; ; ; ; ; ; ",
"@ @ @ @ @ @ @ , > ; ; ; ; ; ; ; 2             9 % % % % % % % % % % % % % % % % t             . # @ @ @ @ @ @ @ @ @ @ @ @ @ @ , y = = = = = = = z ; ; ; ; ; ; ; ; ; ; ; ; ; ; s                 @ @ @ @ @ @ @ @ j = = = = = = = = = = = = = = * ; ; ; ; ; ; ; ; ",
"@ @ @ @ @ @ @ , > ; ; ; ; ; ; ; 2             9 % % % % % % % % % % % % % % % % t             . # @ @ @ @ @ @ @ @ @ @ @ @ @ @ , y = = = = = = = z ; ; ; ; ; ; ; ; ; ; ; ; ; ; s                 @ @ @ @ @ @ @ @ j = = = = = = = = = = = = = = * ; ; ; ; ; ; ; ; ",
"@ @ @ @ @ @ @ , > ; ; ; ; ; ; ; 2             9 % % % % % % % % % % % % % % % % t             . # @ @ @ @ @ @ @ @ @ @ @ @ @ @ , y = = = = = = = z ; ; ; ; ; ; ; ; ; ; ; ; ; ; s                 @ @ @ @ @ @ @ @ j = = = = = = = = = = = = = = * ; ; ; ; ; ; ; ; ",
"@ @ @ @ @ @ @ , > ; ; ; ; ; ; ; 2             9 % % % % % % % % % % % % % % % % t             . # @ @ @ @ @ @ @ @ @ @ @ @ @ @ , y = = = = = = = z ; ; ; ; ; ; ; ; ; ; ; ; ; ; s                 @ @ @ @ @ @ @ @ j = = = = = = = = = = = = = = * ; ; ; ; ; ; ; ; ",
", , , , , , , A > ; ; ; ; ; ; ; 2             9 % % % % % % % % % % % % % % % % B             C @ @ @ @ @ @ @ @ , , , , , , , # * * * * * * * { ; ; ; ; ; ; ; ; ; ; ; ; ; ; ; 8 9             9 @ @ @ @ @ @ @ , = = = = = = = = = * * * * * * * ; ; ; ; ; ; ; ; ",
"; ; ; ; ; ; ; ; ; ; ; ; ; ; ; ; % % % % % % % $ , @ @ @ @ @ @ @ @ @ @ @ @ @ @ @ @ @ @ @ @ @ @ } n 9 9 9 9 9 9 9 ; ; ; ; ; ; ; m D > > > > > > |   2 2 2 2 2 2 2 2 2 2 2 2 2 2 9 % % % % % % % % 9 9 9 9 9 9 9 n * = = = = = = * > > > > > > > > ; ; ; ; ; ; ; ; ",
"; ; ; ; ; ; ; ; ; ; ; ; ; ; ; ; % % % % % % % $ , @ @ @ @ @ @ @ @ @ @ @ @ @ @ @ @ @ @ @ @ @ @ @ E               > ; ; ; ; ; ; ; ; ; ; ; ; ; ; >                               t % % % % % % % %                 * = = = = = = = > ; ; ; ; ; ; ; ; ; ; ; ; ; ; ; ",
"; ; ; ; ; ; ; ; ; ; ; ; ; ; ; ; % % % % % % % $ , @ @ @ @ @ @ @ @ @ @ @ @ @ @ @ @ @ @ @ @ @ @ @ E               > ; ; ; ; ; ; ; ; ; ; ; ; ; ; >                               t % % % % % % % %                 * = = = = = = = > ; ; ; ; ; ; ; ; ; ; ; ; ; ; ; ",
"; ; ; ; ; ; ; ; ; ; ; ; ; ; ; ; % % % % % % % $ , @ @ @ @ @ @ @ @ @ @ @ @ @ @ @ @ @ @ @ @ @ @ @ E               > ; ; ; ; ; ; ; ; ; ; ; ; ; ; >                               t % % % % % % % %                 * = = = = = = = > ; ; ; ; ; ; ; ; ; ; ; ; ; ; ; ",
"; ; ; ; ; ; ; ; ; ; ; ; ; ; ; ; % % % % % % % $ , @ @ @ @ @ @ @ @ @ @ @ @ @ @ @ @ @ @ @ @ @ @ @ E               > ; ; ; ; ; ; ; ; ; ; ; ; ; ; >                               t % % % % % % % %                 * = = = = = = = > ; ; ; ; ; ; ; ; ; ; ; ; ; ; ; ",
"; ; ; ; ; ; ; ; ; ; ; ; ; ; ; ; % % % % % % % $ , @ @ @ @ @ @ @ @ @ @ @ @ @ @ @ @ @ @ @ @ @ @ @ E               > ; ; ; ; ; ; ; ; ; ; ; ; ; ; >                               t % % % % % % % %                 * = = = = = = = > ; ; ; ; ; ; ; ; ; ; ; ; ; ; ; ",
"; ; ; ; ; ; ; ; ; ; ; ; ; ; ; ; % % % % % % % $ , @ @ @ @ @ @ @ @ @ @ @ @ @ @ @ @ @ @ @ @ @ @ @ E               > ; ; ; ; ; ; ; ; ; ; ; ; ; ; >                               t % % % % % % % %                 * = = = = = = = > ; ; ; ; ; ; ; ; ; ; ; ; ; ; ; ",
"; ; ; ; ; ; ; ; ; ; ; ; ; ; ; > % % % % % % % $ # , , , , , , , @ @ @ @ @ @ @ @ @ @ @ @ @ @ @ @                 > ; ; ; ; ; ; ; ; ; ; ; ; ; ; >                               t % % % % % % % % 9             9 * = = = = = = = > ; ; ; ; ; ; ; ; ; ; ; ; ; ; ; ",
"% % % % % % % F t t t t t t t 9 @ @ @ @ @ @ @ , G ; ; ; ; ; ; ; { = = = = = = = = = = = = = = { > s s s s s s 8 % % % % % % % % t t t t t t t H 4 l l l l l l l l l l l l l l l * = = = = = = x ; s s s s s s I 2             9 % % % % % % % % % % % % % % % % ",
"% % % % % % % % 9               @ @ @ @ @ @ @ + ; ; ; ; ; ; ; > = = = = = = = = = = = = = = = { > ; ; ; ; ; ; 8 % % % % % % % % 9             3 4 @ @ @ @ @ @ @ @ @ @ @ @ @ @ l = = = = = = = = > ; ; ; ; ; ; ; 2             9 % % % % % % % % % % % % % % % % ",
"% % % % % % % % 9               @ @ @ @ @ @ @ + ; ; ; ; ; ; ; > = = = = = = = = = = = = = = = { > ; ; ; ; ; ; 8 % % % % % % % % 9             3 4 @ @ @ @ @ @ @ @ @ @ @ @ @ @ l = = = = = = = = > ; ; ; ; ; ; ; 2             9 % % % % % % % % % % % % % % % % ",
"% % % % % % % % 9               @ @ @ @ @ @ @ + ; ; ; ; ; ; ; > = = = = = = = = = = = = = = = { > ; ; ; ; ; ; 8 % % % % % % % % 9             3 4 @ @ @ @ @ @ @ @ @ @ @ @ @ @ l = = = = = = = = > ; ; ; ; ; ; ; 2             9 % % % % % % % % % % % % % % % % ",
"% % % % % % % % 9               @ @ @ @ @ @ @ + ; ; ; ; ; ; ; > = = = = = = = = = = = = = = = { > ; ; ; ; ; ; 8 % % % % % % % % 9             3 4 @ @ @ @ @ @ @ @ @ @ @ @ @ @ l = = = = = = = = > ; ; ; ; ; ; ; 2             9 % % % % % % % % % % % % % % % % ",
"% % % % % % % % 9               @ @ @ @ @ @ @ + ; ; ; ; ; ; ; > = = = = = = = = = = = = = = = { > ; ; ; ; ; ; 8 % % % % % % % % 9             3 4 @ @ @ @ @ @ @ @ @ @ @ @ @ @ l = = = = = = = = > ; ; ; ; ; ; ; 2             9 % % % % % % % % % % % % % % % % ",
"% % % % % % % % 9               @ @ @ @ @ @ @ + ; ; ; ; ; ; ; > = = = = = = = = = = = = = = = { > ; ; ; ; ; ; 8 % % % % % % % % 9             3 4 @ @ @ @ @ @ @ @ @ @ @ @ @ @ l = = = = = = = = > ; ; ; ; ; ; ; 2             9 % % % % % % % % % % % % % % % % ",
"J J J J J J J ! t t t t t t t 9 @ @ @ @ @ @ @ , > > > > > > > > * x x x x x x x ~ ~ ~ ~ ~ ~ ~ K > ; ; ; ; ; ; 8 % % % % % % % % L . . . . . . n M @ @ @ @ @ @ @ M l l l l l l l ~ ~ ~ ~ ~ ~ ~ K > > > > > > > >               9 J J J J J J J J % [ [ [ [ [ [ [ ",
"# # # # # # # , [ % % % % % % [ @ @ @ @ @ @ @ , { = = = = = = { | > > > > > > > N } } } } } } l m ; ; ; ; ; ; 8 % % % % % % % $ # # # # # # # @ @ @ @ @ @ @ @ # O m m m m m m m # } } } } } } N * = = = = = = j                 # # # # # # # # ~ = = = = = = = ",
"@ @ @ @ @ @ @ @ % % % % % % % [ @ @ @ @ @ @ @ l q = = = = = = * > ; ; ; ; ; ; > l @ @ @ @ @ @ , m ; ; ; ; ; ; 8 % % % % % % % $ @ @ @ @ @ @ @ @ @ @ @ @ @ @ @ # m ; ; ; ; ; ; ; , @ @ @ @ @ @ - = = = = = = = =               3 } @ @ @ @ @ @ } ~ = = = = = = = ",
"@ @ @ @ @ @ @ @ % % % % % % % [ @ @ @ @ @ @ @ l q = = = = = = * > ; ; ; ; ; ; > l @ @ @ @ @ @ , m ; ; ; ; ; ; 8 % % % % % % % $ @ @ @ @ @ @ @ @ @ @ @ @ @ @ @ # m ; ; ; ; ; ; ; , @ @ @ @ @ @ - = = = = = = = =               3 } @ @ @ @ @ @ } ~ = = = = = = = ",
"@ @ @ @ @ @ @ @ % % % % % % % [ @ @ @ @ @ @ @ l q = = = = = = * > ; ; ; ; ; ; > l @ @ @ @ @ @ , m ; ; ; ; ; ; 8 % % % % % % % $ @ @ @ @ @ @ @ @ @ @ @ @ @ @ @ # m ; ; ; ; ; ; ; , @ @ @ @ @ @ - = = = = = = = =               3 } @ @ @ @ @ @ } ~ = = = = = = = ",
"@ @ @ @ @ @ @ @ % % % % % % % [ @ @ @ @ @ @ @ l q = = = = = = * > ; ; ; ; ; ; > l @ @ @ @ @ @ , m ; ; ; ; ; ; 8 % % % % % % % $ @ @ @ @ @ @ @ @ @ @ @ @ @ @ @ # m ; ; ; ; ; ; ; , @ @ @ @ @ @ - = = = = = = = =               3 } @ @ @ @ @ @ } ~ = = = = = = = ",
"@ @ @ @ @ @ @ @ % % % % % % % [ @ @ @ @ @ @ @ l q = = = = = = * > ; ; ; ; ; ; > l @ @ @ @ @ @ , m ; ; ; ; ; ; 8 % % % % % % % $ @ @ @ @ @ @ @ @ @ @ @ @ @ @ @ # m ; ; ; ; ; ; ; , @ @ @ @ @ @ - = = = = = = = =               3 } @ @ @ @ @ @ } ~ = = = = = = = ",
"@ @ @ @ @ @ @ @ % % % % % % % [ @ @ @ @ @ @ @ l q = = = = = = * > ; ; ; ; ; ; > l @ @ @ @ @ @ , m ; ; ; ; ; ; 8 % % % % % % % $ @ @ @ @ @ @ @ @ @ @ @ @ @ @ @ # m ; ; ; ; ; ; ; , @ @ @ @ @ @ - = = = = = = = =               3 } @ @ @ @ @ @ } ~ = = = = = = = ",
"# # # # # # # # % % % % % % % [ # } } } } } } l = = = = = = = = P ; ; ; ; ; ; > 5 } } } } } } Q R ; ; ; ; ; ; 8 % % % % % % % S } # # # # # # } - @ @ @ @ @ @ # T z z z z z z | # # # # # # # U = = = = = = = =   V V V V V V r # # # # # # # } ~ = = = = = = = ",
"q q q q q q q ~ , @ @ @ @ @ @ k W c c c c c c 3 @ @ @ @ @ @ @ # _ ; ; ; ; ; ; ; X I I I I I I I 9 9 9 9 9 9 9     9 9 9 9 9 9 9 = q q q q q q j } @ @ @ @ @ @ } ~ = = = = = = = q q q q q q q * % % % % % % % % k @ @ @ @ @ @ Y a q q q q q q { ; ; ; ; ; ; ; ; ",
"= = = = = = = ~ } @ @ @ @ @ @ } 3             V @ @ @ @ @ @ @ , ; ; ; ; ; ; ; ; ; ; ; ; ; ; ; ;                                 = = = = = = = j # @ @ @ @ @ @ } ~ = = = = = = = = = = = = = = * % % % % % % % % @ @ @ @ @ @ @ @ Z = = = = = = * ; ; ; ; ; ; ; ; ",
"= = = = = = = ~ } @ @ @ @ @ @ } 3             V @ @ @ @ @ @ @ , ; ; ; ; ; ; ; ; ; ; ; ; ; ; ; ;                                 = = = = = = = j # @ @ @ @ @ @ } ~ = = = = = = = = = = = = = = * % % % % % % % % @ @ @ @ @ @ @ @ Z = = = = = = * ; ; ; ; ; ; ; ; ",
"= = = = = = = ~ } @ @ @ @ @ @ } 3             V @ @ @ @ @ @ @ , ; ; ; ; ; ; ; ; ; ; ; ; ; ; ; ;                                 = = = = = = = j # @ @ @ @ @ @ } ~ = = = = = = = = = = = = = = * % % % % % % % % @ @ @ @ @ @ @ @ Z = = = = = = * ; ; ; ; ; ; ; ; ",
"= = = = = = = ~ } @ @ @ @ @ @ } 3             V @ @ @ @ @ @ @ , ; ; ; ; ; ; ; ; ; ; ; ; ; ; ; ;                                 = = = = = = = j # @ @ @ @ @ @ } ~ = = = = = = = = = = = = = = * % % % % % % % % @ @ @ @ @ @ @ @ Z = = = = = = * ; ; ; ; ; ; ; ; ",
"= = = = = = = ~ } @ @ @ @ @ @ } 3             V @ @ @ @ @ @ @ , ; ; ; ; ; ; ; ; ; ; ; ; ; ; ; ;                                 = = = = = = = j # @ @ @ @ @ @ } ~ = = = = = = = = = = = = = = * % % % % % % % % @ @ @ @ @ @ @ @ Z = = = = = = * ; ; ; ; ; ; ; ; ",
"= = = = = = = ~ } @ @ @ @ @ @ } 3             V @ @ @ @ @ @ @ , ; ; ; ; ; ; ; ; ; ; ; ; ; ; ; ;                                 = = = = = = = j # @ @ @ @ @ @ } ~ = = = = = = = = = = = = = = * % % % % % % % % @ @ @ @ @ @ @ @ Z = = = = = = * ; ; ; ; ; ; ; ; ",
"y y y y y y y ~ # , , , , , , # 9 9 9 9 9 9 9 E } @ @ @ @ @ @ # _ > > > > > > > ; ; ; ; ; ; ; > 9 9 9 9 9 9 9     3 3 3 3 3 3 3 ` y y y y y y y # , , , , , , # = * * * * * * * * * * * * * * x % % % % % % % % } , , , , , , } ~ = = = = = = * ; > > > > > > > ",
", , , , , , , # | G G G G G G > % % % % % % % % % $ $ $ $ $ $ [ t 9 9 9 9 9 9 9 s ; ; ; ; ; ; ; % % % % % % % [ @ @ @ @ @ @ @ @ , , , , , , , # j y y y y y y ` > > > > > > > > > > > > > > > > % % % % % % % % p y y y y y y = = = = = = = = = * * * * * * * * ",
"@ @ @ @ @ @ @ , > ; ; ; ; ; ; ; % % % % % % % % % % % % % % % % t               s ; ; ; ; ; ; ; % % % % % % % $ @ @ @ @ @ @ @ @ @ @ @ @ @ @ @ @ = = = = = = = * ; ; ; ; ; ; ; ; ; ; ; ; ; ; ; ; % % % % % % % [ * = = = = = = = = = = = = = = = = = = = = = = = ",
"@ @ @ @ @ @ @ , > ; ; ; ; ; ; ; % % % % % % % % % % % % % % % % t               s ; ; ; ; ; ; ; % % % % % % % $ @ @ @ @ @ @ @ @ @ @ @ @ @ @ @ @ = = = = = = = * ; ; ; ; ; ; ; ; ; ; ; ; ; ; ; ; % % % % % % % [ * = = = = = = = = = = = = = = = = = = = = = = = ",
"@ @ @ @ @ @ @ , > ; ; ; ; ; ; ; % % % % % % % % % % % % % % % % t               s ; ; ; ; ; ; ; % % % % % % % $ @ @ @ @ @ @ @ @ @ @ @ @ @ @ @ @ = = = = = = = * ; ; ; ; ; ; ; ; ; ; ; ; ; ; ; ; % % % % % % % [ * = = = = = = = = = = = = = = = = = = = = = = = ",
"@ @ @ @ @ @ @ , > ; ; ; ; ; ; ; % % % % % % % % % % % % % % % % t               s ; ; ; ; ; ; ; % % % % % % % $ @ @ @ @ @ @ @ @ @ @ @ @ @ @ @ @ = = = = = = = * ; ; ; ; ; ; ; ; ; ; ; ; ; ; ; ; % % % % % % % [ * = = = = = = = = = = = = = = = = = = = = = = = ",
"@ @ @ @ @ @ @ , > ; ; ; ; ; ; ; % % % % % % % % % % % % % % % % t               s ; ; ; ; ; ; ; % % % % % % % $ @ @ @ @ @ @ @ @ @ @ @ @ @ @ @ @ = = = = = = = * ; ; ; ; ; ; ; ; ; ; ; ; ; ; ; ; % % % % % % % [ * = = = = = = = = = = = = = = = = = = = = = = = ",
"@ @ @ @ @ @ @ , > ; ; ; ; ; ; ; % % % % % % % % % % % % % % % % t               s ; ; ; ; ; ; ; % % % % % % % $ @ @ @ @ @ @ @ @ @ @ @ @ @ @ @ @ = = = = = = = * ; ; ; ; ; ; ; ; ; ; ; ; ; ; ; ; % % % % % % % [ * = = = = = = = = = = = = = = = = = = = = = = = ",
"@ @ @ @ @ @ @ # ; ; ; ; ; ; ; ; 6 % % % % % % %  .............$ H c c c c c c c > > > > > > > > +.% % % % % % $ @ @ @ @ @ @ @ @ } @ @ @ @ @ @ # j = = = = = = * > > > > > > > > > > > > > > > > 6 % % % % % % [ * = = = = = = = = = = = = = = = * = = = = = = = ",
"= = = = = = = K ; ; ; ; ; ; ; ;               2 7 7 7 7 7 7 7 7 } } } } } } } # E 2 2 2 2 2 2   [ % % % % % % $ @ @ @ @ @ @ @ @ G > > > > > > > m z z z z z z z E 2 2 2 2 2 2   % % % % % % % %                 * = = = = = = * > z z z z z z > = = = = = = = = ",
"= = = = = = = = > ; ; ; ; ; ; ; 2             V @ @ @ @ @ @ @ @ @ @ @ @ @ @ @ @ v             t % % % % % % % $ @ @ @ @ @ @ @ , G ; ; ; ; ; ; ; ; ; ; ; ; ; ; ;               t % % % % % % % %                 * = = = = = = = > ; ; ; ; ; ; > = = = = = = = = ",
"= = = = = = = = > ; ; ; ; ; ; ; 2             V @ @ @ @ @ @ @ @ @ @ @ @ @ @ @ @ v             t % % % % % % % $ @ @ @ @ @ @ @ , G ; ; ; ; ; ; ; ; ; ; ; ; ; ; ;               t % % % % % % % %                 * = = = = = = = > ; ; ; ; ; ; > = = = = = = = = ",
"= = = = = = = = > ; ; ; ; ; ; ; 2             V @ @ @ @ @ @ @ @ @ @ @ @ @ @ @ @ v             t % % % % % % % $ @ @ @ @ @ @ @ , G ; ; ; ; ; ; ; ; ; ; ; ; ; ; ;               t % % % % % % % %                 * = = = = = = = > ; ; ; ; ; ; > = = = = = = = = ",
"= = = = = = = = > ; ; ; ; ; ; ; 2             V @ @ @ @ @ @ @ @ @ @ @ @ @ @ @ @ v             t % % % % % % % $ @ @ @ @ @ @ @ , G ; ; ; ; ; ; ; ; ; ; ; ; ; ; ;               t % % % % % % % %                 * = = = = = = = > ; ; ; ; ; ; > = = = = = = = = ",
"= = = = = = = = > ; ; ; ; ; ; ; 2             V @ @ @ @ @ @ @ @ @ @ @ @ @ @ @ @ v             t % % % % % % % $ @ @ @ @ @ @ @ , G ; ; ; ; ; ; ; ; ; ; ; ; ; ; ;               t % % % % % % % %                 * = = = = = = = > ; ; ; ; ; ; > = = = = = = = = ",
"= = = = = = = = > ; ; ; ; ; ; ; 2             V @ @ @ @ @ @ @ @ @ @ @ @ @ @ @ @ v             t % % % % % % % $ @ @ @ @ @ @ @ , G ; ; ; ; ; ; ; ; ; ; ; ; ; ; ;               t % % % % % % % %                 * = = = = = = = > ; ; ; ; ; ; > = = = = = = = = ",
"= = = = = = = * > ; ; ; ; ; ; > 2             2 @ @ @ @ @ @ @ @ } } } } } } } } E 2 2 2 2 2 2 9 % +.+.+.+.+.+...@.# # # # # # # #.> > > > > > > ; ; ; ; ; ; ; ;               $.[ [ [ [ [ [ [ [   2 2 2 2 2 2   { = = = = = = { > ; ; ; ; ; ; > { = = = = = = = ",
"> > > > > > > ] 9             %.Z a a a a a a j @ @ @ @ @ @ @ } ~ ~ ~ ~ ~ ~ ~ ~ l l l l l l l M m ; ; ; ; ; ; ; n . . . . . . g x x x x x x x ( > ; ; ; ; ; ; ;                 # @ @ @ @ @ @ @ @ l l l l l l # $ [ [ [ [ [ [ F ; ; ; ; ; ; ; ; > > > > > > > > ",
"; ; ; ; ; ; ; >               9 = = = = = = = j @ @ @ @ @ @ @ @ Z = = = = = = = l @ @ @ @ @ @ , m ; ; ; ; ; ; > 9               = = = = = = = = z ; ; ; ; ; ; ;               v @ @ @ @ @ @ @ @ @ @ @ @ @ @ @ , $ % % % % % % % ; ; ; ; ; ; ; ; ; ; ; ; ; ; ; ; ",
"; ; ; ; ; ; ; >               9 = = = = = = = j @ @ @ @ @ @ @ @ Z = = = = = = = l @ @ @ @ @ @ , m ; ; ; ; ; ; > 9               = = = = = = = = z ; ; ; ; ; ; ;               v @ @ @ @ @ @ @ @ @ @ @ @ @ @ @ , $ % % % % % % % ; ; ; ; ; ; ; ; ; ; ; ; ; ; ; ; ",
"; ; ; ; ; ; ; >               9 = = = = = = = j @ @ @ @ @ @ @ @ Z = = = = = = = l @ @ @ @ @ @ , m ; ; ; ; ; ; > 9               = = = = = = = = z ; ; ; ; ; ; ;               v @ @ @ @ @ @ @ @ @ @ @ @ @ @ @ , $ % % % % % % % ; ; ; ; ; ; ; ; ; ; ; ; ; ; ; ; ",
"; ; ; ; ; ; ; >               9 = = = = = = = j @ @ @ @ @ @ @ @ Z = = = = = = = l @ @ @ @ @ @ , m ; ; ; ; ; ; > 9               = = = = = = = = z ; ; ; ; ; ; ;               v @ @ @ @ @ @ @ @ @ @ @ @ @ @ @ , $ % % % % % % % ; ; ; ; ; ; ; ; ; ; ; ; ; ; ; ; ",
"; ; ; ; ; ; ; >               9 = = = = = = = j @ @ @ @ @ @ @ @ Z = = = = = = = l @ @ @ @ @ @ , m ; ; ; ; ; ; > 9               = = = = = = = = z ; ; ; ; ; ; ;               v @ @ @ @ @ @ @ @ @ @ @ @ @ @ @ , $ % % % % % % % ; ; ; ; ; ; ; ; ; ; ; ; ; ; ; ; ",
"; ; ; ; ; ; ; >               9 = = = = = = = j @ @ @ @ @ @ @ @ Z = = = = = = = l @ @ @ @ @ @ , m ; ; ; ; ; ; > 9               = = = = = = = = z ; ; ; ; ; ; ;               v @ @ @ @ @ @ @ @ @ @ @ @ @ @ @ , $ % % % % % % % ; ; ; ; ; ; ; ; ; ; ; ; ; ; ; ; ",
"; ; ; ; ; ; ; >               n = = = = = = = = # @ @ @ @ @ @ @ Z = = = = = = = @ @ @ @ @ @ @ , R > > > > > > > &.              = = = = = = = { ; ; ; ; ; ; ; ;   v v v v v v *.@ @ @ @ @ @ @ @ @ @ @ @ @ @ @ # % % % % % % % 6 ; ; ; ; ; ; ; ; ; ; ; ; ; ; ; ; ",
"% % % % % % % % =.= = = = = = = = = = = = = = = = = = = = = = = - @ @ @ @ @ @ @ > > > > > > > > * = = = = = = =.n             3 } @ @ @ @ @ @ @ $ % % % % % % [ @ @ @ @ @ @ @ @ @ @ @ @ @ @ @ - = = = = = = = * > ; ; ; ; ; ; > % % % % % % % % % % % % % % % % ",
"% % % % % % % % -.= = = = = = = = = = = = = = = = = = = = = = = - @ @ @ @ @ @ @ ; ; ; ; ; ; ; ; * = = = = = = =.%.            3 @ @ @ @ @ @ @ @ $ % % % % % % [ @ @ @ @ @ @ @ @ @ @ @ @ @ @ @ - = = = = = = = * > ; ; ; ; ; ; > % % % % % % % % % % % % % % % % ",
"% % % % % % % % -.= = = = = = = = = = = = = = = = = = = = = = = - @ @ @ @ @ @ @ ; ; ; ; ; ; ; ; * = = = = = = =.%.            3 @ @ @ @ @ @ @ @ $ % % % % % % [ @ @ @ @ @ @ @ @ @ @ @ @ @ @ @ - = = = = = = = * > ; ; ; ; ; ; > % % % % % % % % % % % % % % % % ",
"% % % % % % % % -.= = = = = = = = = = = = = = = = = = = = = = = - @ @ @ @ @ @ @ ; ; ; ; ; ; ; ; * = = = = = = =.%.            3 @ @ @ @ @ @ @ @ $ % % % % % % [ @ @ @ @ @ @ @ @ @ @ @ @ @ @ @ - = = = = = = = * > ; ; ; ; ; ; > % % % % % % % % % % % % % % % % ",
"% % % % % % % % -.= = = = = = = = = = = = = = = = = = = = = = = - @ @ @ @ @ @ @ ; ; ; ; ; ; ; ; * = = = = = = =.%.            3 @ @ @ @ @ @ @ @ $ % % % % % % [ @ @ @ @ @ @ @ @ @ @ @ @ @ @ @ - = = = = = = = * > ; ; ; ; ; ; > % % % % % % % % % % % % % % % % ",
"% % % % % % % % -.= = = = = = = = = = = = = = = = = = = = = = = - @ @ @ @ @ @ @ ; ; ; ; ; ; ; ; * = = = = = = =.%.            3 @ @ @ @ @ @ @ @ $ % % % % % % [ @ @ @ @ @ @ @ @ @ @ @ @ @ @ @ - = = = = = = = * > ; ; ; ; ; ; > % % % % % % % % % % % % % % % % ",
"% % % % % % % % -.= = = = = = = = = = = = = = = = = = = = = = = - @ @ @ @ @ @ @ ; ; ; ; ; ; ; ; * = = = = = = =.%.            3 @ @ @ @ @ @ @ @ $ % % % % % % [ @ @ @ @ @ @ @ @ @ @ @ @ @ @ @ - = = = = = = = * > ; ; ; ; ; ; > % % % % % % % % % % % % % % % % ",
"% % % % % % % [ p * * * * * * = = = = = = = = = ~ Z Z Z Z Z Z ~ # @ @ @ @ @ @ @ ; ; ; ; ; ; ; ; * = = = = = = * ' t t t t t t c @ @ @ @ @ @ @ , < [ [ [ [ [ [ 0 @ @ @ @ @ @ @ @ - - - - - - - 4 = = = = = = = { > ; ; ; ; ; ; > % % % % % % % % [ % % % % % % % ",
"@ @ @ @ @ @ @ , E               = = = = = = = = } @ @ @ @ @ @ }                 F % % % % % % ;.| > > > > > > 8 % % % % % % % % % % % % % % % % = = = = = = = >.^ @ @ @ @ @ @ @ = = = = = = = = | > > > > > > > ; ; ; ; ; ; ; ,.              g @ @ @ @ @ @ @ @ ",
"@ @ @ @ @ @ @ @ v             9 = = = = = = = j @ @ @ @ @ @ @ @                 % % % % % % % '.> ; ; ; ; ; ; 8 % % % % % % % % % % % % % % % % -.= = = = = = ~ ^ @ @ @ @ @ @ l = = = = = = = = > ; ; ; ; ; ; ; ; ; ; ; ; ; ; ,.              v @ @ @ @ @ @ @ @ ",
"@ @ @ @ @ @ @ @ v             9 = = = = = = = j @ @ @ @ @ @ @ @                 % % % % % % % '.> ; ; ; ; ; ; 8 % % % % % % % % % % % % % % % % -.= = = = = = ~ ^ @ @ @ @ @ @ l = = = = = = = = > ; ; ; ; ; ; ; ; ; ; ; ; ; ; ,.              v @ @ @ @ @ @ @ @ ",
"@ @ @ @ @ @ @ @ v             9 = = = = = = = j @ @ @ @ @ @ @ @                 % % % % % % % '.> ; ; ; ; ; ; 8 % % % % % % % % % % % % % % % % -.= = = = = = ~ ^ @ @ @ @ @ @ l = = = = = = = = > ; ; ; ; ; ; ; ; ; ; ; ; ; ; ,.              v @ @ @ @ @ @ @ @ ",
"@ @ @ @ @ @ @ @ v             9 = = = = = = = j @ @ @ @ @ @ @ @                 % % % % % % % '.> ; ; ; ; ; ; 8 % % % % % % % % % % % % % % % % -.= = = = = = ~ ^ @ @ @ @ @ @ l = = = = = = = = > ; ; ; ; ; ; ; ; ; ; ; ; ; ; ,.              v @ @ @ @ @ @ @ @ ",
"@ @ @ @ @ @ @ @ v             9 = = = = = = = j @ @ @ @ @ @ @ @                 % % % % % % % '.> ; ; ; ; ; ; 8 % % % % % % % % % % % % % % % % -.= = = = = = ~ ^ @ @ @ @ @ @ l = = = = = = = = > ; ; ; ; ; ; ; ; ; ; ; ; ; ; ,.              v @ @ @ @ @ @ @ @ ",
"@ @ @ @ @ @ @ @ v             9 = = = = = = = j @ @ @ @ @ @ @ @                 % % % % % % % '.> ; ; ; ; ; ; 8 % % % % % % % % % % % % % % % % -.= = = = = = ~ ^ @ @ @ @ @ @ l = = = = = = = = > ; ; ; ; ; ; ; ; ; ; ; ; ; ; ,.              v @ @ @ @ @ @ @ @ ",
", , , , , , , , g               = = = = = = = j # , , , , , , # g               & % % % % % % '.> ; ; ; ; ; ; b % % % % % % % % % % % % % % % % =.* * * * * * ).@ @ @ @ @ @ @ l = = = = = = = = > ; ; ; ; ; ; ; ; ; ; ; ; ; ; ;               !., , , , , , , , ",
"G G G G G G G I x = = = = = = * n             n % % % % % % % [ * = = = = = = = @ @ @ @ @ @ @ , % 6 6 6 6 6 6 % k @ @ @ @ @ @ @.D ; ; ; ; ; ; > > > > > > > > | { = = = = = = = = = = = = = = = > ; ; ; ; ; ; ; 2               = = = = = = = x I G G G G G G G ",
"; ; ; ; ; ; ; ; * = = = = = = =               9 % % % % % % % % * = = = = = = = l @ @ @ @ @ @ @ ! % % % % % % $ @ @ @ @ @ @ @ , G ; ; ; ; ; ; ; ; ; ; ; ; ; ; > { = = = = = = = = = = = = = = = > ; ; ; ; ; ; ; 2               = = = = = = = * ; ; ; ; ; ; ; ; ",
"; ; ; ; ; ; ; ; * = = = = = = =               9 % % % % % % % % * = = = = = = = l @ @ @ @ @ @ @ ! % % % % % % $ @ @ @ @ @ @ @ , G ; ; ; ; ; ; ; ; ; ; ; ; ; ; > { = = = = = = = = = = = = = = = > ; ; ; ; ; ; ; 2               = = = = = = = * ; ; ; ; ; ; ; ; ",
"; ; ; ; ; ; ; ; * = = = = = = =               9 % % % % % % % % * = = = = = = = l @ @ @ @ @ @ @ ! % % % % % % $ @ @ @ @ @ @ @ , G ; ; ; ; ; ; ; ; ; ; ; ; ; ; > { = = = = = = = = = = = = = = = > ; ; ; ; ; ; ; 2               = = = = = = = * ; ; ; ; ; ; ; ; ",
"; ; ; ; ; ; ; ; * = = = = = = =               9 % % % % % % % % * = = = = = = = l @ @ @ @ @ @ @ ! % % % % % % $ @ @ @ @ @ @ @ , G ; ; ; ; ; ; ; ; ; ; ; ; ; ; > { = = = = = = = = = = = = = = = > ; ; ; ; ; ; ; 2               = = = = = = = * ; ; ; ; ; ; ; ; ",
"; ; ; ; ; ; ; ; * = = = = = = =               9 % % % % % % % % * = = = = = = = l @ @ @ @ @ @ @ ! % % % % % % $ @ @ @ @ @ @ @ , G ; ; ; ; ; ; ; ; ; ; ; ; ; ; > { = = = = = = = = = = = = = = = > ; ; ; ; ; ; ; 2               = = = = = = = * ; ; ; ; ; ; ; ; ",
"; ; ; ; ; ; ; ; * = = = = = = =               9 % % % % % % % % * = = = = = = = l @ @ @ @ @ @ @ ! % % % % % % $ @ @ @ @ @ @ @ , G ; ; ; ; ; ; ; ; ; ; ; ; ; ; > { = = = = = = = = = = = = = = = > ; ; ; ; ; ; ; 2               = = = = = = = * ; ; ; ; ; ; ; ; ",
"> > > > > > > ; * = = = = = = =   9 9 9 9 9 9 ' % % % % % % % [ * = = = = = = = - @ @ @ @ @ @ ~.{.% % % % % % % , l l l l l l # > > > > > > > > ; ; ; ; ; ; ; > { = = = = = = = = = = = = = = * | > > > > > > > 2             3 q = = = = = = * ; ; ; ; ; ; ; ; ",
"= = = = = = = { | ; > > > > ; > 6 % % % % % % % # # # # # # # # ~ = = = = = = = Z a a a a a a { > ; ; ; ; ; ; m 9             9 % % % % % % % +.; ; ; ; ; ; ; > { = = = = = = = > ; > > > > ; > % % % % % % % % # } } } } } } @ N # # # # # # # _ ; ; ; ; ; ; ; ",
"= = = = = = = = > ; ; ; ; ; ; ; % % % % % % % $ , @ @ @ @ @ @ @ Z = = = = = = = = = = = = = = { > ; ; ; ; ; ; > 9             9 % % % % % % % % 8 ; ; ; ; ; ; > { = = = = = = = ; ; ; ; ; ; ; ; % % % % % % % % @ @ @ @ @ @ @ @ @ @ @ @ @ @ @ # _ ; ; ; ; ; ; ; ",
"= = = = = = = = > ; ; ; ; ; ; ; % % % % % % % $ , @ @ @ @ @ @ @ Z = = = = = = = = = = = = = = { > ; ; ; ; ; ; > 9             9 % % % % % % % % 8 ; ; ; ; ; ; > { = = = = = = = ; ; ; ; ; ; ; ; % % % % % % % % @ @ @ @ @ @ @ @ @ @ @ @ @ @ @ # _ ; ; ; ; ; ; ; ",
"= = = = = = = = > ; ; ; ; ; ; ; % % % % % % % $ , @ @ @ @ @ @ @ Z = = = = = = = = = = = = = = { > ; ; ; ; ; ; > 9             9 % % % % % % % % 8 ; ; ; ; ; ; > { = = = = = = = ; ; ; ; ; ; ; ; % % % % % % % % @ @ @ @ @ @ @ @ @ @ @ @ @ @ @ # _ ; ; ; ; ; ; ; ",
"= = = = = = = = > ; ; ; ; ; ; ; % % % % % % % $ , @ @ @ @ @ @ @ Z = = = = = = = = = = = = = = { > ; ; ; ; ; ; > 9             9 % % % % % % % % 8 ; ; ; ; ; ; > { = = = = = = = ; ; ; ; ; ; ; ; % % % % % % % % @ @ @ @ @ @ @ @ @ @ @ @ @ @ @ # _ ; ; ; ; ; ; ; ",
"= = = = = = = = > ; ; ; ; ; ; ; % % % % % % % $ , @ @ @ @ @ @ @ Z = = = = = = = = = = = = = = { > ; ; ; ; ; ; > 9             9 % % % % % % % % 8 ; ; ; ; ; ; > { = = = = = = = ; ; ; ; ; ; ; ; % % % % % % % % @ @ @ @ @ @ @ @ @ @ @ @ @ @ @ # _ ; ; ; ; ; ; ; ",
"= = = = = = = = > ; ; ; ; ; ; ; % % % % % % % $ , @ @ @ @ @ @ @ Z = = = = = = = = = = = = = = { > ; ; ; ; ; ; > 9             9 % % % % % % % % 8 ; ; ; ; ; ; > { = = = = = = = ; ; ; ; ; ; ; ; % % % % % % % % @ @ @ @ @ @ @ @ @ @ @ @ @ @ @ # _ ; ; ; ; ; ; ; ",
"* * * * * * * { | > > > > > > > % % % % % % % % # , , , , , , # = * * * * * * * * * * * * * * ( > ; ; ; ; ; ; > !.v v v v v v !.% [ [ [ [ [ [ % 1 ; ; ; ; ; ; > x = = = = = = = > ; ; ; ; ; ; ; % % % % % % % $ # } } } } } } } , , , , , , , # _ ; ; ; ; ; ; ; ",
"; ; ; ; ; ; ; ; { = = = = = = * [ % % % % % % ! m _ _ _ _ _ _ _ ; ; ; ; ; ; ; ; ; ; ; ; ; ; ; ; ; ; ; ; ; ; ; D @ , , , , , , , G ; ; ; ; ; ; > % +.+.+.+.+.+.%               9 +.+.+.+.+.+.+.% x * * * * * * = ~ ~ ~ ~ ~ ~ ~ K m _ _ _ _ _ _ _ ; ; ; ; ; ; ; ; ",
"; ; ; ; ; ; ; ; * = = = = = = * % % % % % % % 6 ; ; ; ; ; ; ; ; ; ; ; ; ; ; ; ; ; ; ; ; ; ; ; ; ; ; ; ; ; ; ; > @ @ @ @ @ @ @ , G ; ; ; ; ; ; 8 6 % % % % % % % t             t % % % % % % % [ * = = = = = = = = = = = = = = = > ; ; ; ; ; ; ; ; ; ; ; ; ; ; ; ",
"; ; ; ; ; ; ; ; * = = = = = = * % % % % % % % 6 ; ; ; ; ; ; ; ; ; ; ; ; ; ; ; ; ; ; ; ; ; ; ; ; ; ; ; ; ; ; ; > @ @ @ @ @ @ @ , G ; ; ; ; ; ; 8 6 % % % % % % % t             t % % % % % % % [ * = = = = = = = = = = = = = = = > ; ; ; ; ; ; ; ; ; ; ; ; ; ; ; ",
"; ; ; ; ; ; ; ; * = = = = = = * % % % % % % % 6 ; ; ; ; ; ; ; ; ; ; ; ; ; ; ; ; ; ; ; ; ; ; ; ; ; ; ; ; ; ; ; > @ @ @ @ @ @ @ , G ; ; ; ; ; ; 8 6 % % % % % % % t             t % % % % % % % [ * = = = = = = = = = = = = = = = > ; ; ; ; ; ; ; ; ; ; ; ; ; ; ; ",
"; ; ; ; ; ; ; ; * = = = = = = * % % % % % % % 6 ; ; ; ; ; ; ; ; ; ; ; ; ; ; ; ; ; ; ; ; ; ; ; ; ; ; ; ; ; ; ; > @ @ @ @ @ @ @ , G ; ; ; ; ; ; 8 6 % % % % % % % t             t % % % % % % % [ * = = = = = = = = = = = = = = = > ; ; ; ; ; ; ; ; ; ; ; ; ; ; ; ",
"; ; ; ; ; ; ; ; * = = = = = = * % % % % % % % 6 ; ; ; ; ; ; ; ; ; ; ; ; ; ; ; ; ; ; ; ; ; ; ; ; ; ; ; ; ; ; ; > @ @ @ @ @ @ @ , G ; ; ; ; ; ; 8 6 % % % % % % % t             t % % % % % % % [ * = = = = = = = = = = = = = = = > ; ; ; ; ; ; ; ; ; ; ; ; ; ; ; ",
"; ; ; ; ; ; ; ; * = = = = = = * % % % % % % % 6 ; ; ; ; ; ; ; ; ; ; ; ; ; ; ; ; ; ; ; ; ; ; ; ; ; ; ; ; ; ; ; > @ @ @ @ @ @ @ , G ; ; ; ; ; ; 8 6 % % % % % % % t             t % % % % % % % [ * = = = = = = = = = = = = = = = > ; ; ; ; ; ; ; ; ; ; ; ; ; ; ; ",
"; ; ; ; ; ; ; ; * = = = = = = * % % % % % % % 6 ; ; ; ; ; ; ; ; ; ; ; ; ; ; ; ; ; ; ; ; ; ; ; ; ; ; ; ; ; ; ; > @ @ @ @ @ @ @ , G ; ; ; ; ; ; 8 6 % % % % % % % t             t % % % % % % % [ * = = = = = = = = = = = = = = = > ; ; ; ; ; ; ; ; ; ; ; ; ; ; ; "};
