/* XPM */
static char * South_xpm[] = {
"128 128 4372 2",
"  	c #C27174",
". 	c #C37374",
"+ 	c #C27373",
"@ 	c #A7585B",
"# 	c #A6585A",
"$ 	c #A55859",
"% 	c #9C5354",
"& 	c #9A5353",
"* 	c #9A5354",
"= 	c #9D5554",
"- 	c #C3836C",
"; 	c #C2846C",
"> 	c #C3856D",
", 	c #C1876A",
"' 	c #BF8568",
") 	c #7B3F3C",
"! 	c #743D3E",
"~ 	c #733D3E",
"{ 	c #723C3D",
"] 	c #723B3C",
"^ 	c #562927",
"/ 	c #532827",
"( 	c #522827",
"_ 	c #522828",
": 	c #502727",
"< 	c #4E2827",
"[ 	c #532428",
"} 	c #7E0E0F",
"| 	c #810A0B",
"1 	c #830C0E",
"2 	c #820C0F",
"3 	c #831416",
"4 	c #C56E72",
"5 	c #C37273",
"6 	c #C37373",
"7 	c #C27173",
"8 	c #A8575A",
"9 	c #A65759",
"0 	c #753E39",
"a 	c #743E3F",
"b 	c #713C3E",
"c 	c #522727",
"d 	c #57272B",
"e 	c #A65B60",
"f 	c #AC5C5E",
"g 	c #AA5C5E",
"h 	c #AB5D5F",
"i 	c #C27375",
"j 	c #C17274",
"k 	c #C27274",
"l 	c #C27374",
"m 	c #9D5553",
"n 	c #C2846B",
"o 	c #C3856C",
"p 	c #C18769",
"q 	c #830C0F",
"r 	c #C56F72",
"s 	c #A65859",
"t 	c #773E3A",
"u 	c #C37275",
"v 	c #A9595B",
"w 	c #9E5453",
"x 	c #C3846D",
"y 	c #C3856B",
"z 	c #C18768",
"A 	c #C08668",
"B 	c #7B3E3C",
"C 	c #743C3E",
"D 	c #723C3C",
"E 	c #552928",
"F 	c #532728",
"G 	c #522528",
"H 	c #831614",
"I 	c #C47072",
"J 	c #A6575B",
"K 	c #A65858",
"L 	c #773D3E",
"M 	c #713C3D",
"N 	c #522728",
"O 	c #56262B",
"P 	c #A65C5F",
"Q 	c #C37274",
"R 	c #C3836D",
"S 	c #552829",
"T 	c #820C0E",
"U 	c #841614",
"V 	c #C17173",
"W 	c #A6575A",
"X 	c #56262A",
"Y 	c #C17373",
"Z 	c #C27372",
"` 	c #55282A",
" .	c #532929",
"..	c #810C0E",
"+.	c #A9585B",
"@.	c #A5585B",
"#.	c #A55759",
"$.	c #995553",
"%.	c #9C5454",
"&.	c #BF836B",
"*.	c #C28468",
"=.	c #C38568",
"-.	c #BF8767",
";.	c #BC8466",
">.	c #793D3B",
",.	c #723B3D",
"'.	c #522829",
").	c #502829",
"!.	c #522627",
"~.	c #4E2828",
"{.	c #4E2825",
"].	c #4E2826",
"^.	c #532626",
"/.	c #7F0F11",
"(.	c #800D0B",
"_.	c #800B09",
":.	c #810C09",
"<.	c #821614",
"[.	c #C37070",
"}.	c #C27272",
"|.	c #C17473",
"1.	c #C07173",
"2.	c #A7595B",
"3.	c #733E3F",
"4.	c #713B3E",
"5.	c #532727",
"6.	c #4E2728",
"7.	c #55282B",
"8.	c #AB5B5C",
"9.	c #C17174",
"0.	c #C07275",
"a.	c #BF7275",
"b.	c #A55A5B",
"c.	c #A5595A",
"d.	c #A5595B",
"e.	c #A65A5B",
"f.	c #A6595B",
"g.	c #985553",
"h.	c #995254",
"i.	c #995255",
"j.	c #9A5653",
"k.	c #BC866A",
"l.	c #BF8769",
"m.	c #C0886C",
"n.	c #C3866C",
"o.	c #C3866A",
"p.	c #C2866A",
"q.	c #BC856A",
"r.	c #783F3B",
"s.	c #713F3D",
"t.	c #713C3C",
"u.	c #713B3C",
"v.	c #6F3D3C",
"w.	c #592828",
"x.	c #552827",
"y.	c #552828",
"z.	c #552627",
"A.	c #522625",
"B.	c #522725",
"C.	c #522726",
"D.	c #542526",
"E.	c #4D2826",
"F.	c #532625",
"G.	c #800D11",
"H.	c #820E0E",
"I.	c #830D11",
"J.	c #830C11",
"K.	c #820E11",
"L.	c #830D0F",
"M.	c #831417",
"N.	c #C47070",
"O.	c #C17273",
"P.	c #C17372",
"Q.	c #C37272",
"R.	c #C37174",
"S.	c #A3595A",
"T.	c #773E3D",
"U.	c #753D3F",
"V.	c #4D2725",
"W.	c #54292A",
"X.	c #A25E5D",
"Y.	c #A75D5A",
"Z.	c #A75C5C",
"`.	c #AA5E5F",
" +	c #C07274",
".+	c #C47276",
"++	c #A35758",
"@+	c #531815",
"#+	c #4F1211",
"$+	c #501111",
"%+	c #501212",
"&+	c #521716",
"*+	c #8A4E4C",
"=+	c #8B4F4E",
"-+	c #8B4E51",
";+	c #874E51",
">+	c #382019",
",+	c #351E18",
"'+	c #341E17",
")+	c #351D17",
"!+	c #361E15",
"~+	c #381E16",
"{+	c #50282A",
"]+	c #502828",
"^+	c #542928",
"/+	c #552A29",
"(+	c #552927",
"_+	c #542927",
":+	c #592D28",
"<+	c #B86D6E",
"[+	c #BA7172",
"}+	c #BB7072",
"|+	c #B97070",
"1+	c #BB6D6F",
"2+	c #7C191E",
"3+	c #7F0F14",
"4+	c #7D1113",
"5+	c #7D1111",
"6+	c #791218",
"7+	c #522624",
"8+	c #4F2626",
"9+	c #5D0709",
"0+	c #5D0706",
"a+	c #5F0606",
"b+	c #5E0606",
"c+	c #5E0607",
"d+	c #5F0C10",
"e+	c #975757",
"f+	c #945857",
"g+	c #975956",
"h+	c #975855",
"i+	c #985956",
"j+	c #985955",
"k+	c #955553",
"l+	c #611618",
"m+	c #5E1114",
"n+	c #5E1014",
"o+	c #5E1111",
"p+	c #611010",
"q+	c #660E12",
"r+	c #680D14",
"s+	c #680F14",
"t+	c #670F14",
"u+	c #670F13",
"v+	c #680F12",
"w+	c #661214",
"x+	c #6A2C25",
"y+	c #6B2D26",
"z+	c #6B2D24",
"A+	c #6B2F22",
"B+	c #672F26",
"C+	c #693433",
"D+	c #6A3534",
"E+	c #6C3436",
"F+	c #6B3536",
"G+	c #6A3536",
"H+	c #6D3634",
"I+	c #A86263",
"J+	c #AD6365",
"K+	c #AD6265",
"L+	c #A35658",
"M+	c #490D0B",
"N+	c #460807",
"O+	c #450807",
"P+	c #480D0C",
"Q+	c #884D4B",
"R+	c #894E4D",
"S+	c #8A4E50",
"T+	c #854D52",
"U+	c #240E0E",
"V+	c #1C0A0C",
"W+	c #1B0A0B",
"X+	c #1E0A0B",
"Y+	c #1C0A0B",
"Z+	c #1E0A0C",
"`+	c #220C0A",
" @	c #4C2729",
".@	c #4E2A28",
"+@	c #4F2728",
"@@	c #522628",
"#@	c #582B29",
"$@	c #BF7172",
"%@	c #C27273",
"&@	c #C26F72",
"*@	c #861317",
"=@	c #830D0A",
"-@	c #830D0C",
";@	c #820E0C",
">@	c #800D0E",
",@	c #580808",
"'@	c #580805",
")@	c #590804",
"!@	c #590605",
"~@	c #5B090E",
"{@	c #935453",
"]@	c #905554",
"^@	c #905656",
"/@	c #925352",
"(@	c #5C080E",
"_@	c #580704",
":@	c #5C0705",
"<@	c #67080A",
"[@	c #690809",
"}@	c #690808",
"|@	c #680607",
"1@	c #660B0A",
"2@	c #6E2C21",
"3@	c #6D2E22",
"4@	c #6C3022",
"5@	c #6C2F24",
"6@	c #693026",
"7@	c #623331",
"8@	c #623131",
"9@	c #613231",
"0@	c #683331",
"a@	c #AB6163",
"b@	c #AA6363",
"c@	c #A96363",
"d@	c #A35759",
"e@	c #450806",
"f@	c #450808",
"g@	c #480D0D",
"h@	c #864D4B",
"i@	c #8A4F51",
"j@	c #894E50",
"k@	c #854E51",
"l@	c #230D11",
"m@	c #1D090B",
"n@	c #1E090B",
"o@	c #230A0A",
"p@	c #4D2727",
"q@	c #4F2928",
"r@	c #4F2827",
"s@	c #532627",
"t@	c #5A292A",
"u@	c #C07272",
"v@	c #C37071",
"w@	c #861217",
"x@	c #830C0A",
"y@	c #800D10",
"z@	c #532426",
"A@	c #4F2727",
"B@	c #502527",
"C@	c #580A08",
"D@	c #590604",
"E@	c #905553",
"F@	c #915655",
"G@	c #925556",
"H@	c #5B0A0F",
"I@	c #5B0604",
"J@	c #670808",
"K@	c #680808",
"L@	c #670707",
"M@	c #6E2C22",
"N@	c #6F2D23",
"O@	c #6D2E25",
"P@	c #6A3025",
"Q@	c #623133",
"R@	c #673333",
"S@	c #A66362",
"T@	c #480C0D",
"U@	c #592829",
"V@	c #C07171",
"W@	c #C37072",
"X@	c #4F2628",
"Y@	c #590808",
"Z@	c #935252",
"`@	c #5C0A0E",
" #	c #670A0B",
".#	c #6E2D22",
"+#	c #6D2E24",
"@#	c #490D0C",
"##	c #440808",
"$#	c #490B0D",
"%#	c #874C4B",
"&#	c #1D090A",
"*#	c #4C2727",
"=#	c #4E2928",
"-#	c #BF7171",
";#	c #C37073",
">#	c #861218",
",#	c #830C0C",
"'#	c #542527",
")#	c #5A0608",
"!#	c #5A0505",
"~#	c #935152",
"{#	c #660908",
"]#	c #6B2F27",
"^#	c #683233",
"/#	c #A86262",
"(#	c #A9585A",
"_#	c #A45759",
":#	c #450708",
"<#	c #450709",
"[#	c #8A4F50",
"}#	c #8A4E4F",
"|#	c #834F51",
"1#	c #240D11",
"2#	c #230A08",
"3#	c #4C2826",
"4#	c #512627",
"5#	c #572929",
"6#	c #C27172",
"7#	c #51262A",
"8#	c #580809",
"9#	c #590608",
"0#	c #590607",
"a#	c #5C0A0D",
"b#	c #925252",
"c#	c #5B0A0E",
"d#	c #5B0605",
"e#	c #670A0A",
"f#	c #6F2D22",
"g#	c #A9595A",
"h#	c #A45658",
"i#	c #46080A",
"j#	c #874B4C",
"k#	c #8A4F4E",
"l#	c #8A4F4D",
"m#	c #8A4D4D",
"n#	c #240C12",
"o#	c #1C0A09",
"p#	c #240907",
"q#	c #572A29",
"r#	c #BE7170",
"s#	c #C17070",
"t#	c #840D0C",
"u#	c #840D0F",
"v#	c #4E2729",
"w#	c #502529",
"x#	c #570A0B",
"y#	c #5A080A",
"z#	c #5D0A0D",
"A#	c #915654",
"B#	c #915757",
"C#	c #935353",
"D#	c #670C09",
"E#	c #6F2D21",
"F#	c #633334",
"G#	c #C37475",
"H#	c #C37474",
"I#	c #C37473",
"J#	c #C07673",
"K#	c #C27473",
"L#	c #A85B5A",
"M#	c #A6595A",
"N#	c #A4585A",
"O#	c #4C0E0D",
"P#	c #440708",
"Q#	c #460709",
"R#	c #450707",
"S#	c #460C0B",
"T#	c #864D4D",
"U#	c #884F4F",
"V#	c #895050",
"W#	c #845151",
"X#	c #250E0E",
"Y#	c #1F090C",
"Z#	c #1D080A",
"`#	c #1F0807",
" $	c #1F0808",
".$	c #1F0806",
"+$	c #220A07",
"@$	c #512625",
"#$	c #532726",
"$$	c #502825",
"%$	c #532623",
"&$	c #582A26",
"*$	c #841417",
"=$	c #820E12",
"-$	c #820E0F",
";$	c #830D0E",
">$	c #82100E",
",$	c #801011",
"'$	c #4D2728",
")$	c #4D2729",
"!$	c #4D272B",
"~$	c #4D272A",
"{$	c #4D262A",
"]$	c #570B0D",
"^$	c #57070C",
"/$	c #59050C",
"($	c #580709",
"_$	c #570708",
":$	c #580B0E",
"<$	c #8F5654",
"[$	c #8F5755",
"}$	c #5C0406",
"|$	c #65080C",
"1$	c #66090D",
"2$	c #67080D",
"3$	c #66090B",
"4$	c #66090A",
"5$	c #640D0D",
"6$	c #6D2C24",
"7$	c #6D2E26",
"8$	c #6C2F26",
"9$	c #6A3027",
"0$	c #613030",
"a$	c #623132",
"b$	c #683334",
"c$	c #A56463",
"d$	c #A96263",
"e$	c #6F3A3D",
"f$	c #6E393D",
"g$	c #6E393B",
"h$	c #6E393A",
"i$	c #6D3B3A",
"j$	c #6D3C3B",
"k$	c #793E40",
"l$	c #7A403F",
"m$	c #7A3F3E",
"n$	c #793F3E",
"o$	c #7B413F",
"p$	c #834A47",
"q$	c #854848",
"r$	c #87484A",
"s$	c #88474A",
"t$	c #864749",
"u$	c #844948",
"v$	c #814849",
"w$	c #3F1E1E",
"x$	c #3C1C1D",
"y$	c #3C1D1D",
"z$	c #3D1D1E",
"A$	c #3B1B1C",
"B$	c #3A1D1E",
"C$	c #452225",
"D$	c #492024",
"E$	c #4A2124",
"F$	c #4A2326",
"G$	c #492325",
"H$	c #492323",
"I$	c #4A2223",
"J$	c #4F201C",
"K$	c #78121A",
"L$	c #7A1310",
"M$	c #7D110E",
"N$	c #7E1310",
"O$	c #7C1313",
"P$	c #7C1311",
"Q$	c #7C1918",
"R$	c #C26F6E",
"S$	c #BF7170",
"T$	c #680F0F",
"U$	c #650607",
"V$	c #660706",
"W$	c #660607",
"X$	c #670508",
"Y$	c #660709",
"Z$	c #63080A",
"`$	c #300F12",
" %	c #2E1014",
".%	c #2E1113",
"+%	c #2E1112",
"@%	c #2D1011",
"#%	c #2C1211",
"$%	c #260A07",
"%%	c #25090C",
"&%	c #24090B",
"*%	c #24080B",
"=%	c #24090A",
"-%	c #230A09",
";%	c #2B0A0B",
">%	c #7F4447",
",%	c #814544",
"'%	c #804644",
")%	c #804544",
"!%	c #814444",
"~%	c #804141",
"{%	c #5A080D",
"]%	c #58070C",
"^%	c #390E0D",
"/%	c #34100D",
"(%	c #36100F",
"_%	c #381010",
":%	c #5F3333",
"<%	c #603434",
"[%	c #613434",
"}%	c #623435",
"|%	c #623434",
"1%	c #613435",
"2%	c #401111",
"3%	c #3F100F",
"4%	c #3F1011",
"5%	c #3E0E12",
"6%	c #3E0E10",
"7%	c #421412",
"8%	c #8E5350",
"9%	c #905351",
"0%	c #905452",
"a%	c #915452",
"b%	c #5D3237",
"c%	c #5D3336",
"d%	c #5D3335",
"e%	c #5D3233",
"f%	c #713B3F",
"g%	c #854E4F",
"h%	c #884E50",
"i%	c #8A4D50",
"j%	c #8A4D4F",
"k%	c #854C4D",
"l%	c #331717",
"m%	c #2A1316",
"n%	c #2A1317",
"o%	c #291316",
"p%	c #291215",
"q%	c #2C1216",
"r%	c #4A2526",
"s%	c #4D2424",
"t%	c #4E2525",
"u%	c #512421",
"v%	c #7F0F13",
"w%	c #851217",
"x%	c #C2706F",
"y%	c #C4726F",
"z%	c #C3716C",
"A%	c #5E100C",
"B%	c #5E0509",
"C%	c #5C040C",
"D%	c #260D0E",
"E%	c #260E11",
"F%	c #260E10",
"G%	c #250E10",
"H%	c #1A090B",
"I%	c #19090A",
"J%	c #1A090A",
"K%	c #18090A",
"L%	c #180909",
"M%	c #210A0D",
"N%	c #7B4043",
"O%	c #7E4141",
"P%	c #7D4241",
"Q%	c #7E403F",
"R%	c #5B090D",
"S%	c #590506",
"T%	c #300E11",
"U%	c #2A1013",
"V%	c #2A1110",
"W%	c #301012",
"X%	c #5B353A",
"Y%	c #5F3536",
"Z%	c #603636",
"`%	c #5D3636",
" &	c #603535",
".&	c #3B0A0C",
"+&	c #3B0B07",
"@&	c #3B0906",
"#&	c #3B0908",
"$&	c #3C0A08",
"%&	c #400D0A",
"&&	c #8B5150",
"*&	c #8D5251",
"=&	c #8D5250",
"-&	c #8D524F",
";&	c #5C3135",
">&	c #5C3134",
",&	c #5C3235",
"'&	c #5D3334",
")&	c #5D3332",
"!&	c #5E3233",
"~&	c #874E50",
"{&	c #894F51",
"]&	c #864D4E",
"^&	c #321616",
"/&	c #291312",
"(&	c #291314",
"_&	c #291315",
":&	c #2C1215",
"<&	c #4D2524",
"[&	c #522323",
"}&	c #800F12",
"|&	c #851417",
"1&	c #C3716F",
"2&	c #C37170",
"3&	c #C2706E",
"4&	c #5E100D",
"5&	c #5E0605",
"6&	c #5D050A",
"7&	c #270E0F",
"8&	c #220B0D",
"9&	c #7C4044",
"0&	c #7F4040",
"a&	c #590504",
"b&	c #2F0E11",
"c&	c #301113",
"d&	c #5D3635",
"e&	c #5F3435",
"f&	c #3A0907",
"g&	c #3A0806",
"h&	c #3A0804",
"i&	c #3A0803",
"j&	c #3B0904",
"k&	c #420B0A",
"l&	c #8C5150",
"m&	c #5C3232",
"n&	c #5D3333",
"o&	c #5E3133",
"p&	c #723A3F",
"q&	c #733C3D",
"r&	c #874C50",
"s&	c #311616",
"t&	c #2B1315",
"u&	c #2C1315",
"v&	c #810E14",
"w&	c #C47172",
"x&	c #C27071",
"y&	c #5C0706",
"z&	c #220B0B",
"A&	c #7C4045",
"B&	c #804040",
"C&	c #5A0604",
"D&	c #301112",
"E&	c #5C3639",
"F&	c #5F3535",
"G&	c #3B090C",
"H&	c #440B0A",
"I&	c #874D4F",
"J&	c #311615",
"K&	c #830D13",
"L&	c #C47272",
"M&	c #C37171",
"N&	c #5F0F0D",
"O&	c #7D4141",
"P&	c #580807",
"Q&	c #2F0F11",
"R&	c #3A0807",
"S&	c #311614",
"T&	c #600F0E",
"U&	c #5F0506",
"V&	c #570807",
"W&	c #5D3232",
"X&	c #723C3E",
"Y&	c #864E50",
"Z&	c #875051",
"`&	c #885051",
" *	c #301715",
".*	c #2B1414",
"+*	c #4B2527",
"@*	c #4E2524",
"#*	c #4D2425",
"$*	c #4D2423",
"%*	c #4C2523",
"&*	c #532323",
"**	c #810E15",
"=*	c #830911",
"-*	c #C4706F",
";*	c #C17073",
">*	c #600F0D",
",*	c #5D0804",
"'*	c #5D0805",
")*	c #5D0806",
"!*	c #5C0609",
"~*	c #270F0E",
"{*	c #200C0B",
"]*	c #7B4045",
"^*	c #5A0508",
"/*	c #5B0408",
"(*	c #590609",
"_*	c #2F1210",
":*	c #5A3635",
"<*	c #3C0A0A",
"[*	c #390906",
"}*	c #410C0D",
"|*	c #8C5153",
"1*	c #8E5251",
"2*	c #5E3332",
"3*	c #703B3E",
"4*	c #723C41",
"5*	c #723C42",
"6*	c #733D42",
"7*	c #885155",
"8*	c #885156",
"9*	c #885154",
"0*	c #895353",
"a*	c #895354",
"b*	c #875353",
"c*	c #864F52",
"d*	c #2F1716",
"e*	c #2A1313",
"f*	c #2B1311",
"g*	c #4B2321",
"h*	c #4C2422",
"i*	c #4D2422",
"j*	c #4D2420",
"k*	c #4C2420",
"l*	c #53221D",
"m*	c #7E0E13",
"n*	c #820A11",
"o*	c #841618",
"p*	c #C27474",
"q*	c #C17375",
"r*	c #5C110D",
"s*	c #5B0705",
"t*	c #5C0703",
"u*	c #5B0603",
"v*	c #2A0C0D",
"w*	c #250D10",
"x*	c #250D0F",
"y*	c #1D070A",
"z*	c #180708",
"A*	c #180809",
"B*	c #210C0B",
"C*	c #7D4347",
"D*	c #7F4343",
"E*	c #814343",
"F*	c #844344",
"G*	c #824243",
"H*	c #814243",
"I*	c #5A090E",
"J*	c #590508",
"K*	c #5A0509",
"L*	c #5A0605",
"M*	c #5A0806",
"N*	c #2E0F10",
"O*	c #290E12",
"P*	c #29100F",
"Q*	c #2A100F",
"R*	c #2E100F",
"S*	c #593534",
"T*	c #5B3635",
"U*	c #5B3634",
"V*	c #5B3534",
"W*	c #3E0A0C",
"X*	c #3D070A",
"Y*	c #3F070A",
"Z*	c #40070B",
"`*	c #3F060A",
" =	c #3E060A",
".=	c #3D0609",
"+=	c #420B0D",
"@=	c #8B5153",
"#=	c #8E5352",
"$=	c #8F5253",
"%=	c #8E5253",
"&=	c #744444",
"*=	c #744443",
"==	c #734342",
"-=	c #724242",
";=	c #724241",
">=	c #724341",
",=	c #6D4141",
"'=	c #542A29",
")=	c #502A29",
"!=	c #512B2A",
"~=	c #502C2A",
"{=	c #502B2B",
"]=	c #4E2A2A",
"^=	c #351B19",
"/=	c #361B19",
"(=	c #361A19",
"_=	c #371B1A",
":=	c #361B1A",
"<=	c #381D1B",
"[=	c #533132",
"}=	c #573136",
"|=	c #573235",
"1=	c #5D3235",
"2=	c #985656",
"3=	c #9E5459",
"4=	c #9F555A",
"5=	c #A1545A",
"6=	c #A15559",
"7=	c #A1565B",
"8=	c #9B5656",
"9=	c #753935",
"0=	c #723732",
"a=	c #713631",
"b=	c #723632",
"c=	c #6F3632",
"d=	c #6E3734",
"e=	c #703835",
"f=	c #A1615F",
"g=	c #A66060",
"h=	c #A76060",
"i=	c #A86261",
"j=	c #A96362",
"k=	c #A66554",
"l=	c #A86655",
"m=	c #A96658",
"n=	c #A96655",
"o=	c #A96753",
"p=	c #A86753",
"q=	c #A56356",
"r=	c #361B16",
"s=	c #2F181A",
"t=	c #30181A",
"u=	c #33191B",
"v=	c #432023",
"w=	c #462023",
"x=	c #462024",
"y=	c #442023",
"z=	c #401C1D",
"A=	c #3E1919",
"B=	c #3E1A19",
"C=	c #3C1A19",
"D=	c #3F1A19",
"E=	c #3D1918",
"F=	c #3D1B19",
"G=	c #411A15",
"H=	c #431815",
"I=	c #431814",
"J=	c #431816",
"K=	c #421916",
"L=	c #421A16",
"M=	c #482523",
"N=	c #492523",
"O=	c #482524",
"P=	c #492425",
"Q=	c #482525",
"R=	c #472525",
"S=	c #A66468",
"T=	c #A9676B",
"U=	c #A9686B",
"V=	c #A96769",
"W=	c #AA6766",
"X=	c #AC666A",
"Y=	c #AB6467",
"Z=	c #7C1418",
"`=	c #7E0F10",
" -	c #7E0F13",
".-	c #7B1012",
"+-	c #7A1012",
"@-	c #771417",
"#-	c #683B39",
"$-	c #673938",
"%-	c #6A3939",
"&-	c #673A39",
"*-	c #663A39",
"=-	c #663A38",
"--	c #663939",
";-	c #653A39",
">-	c #784542",
",-	c #784544",
"'-	c #784343",
")-	c #784344",
"!-	c #4A2624",
"~-	c #452527",
"{-	c #472527",
"]-	c #482527",
"^-	c #49252A",
"/-	c #462427",
"(-	c #1A0B08",
"_-	c #190909",
":-	c #1B0C0A",
"<-	c #5F343A",
"[-	c #613538",
"}-	c #613637",
"|-	c #613639",
"1-	c #643637",
"2-	c #A75B5B",
"3-	c #AD5A5E",
"4-	c #AC5B5D",
"5-	c #AC5C5D",
"6-	c #AB5D5D",
"7-	c #AD5D5E",
"8-	c #AA5D5D",
"9-	c #A9595E",
"0-	c #6F3E3C",
"a-	c #6A3E3B",
"b-	c #6B3D3B",
"c-	c #6A3D3B",
"d-	c #6A3D3C",
"e-	c #6B3E3D",
"f-	c #6D3F3B",
"g-	c #9E5D5D",
"h-	c #A05D5D",
"i-	c #A05E5D",
"j-	c #A05E5E",
"k-	c #A1605D",
"l-	c #AE7059",
"m-	c #AF7058",
"n-	c #AF7056",
"o-	c #AE7156",
"p-	c #AE7157",
"q-	c #AB6F57",
"r-	c #391D19",
"s-	c #31191B",
"t-	c #35191A",
"u-	c #4A2325",
"v-	c #4E2324",
"w-	c #4C2324",
"x-	c #4C2424",
"y-	c #4B2326",
"z-	c #2C1311",
"A-	c #2B1110",
"B-	c #2D1010",
"C-	c #2C0F10",
"D-	c #2C1210",
"E-	c #371C1A",
"F-	c #381E1C",
"G-	c #381E1B",
"H-	c #3A1D1C",
"I-	c #3B1C1C",
"J-	c #4D2827",
"K-	c #552B29",
"L-	c #B5696C",
"M-	c #B96A6D",
"N-	c #B86A6C",
"O-	c #B86A6D",
"P-	c #B76B6D",
"Q-	c #B76B6C",
"R-	c #B96B6C",
"S-	c #B96867",
"T-	c #851718",
"U-	c #85100D",
"V-	c #870E10",
"W-	c #871010",
"X-	c #870E0E",
"Y-	c #841212",
"Z-	c #5F3332",
"`-	c #5A3334",
" ;	c #5D3434",
".;	c #5B3434",
"+;	c #5E3435",
"@;	c #5E3434",
"#;	c #774544",
"$;	c #744440",
"%;	c #4B2625",
"&;	c #482427",
"*;	c #462426",
"=;	c #190A07",
"-;	c #170809",
";;	c #1D0B0A",
">;	c #5E3438",
",;	c #613536",
"';	c #643736",
");	c #A85C5C",
"!;	c #AD5B5E",
"~;	c #AD5C5F",
"{;	c #AD5D5D",
"];	c #A75B5E",
"^;	c #693E3B",
"/;	c #6B3D3D",
"(;	c #6F3E3F",
"_;	c #9E5D60",
":;	c #A15F5D",
"<;	c #AF715A",
"[;	c #B0725A",
"};	c #AF7159",
"|;	c #AD6F58",
"1;	c #3A1D1A",
"2;	c #35171C",
"3;	c #301A1B",
"4;	c #36191C",
"5;	c #492326",
"6;	c #4B2323",
"7;	c #4A2423",
"8;	c #4A2322",
"9;	c #2C1310",
"0;	c #2B1211",
"a;	c #371D1C",
"b;	c #381E1D",
"c;	c #381E1E",
"d;	c #4D2726",
"e;	c #562B29",
"f;	c #B66A6D",
"g;	c #BA6B6D",
"h;	c #B96B6E",
"i;	c #BA6969",
"j;	c #871518",
"k;	c #86100E",
"l;	c #603332",
"m;	c #442425",
"n;	c #190A06",
"o;	c #170909",
"p;	c #160909",
"q;	c #1C0B0B",
"r;	c #5E3537",
"s;	c #643837",
"t;	c #A75D5C",
"u;	c #AC5B5E",
"v;	c #AD6F5A",
"w;	c #3A1B1A",
"x;	c #351A1C",
"y;	c #B76B6E",
"z;	c #442325",
"A;	c #140B09",
"B;	c #1C0C0A",
"C;	c #5E3536",
"D;	c #623836",
"E;	c #A75D5D",
"F;	c #AB5B5E",
"G;	c #6F3F3F",
"H;	c #AD6F5B",
"I;	c #35191C",
"J;	c #34191C",
"K;	c #4A2226",
"L;	c #754440",
"M;	c #4A2725",
"N;	c #442326",
"O;	c #190A0A",
"P;	c #1C0C0C",
"Q;	c #5E3538",
"R;	c #613636",
"S;	c #A65C5B",
"T;	c #AA5A5D",
"U;	c #6F3F40",
"V;	c #A15F5E",
"W;	c #3C1D1B",
"X;	c #4B2423",
"Y;	c #552A28",
"Z;	c #860E0E",
"`;	c #1A0A0B",
" >	c #3C1C1B",
".>	c #34191B",
"+>	c #B5696E",
"@>	c #734141",
"#>	c #744141",
"$>	c #744242",
"%>	c #734242",
"&>	c #714143",
"*>	c #482423",
"=>	c #412324",
"->	c #170A07",
";>	c #160708",
">>	c #160709",
",>	c #150708",
"'>	c #160609",
")>	c #1A0B09",
"!>	c #5C3537",
"~>	c #633837",
"{>	c #A75A5B",
"]>	c #AA595C",
"^>	c #AB5A5D",
"/>	c #AC5C5C",
"(>	c #AC5B5C",
"_>	c #A9595D",
":>	c #6F3D3A",
"<>	c #693D3A",
"[>	c #6D3C3D",
"}>	c #6A3D3D",
"|>	c #9D5D60",
"1>	c #A05E60",
"2>	c #A05F61",
"3>	c #A35F5D",
"4>	c #B5735E",
"5>	c #B5745E",
"6>	c #B7735E",
"7>	c #B6745E",
"8>	c #B3745D",
"9>	c #B0745D",
"0>	c #3C1D17",
"a>	c #341818",
"b>	c #331818",
"c>	c #33171B",
"d>	c #341819",
"e>	c #492222",
"f>	c #4A2222",
"g>	c #472122",
"h>	c #2B110F",
"i>	c #2A0D0E",
"j>	c #2C0E10",
"k>	c #38191B",
"l>	c #391A1C",
"m>	c #391A1E",
"n>	c #381C1D",
"o>	c #371B1B",
"p>	c #381C19",
"q>	c #4C2725",
"r>	c #562928",
"s>	c #B46B6C",
"t>	c #BA6B6C",
"u>	c #B86C6C",
"v>	c #B9696A",
"w>	c #871618",
"x>	c #890F10",
"y>	c #890D11",
"z>	c #890D10",
"A>	c #871011",
"B>	c #603333",
"C>	c #CD967C",
"D>	c #CE957C",
"E>	c #CE957B",
"F>	c #CF967D",
"G>	c #D0967D",
"H>	c #D1967D",
"I>	c #CE947A",
"J>	c #AF6D66",
"K>	c #B16966",
"L>	c #B06866",
"M>	c #B06865",
"N>	c #B06965",
"O>	c #AD6864",
"P>	c #7D4B3C",
"Q>	c #7C4A39",
"R>	c #7C493A",
"S>	c #7B4839",
"T>	c #7A4839",
"U>	c #7A4838",
"V>	c #78473E",
"W>	c #613734",
"X>	c #B96D6D",
"Y>	c #BD6D70",
"Z>	c #BF6E71",
"`>	c #BF7070",
" ,	c #BF6F70",
".,	c #BE6E72",
"+,	c #8C5052",
"@,	c #884F51",
"#,	c #895051",
"$,	c #8A504F",
"%,	c #884F52",
"&,	c #915557",
"*,	c #965656",
"=,	c #965557",
"-,	c #965655",
";,	c #905552",
">,	c #532E28",
",,	c #512D26",
"',	c #522C26",
"),	c #512C26",
"!,	c #502C25",
"~,	c #563133",
"{,	c #5B3035",
"],	c #583134",
"^,	c #573134",
"/,	c #593233",
"(,	c #834A4B",
"_,	c #884A4D",
":,	c #8B4A4E",
"<,	c #8A4A4E",
"[,	c #894B4D",
"},	c #824648",
"|,	c #814648",
"1,	c #834548",
"2,	c #844548",
"3,	c #844648",
"4,	c #97585A",
"5,	c #97595A",
"6,	c #98595A",
"7,	c #99595B",
"8,	c #98595B",
"9,	c #955859",
"0,	c #935959",
"a,	c #4B2322",
"b,	c #482221",
"c,	c #472321",
"d,	c #482321",
"e,	c #AA6A5D",
"f,	c #AE6C5B",
"g,	c #AD6C5C",
"h,	c #AF6C5B",
"i,	c #B06A5C",
"j,	c #7F1214",
"k,	c #810E0E",
"l,	c #810E0F",
"m,	c #810C11",
"n,	c #7E130E",
"o,	c #E0A480",
"p,	c #E1A581",
"q,	c #E3A181",
"r,	c #C57573",
"s,	c #C47074",
"t,	c #8D5241",
"u,	c #8D523A",
"v,	c #8D513D",
"w,	c #8D523D",
"x,	c #8C513C",
"y,	c #8B503B",
"z,	c #894E42",
"A,	c #633732",
"B,	c #603635",
"C,	c #633838",
"D,	c #BD7471",
"E,	c #C07176",
"F,	c #925356",
"G,	c #8E5355",
"H,	c #8F5255",
"I,	c #905354",
"J,	c #8F5451",
"K,	c #8F5453",
"L,	c #8C5353",
"M,	c #210A0C",
"N,	c #22090D",
"O,	c #220A0D",
"P,	c #280A0F",
"Q,	c #61353A",
"R,	c #925254",
"S,	c #965255",
"T,	c #955154",
"U,	c #924E51",
"V,	c #934F52",
"W,	c #A66265",
"X,	c #A76366",
"Y,	c #A46165",
"Z,	c #45201F",
"`,	c #46201F",
" '	c #4B231F",
".'	c #A56A56",
"+'	c #A76C55",
"@'	c #AA6B55",
"#'	c #AC6A55",
"$'	c #7C1410",
"%'	c #7E0C0C",
"&'	c #7F0D0D",
"*'	c #7B100F",
"='	c #E2A682",
"-'	c #E4A283",
";'	c #C47274",
">'	c #C37074",
",'	c #8E5243",
"''	c #8C523D",
")'	c #8B523E",
"!'	c #8C523E",
"~'	c #8C513D",
"{'	c #8B513D",
"]'	c #8B503D",
"^'	c #8A4E41",
"/'	c #633835",
"('	c #5F3635",
"_'	c #BD7272",
":'	c #C07076",
"<'	c #8D5355",
"['	c #8F5452",
"}'	c #8F5354",
"|'	c #8F5352",
"1'	c #8F5351",
"2'	c #8C5252",
"3'	c #290E0D",
"4'	c #220909",
"5'	c #220908",
"6'	c #22090A",
"7'	c #260A0E",
"8'	c #603638",
"9'	c #603538",
"0'	c #623637",
"a'	c #965253",
"b'	c #965052",
"c'	c #975052",
"d'	c #924E4F",
"e'	c #934F4F",
"f'	c #934F50",
"g'	c #A76364",
"h'	c #A66366",
"i'	c #452021",
"j'	c #452020",
"k'	c #4C241F",
"l'	c #A66B57",
"m'	c #AA6C55",
"n'	c #AA6D55",
"o'	c #AB6C55",
"p'	c #AC6A56",
"q'	c #E4A184",
"r'	c #C47572",
"s'	c #8E5142",
"t'	c #8C513E",
"u'	c #8B513E",
"v'	c #8B4F41",
"w'	c #5D3736",
"x'	c #2A0D0C",
"y'	c #230807",
"z'	c #260B0C",
"A'	c #623635",
"B'	c #975153",
"C'	c #975051",
"D'	c #934D4E",
"E'	c #A76363",
"F'	c #A66367",
"G'	c #4B2222",
"H'	c #452023",
"I'	c #A86B57",
"J'	c #AB6D55",
"K'	c #AC6C55",
"L'	c #AB6A56",
"M'	c #8C5041",
"N'	c #623936",
"O'	c #915456",
"P'	c #280D0C",
"Q'	c #250C0C",
"R'	c #E3A184",
"S'	c #613936",
"T'	c #A76367",
"U'	c #E1A282",
"V'	c #C37673",
"W'	c #C27072",
"X'	c #8E5144",
"Y'	c #BC7372",
"Z'	c #8E5450",
"`'	c #8E5053",
" )	c #280D0D",
".)	c #623636",
"+)	c #925351",
"@)	c #975155",
"#)	c #A36362",
"$)	c #461F23",
"%)	c #451F21",
"&)	c #4B2520",
"*)	c #A56D57",
"=)	c #AB6B56",
"-)	c #7F090B",
";)	c #E5A985",
">)	c #E5A986",
",)	c #E4A686",
"')	c #C37674",
"))	c #C37377",
"!)	c #C47377",
"~)	c #C47278",
"{)	c #C17476",
"])	c #C07374",
"^)	c #8F5246",
"/)	c #8B513F",
"()	c #8B4F42",
"_)	c #5F3636",
":)	c #BE7575",
"<)	c #C47477",
"[)	c #C47376",
"})	c #C57477",
"|)	c #C47476",
"1)	c #C37576",
"2)	c #C27378",
"3)	c #955555",
"4)	c #925654",
"5)	c #915553",
"6)	c #925653",
"7)	c #915652",
"8)	c #915653",
"9)	c #8F5551",
"0)	c #8E5451",
"a)	c #220907",
"b)	c #25090A",
"c)	c #5D3433",
"d)	c #5E3433",
"e)	c #5F3434",
"f)	c #5F3433",
"g)	c #613535",
"h)	c #90514F",
"i)	c #954E51",
"j)	c #974E4F",
"k)	c #974E50",
"l)	c #964F50",
"m)	c #964F4F",
"n)	c #984E4F",
"o)	c #924F4F",
"p)	c #944E50",
"q)	c #A66363",
"r)	c #49211F",
"s)	c #431E1F",
"t)	c #431C20",
"u)	c #431D1F",
"v)	c #431E1D",
"w)	c #4A2320",
"x)	c #A66E5B",
"y)	c #AC6E57",
"z)	c #AC6F58",
"A)	c #AC6F57",
"B)	c #AD6E57",
"C)	c #AD6D59",
"D)	c #7D1712",
"E)	c #7F0D0E",
"F)	c #7E0F0E",
"G)	c #7B1213",
"H)	c #623536",
"I)	c #613737",
"J)	c #613837",
"K)	c #623838",
"L)	c #613738",
"M)	c #613739",
"N)	c #814E3D",
"O)	c #824E3F",
"P)	c #9E5C5B",
"Q)	c #9D5D5B",
"R)	c #9D5D5C",
"S)	c #9C5E5C",
"T)	c #9F5C5C",
"U)	c #7B3F3B",
"V)	c #7B403B",
"W)	c #7A3F3C",
"X)	c #793F3B",
"Y)	c #793E3D",
"Z)	c #623736",
"`)	c #854B4A",
" !	c #874A49",
".!	c #874A4A",
"+!	c #884A4A",
"@!	c #874A48",
"#!	c #6E2726",
"$!	c #6F2527",
"%!	c #6D2627",
"&!	c #6E2627",
"*!	c #722827",
"=!	c #8A4F4B",
"-!	c #8B504F",
";!	c #884E4D",
">!	c #311915",
",!	c #2F1717",
"'!	c #2F1719",
")!	c #2E1618",
"!!	c #361917",
"~!	c #A15F62",
"{!	c #A66064",
"]!	c #A56164",
"^!	c #A86265",
"/!	c #C7777A",
"(!	c #C97679",
"_!	c #C87778",
":!	c #CA7778",
"<!	c #C97778",
"[!	c #C87878",
"}!	c #C77778",
"|!	c #8D4C4C",
"1!	c #884C4B",
"2!	c #884A4E",
"3!	c #995959",
"4!	c #995857",
"5!	c #844C41",
"6!	c #844B40",
"7!	c #844C42",
"8!	c #844C40",
"9!	c #7F4D43",
"0!	c #7A483B",
"a!	c #78463D",
"b!	c #77463D",
"c!	c #774540",
"d!	c #784640",
"e!	c #76463F",
"f!	c #76443D",
"g!	c #3C0C0B",
"h!	c #3F0B0E",
"i!	c #3F090C",
"j!	c #3F080B",
"k!	c #3C0A0C",
"l!	c #3B1C1B",
"m!	c #3D1C1B",
"n!	c #3E1D1B",
"o!	c #3E1C1E",
"p!	c #3E1C1F",
"q!	c #4D0B09",
"r!	c #4D0B08",
"s!	c #4E0B0A",
"t!	c #4E0B09",
"u!	c #4E0B08",
"v!	c #510E0E",
"w!	c #8F5251",
"x!	c #743A3A",
"y!	c #723A3C",
"z!	c #703A39",
"A!	c #703A3B",
"B!	c #73393B",
"C!	c #623634",
"D!	c #6C3735",
"E!	c #6B3737",
"F!	c #6B3738",
"G!	c #6D3738",
"H!	c #6D3736",
"I!	c #6E3632",
"J!	c #600B0B",
"K!	c #620708",
"L!	c #630508",
"M!	c #630708",
"N!	c #620707",
"O!	c #630706",
"P!	c #660C0E",
"Q!	c #8A4C4A",
"R!	c #894E4F",
"S!	c #884D4C",
"T!	c #361B18",
"U!	c #31191C",
"V!	c #3C1D1C",
"W!	c #B36B6E",
"X!	c #B76C6E",
"Y!	c #B76E6E",
"Z!	c #BA6E70",
"`!	c #D68184",
" ~	c #D68281",
".~	c #D78380",
"+~	c #D68380",
"@~	c #D58480",
"#~	c #D48082",
"$~	c #874B49",
"%~	c #824A48",
"&~	c #804A4B",
"*~	c #81494B",
"=~	c #804A4A",
"-~	c #945553",
";~	c #945749",
">~	c #965743",
",~	c #975744",
"'~	c #975743",
")~	c #905644",
"!~	c #63352F",
"~~	c #5F3335",
"{~	c #5C3336",
"]~	c #180A0A",
"^~	c #130A0B",
"/~	c #150A09",
"(~	c #180906",
"_~	c #2B1112",
":~	c #2E1110",
"<~	c #2C120F",
"[~	c #2B1310",
"}~	c #2B1312",
"|~	c #4D0708",
"1~	c #4D0808",
"2~	c #4F0908",
"3~	c #4F0907",
"4~	c #510D0A",
"5~	c #915150",
"6~	c #753A39",
"7~	c #723A39",
"8~	c #71393A",
"9~	c #613634",
"0~	c #633635",
"a~	c #6C3737",
"b~	c #6E3839",
"c~	c #6F3738",
"d~	c #5F0B0B",
"e~	c #600907",
"f~	c #630806",
"g~	c #8A4C4B",
"h~	c #30191C",
"i~	c #321A1C",
"j~	c #B36C6F",
"k~	c #BA6E6F",
"l~	c #D58182",
"m~	c #D7837E",
"n~	c #D88380",
"o~	c #D38182",
"p~	c #874B4A",
"q~	c #814B49",
"r~	c #7F494A",
"s~	c #824A4A",
"t~	c #945745",
"u~	c #905744",
"v~	c #633432",
"w~	c #5E3333",
"x~	c #5D3231",
"y~	c #5C3238",
"z~	c #170C0A",
"A~	c #130A08",
"B~	c #14090A",
"C~	c #2A1215",
"D~	c #2C1312",
"E~	c #2A1211",
"F~	c #500708",
"G~	c #500707",
"H~	c #91514F",
"I~	c #8E5454",
"J~	c #733B3A",
"K~	c #713A39",
"L~	c #733939",
"M~	c #70393A",
"N~	c #623535",
"O~	c #6B3739",
"P~	c #5F0B0C",
"Q~	c #630809",
"R~	c #620808",
"S~	c #650D0E",
"T~	c #8A4D4B",
"U~	c #874D4C",
"V~	c #3D1E1D",
"W~	c #B46E70",
"X~	c #B76C6D",
"Y~	c #B86C6D",
"Z~	c #BC6C6E",
"`~	c #D78183",
" {	c #D88280",
".{	c #D98280",
"+{	c #D58082",
"@{	c #874C4A",
"#{	c #915743",
"${	c #623433",
"%{	c #593338",
"&{	c #190C09",
"*{	c #130A0A",
"={	c #150A0C",
"-{	c #18090B",
";{	c #2B1114",
">{	c #2B1212",
",{	c #723C3A",
"'{	c #703A38",
"){	c #743938",
"!{	c #6F393A",
"~{	c #6B383A",
"{{	c #6D3632",
"]{	c #894D4B",
"^{	c #3D1E1E",
"/{	c #B36E70",
"({	c #BD6C6F",
"_{	c #D88083",
":{	c #D57F82",
"<{	c #623534",
"[{	c #1A0C09",
"}{	c #150A0B",
"|{	c #17090B",
"1{	c #2D1012",
"2{	c #894D4C",
"3{	c #B26D6F",
"4{	c #B66D6D",
"5{	c #DA8180",
"6{	c #864C4A",
"7{	c #834B49",
"8{	c #824A4B",
"9{	c #1A0B0C",
"0{	c #130B09",
"a{	c #520C0A",
"b{	c #8D5353",
"c{	c #703A37",
"d{	c #733938",
"e{	c #6A3739",
"f{	c #600B0C",
"g{	c #620709",
"h{	c #630709",
"i{	c #64080A",
"j{	c #640805",
"k{	c #650D0D",
"l{	c #8A4D4C",
"m{	c #884F4D",
"n{	c #894F4E",
"o{	c #B16C6E",
"p{	c #B56D6C",
"q{	c #B76E6D",
"r{	c #B76F6E",
"s{	c #B96D6F",
"t{	c #D88183",
"u{	c #DA8280",
"v{	c #834A4A",
"w{	c #834B4C",
"x{	c #814B4C",
"y{	c #844B4C",
"z{	c #915554",
"A{	c #905657",
"B{	c #965745",
"C{	c #965744",
"D{	c #945744",
"E{	c #945743",
"F{	c #1A0B0B",
"G{	c #120B08",
"H{	c #12090A",
"I{	c #170A0A",
"J{	c #4E0907",
"K{	c #8E5250",
"L{	c #713B39",
"M{	c #703B37",
"N{	c #713A38",
"O{	c #6B3639",
"P{	c #6C3738",
"Q{	c #703534",
"R{	c #620809",
"S{	c #66060A",
"T{	c #67050A",
"U{	c #67070B",
"V{	c #620F0D",
"W{	c #884F4C",
"X{	c #875050",
"Y{	c #885050",
"Z{	c #8A5051",
"`{	c #874E4F",
" ]	c #341C18",
".]	c #331919",
"+]	c #34161B",
"@]	c #33151A",
"#]	c #32171A",
"$]	c #33181B",
"%]	c #B46D6E",
"&]	c #BC6D6D",
"*]	c #BB6D6D",
"=]	c #B96D6C",
"-]	c #BB6D6E",
";]	c #BA6E6E",
">]	c #BD6E6C",
",]	c #BE6F6E",
"']	c #DA8486",
")]	c #DC8583",
"!]	c #D78285",
"~]	c #854A48",
"{]	c #804A48",
"]]	c #925655",
"^]	c #975646",
"/]	c #995645",
"(]	c #975746",
"_]	c #975846",
":]	c #975748",
"<]	c #925748",
"[]	c #5A3434",
"}]	c #583336",
"|]	c #190B0B",
"1]	c #130A09",
"2]	c #14090B",
"3]	c #2B1115",
"4]	c #2A1214",
"5]	c #2B1214",
"6]	c #57060A",
"7]	c #56060A",
"8]	c #550606",
"9]	c #550605",
"0]	c #580A0B",
"a]	c #8C4F4E",
"b]	c #8C5152",
"c]	c #8B5051",
"d]	c #743C3B",
"e]	c #713B3D",
"f]	c #713B3A",
"g]	c #723B3A",
"h]	c #703B3B",
"i]	c #613032",
"j]	c #603131",
"k]	c #613031",
"l]	c #5E322E",
"m]	c #3E0709",
"n]	c #3E070A",
"o]	c #3D0709",
"p]	c #3A090A",
"q]	c #552D31",
"r]	c #542F31",
"s]	c #553032",
"t]	c #553131",
"u]	c #55302F",
"v]	c #542F2E",
"w]	c #492424",
"x]	c #482325",
"y]	c #482225",
"z]	c #492225",
"A]	c #4A2225",
"B]	c #4C2525",
"C]	c #824C4A",
"D]	c #844C4A",
"E]	c #844B4D",
"F]	c #844C4D",
"G]	c #854A4B",
"H]	c #924748",
"I]	c #954645",
"J]	c #944745",
"K]	c #934645",
"L]	c #944749",
"M]	c #A45D5D",
"N]	c #A35F60",
"O]	c #A36063",
"P]	c #A35F63",
"Q]	c #A15F61",
"R]	c #8D5152",
"S]	c #8C5250",
"T]	c #77403C",
"U]	c #76403B",
"V]	c #764039",
"W]	c #763F39",
"X]	c #794947",
"Y]	c #7A484A",
"Z]	c #7E464D",
"`]	c #7C464C",
" ^	c #7C464B",
".^	c #7B4649",
"+^	c #7A4446",
"@^	c #47090E",
"#^	c #49050A",
"$^	c #4A050A",
"%^	c #49060A",
"&^	c #47060A",
"*^	c #440709",
"=^	c #370B0C",
"-^	c #340B0F",
";^	c #350B0E",
">^	c #5C0A0B",
",^	c #773C3E",
"'^	c #733B3D",
")^	c #733D3D",
"!^	c #5A2F2E",
"~^	c #5C2E2E",
"{^	c #5C2E2D",
"]^	c #592C2D",
"^^	c #220B0A",
"/^	c #341A17",
"(^	c #361A15",
"_^	c #653737",
":^	c #673434",
"<^	c #650B11",
"[^	c #660907",
"}^	c #681011",
"|^	c #AE6464",
"1^	c #AF6567",
"2^	c #B06668",
"3^	c #AF6568",
"4^	c #AE6666",
"5^	c #8A4E51",
"6^	c #673436",
"7^	c #653435",
"8^	c #663235",
"9^	c #693435",
"0^	c #85514C",
"a^	c #87504B",
"b^	c #894F4C",
"c^	c #894F4B",
"d^	c #894C4C",
"e^	c #5A0910",
"f^	c #59050B",
"g^	c #580508",
"h^	c #57070A",
"i^	c #3B0709",
"j^	c #380709",
"k^	c #380708",
"l^	c #380707",
"m^	c #5B0A0B",
"n^	c #743C3D",
"o^	c #592C2E",
"p^	c #1F0908",
"q^	c #1B090A",
"r^	c #321A18",
"s^	c #643938",
"t^	c #683436",
"u^	c #650910",
"v^	c #68080A",
"w^	c #670807",
"x^	c #6A0E11",
"y^	c #AF6464",
"z^	c #B06667",
"A^	c #AF6466",
"B^	c #8C4E50",
"C^	c #8B4F51",
"D^	c #653134",
"E^	c #884B4B",
"F^	c #570806",
"G^	c #570706",
"H^	c #580706",
"I^	c #5A0805",
"J^	c #874C4D",
"K^	c #723D3D",
"L^	c #623737",
"M^	c #592C2F",
"N^	c #1F0907",
"O^	c #321A19",
"P^	c #361919",
"Q^	c #67080F",
"R^	c #6B1011",
"S^	c #AF6363",
"T^	c #B06466",
"U^	c #8E4E50",
"V^	c #683437",
"W^	c #835052",
"X^	c #59060B",
"Y^	c #580804",
"Z^	c #3E0609",
"`^	c #532828",
" /	c #633737",
"./	c #660B0F",
"+/	c #AF6566",
"@/	c #673336",
"#/	c #8A4C4C",
"$/	c #542829",
"%/	c #650B10",
"&/	c #6B1012",
"*/	c #894F50",
"=/	c #643635",
"-/	c #613635",
";/	c #5B302F",
">/	c #1D0B08",
",/	c #301917",
"'/	c #311918",
")/	c #331918",
"!/	c #341A19",
"~/	c #633738",
"{/	c #673635",
"]/	c #AF6867",
"^/	c #AE6766",
"//	c #8C4F50",
"(/	c #8B5053",
"_/	c #633332",
":/	c #653133",
"</	c #835150",
"[/	c #855151",
"}/	c #884F50",
"|/	c #88504E",
"1/	c #590B10",
"2/	c #58070B",
"3/	c #5A0503",
"4/	c #5B0404",
"5/	c #5C0605",
"6/	c #5C080A",
"7/	c #773D3F",
"8/	c #773C3C",
"9/	c #763C3D",
"0/	c #733C3E",
"a/	c #5C2E2F",
"b/	c #5B2D2E",
"c/	c #5B2D2D",
"d/	c #5C2D2E",
"e/	c #572C2E",
"f/	c #210A08",
"g/	c #1A0805",
"h/	c #190808",
"i/	c #190905",
"j/	c #1A0905",
"k/	c #1B0A07",
"l/	c #321A17",
"m/	c #311A16",
"n/	c #331916",
"o/	c #331917",
"p/	c #542929",
"q/	c #663735",
"r/	c #670A11",
"s/	c #6A070B",
"t/	c #680608",
"u/	c #690A09",
"v/	c #B06565",
"w/	c #B26869",
"x/	c #B36869",
"y/	c #B46869",
"z/	c #B26A6A",
"A/	c #B2686A",
"B/	c #B1696A",
"C/	c #AE6969",
"D/	c #895052",
"E/	c #884E4F",
"F/	c #693536",
"G/	c #673435",
"H/	c #653634",
"I/	c #653632",
"J/	c #845150",
"K/	c #895152",
"L/	c #885152",
"M/	c #885151",
"N/	c #87534F",
"O/	c #570608",
"P/	c #3B0608",
"Q/	c #370608",
"R/	c #370607",
"S/	c #6B2C2E",
"T/	c #6B2C2D",
"U/	c #6C2D2D",
"V/	c #6C2F2E",
"W/	c #874F4B",
"X/	c #854D4F",
"Y/	c #573131",
"Z/	c #583131",
"`/	c #573130",
" (	c #56302F",
".(	c #583231",
"+(	c #86494C",
"@(	c #8B4849",
"#(	c #8B4649",
"$(	c #8B484B",
"%(	c #8C4A4B",
"&(	c #98595C",
"*(	c #965C5D",
"=(	c #975B5E",
"-(	c #975B5D",
";(	c #945B5C",
">(	c #935B5C",
",(	c #4B2524",
"'(	c #432225",
")(	c #452224",
"!(	c #492322",
"~(	c #4A2422",
"{(	c #5F3937",
"](	c #633636",
"^(	c #470A09",
"/(	c #470906",
"((	c #460906",
"_(	c #470806",
":(	c #460908",
"<(	c #4A090A",
"[(	c #754041",
"}(	c #754242",
"|(	c #724342",
"1(	c #734243",
"2(	c #724243",
"3(	c #704443",
"4(	c #8C5354",
"5(	c #8E5456",
"6(	c #8E5150",
"7(	c #631F21",
"8(	c #621B1F",
"9(	c #5D1E20",
"0(	c #593231",
"a(	c #5C3332",
"b(	c #5E3234",
"c(	c #4B080A",
"d(	c #4B0708",
"e(	c #4A0606",
"f(	c #4A0607",
"g(	c #4A0609",
"h(	c #4A0707",
"i(	c #700E13",
"j(	c #760B0E",
"k(	c #760B0D",
"l(	c #770C0E",
"m(	c #770E10",
"n(	c #743C41",
"o(	c #743C40",
"p(	c #743C3F",
"q(	c #773C3F",
"r(	c #311312",
"s(	c #2E1313",
"t(	c #512E2D",
"u(	c #532E2D",
"v(	c #532D2C",
"w(	c #542E2D",
"x(	c #592E2F",
"y(	c #9F5457",
"z(	c #A15455",
"A(	c #A25556",
"B(	c #A15555",
"C(	c #A45557",
"D(	c #C17272",
"E(	c #C17271",
"F(	c #582A29",
"G(	c #4F2829",
"H(	c #441F1E",
"I(	c #431F1E",
"J(	c #431F20",
"K(	c #44211F",
"L(	c #5E3837",
"M(	c #2F0A08",
"N(	c #2D0707",
"O(	c #2C0707",
"P(	c #2C0706",
"Q(	c #2D0705",
"R(	c #2D070A",
"S(	c #33171A",
"T(	c #30171A",
"U(	c #2F1818",
"V(	c #30191A",
"W(	c #8D555A",
"X(	c #915659",
"Y(	c #915658",
"Z(	c #915657",
"`(	c #915758",
" _	c #935454",
"._	c #5B0C0D",
"+_	c #56070A",
"@_	c #351915",
"#_	c #33181A",
"$_	c #341817",
"%_	c #3E080A",
"&_	c #400708",
"*_	c #3F0708",
"=_	c #460407",
"-_	c #8E1116",
";_	c #930F12",
">_	c #921012",
",_	c #723C3F",
"'_	c #884D4F",
")_	c #311514",
"!_	c #2E1314",
"~_	c #522E2E",
"{_	c #592F2F",
"]_	c #9E5457",
"^_	c #A25456",
"/_	c #BB7370",
"(_	c #572B29",
"__	c #441F1F",
":_	c #431F22",
"<_	c #452120",
"[_	c #5C3636",
"}_	c #300A09",
"|_	c #2D0609",
"1_	c #34181B",
"2_	c #321A1A",
"3_	c #381D1C",
"4_	c #8F545A",
"5_	c #905658",
"6_	c #925658",
"7_	c #925554",
"8_	c #5A0C0B",
"9_	c #361715",
"0_	c #33181C",
"a_	c #351717",
"b_	c #3F080A",
"c_	c #420609",
"d_	c #460607",
"e_	c #8E1115",
"f_	c #920E11",
"g_	c #910E11",
"h_	c #532E2E",
"i_	c #592F30",
"j_	c #9F535A",
"k_	c #BB7371",
"l_	c #572B2B",
"m_	c #2C070A",
"n_	c #2C070B",
"o_	c #2B090B",
"p_	c #8F5459",
"q_	c #5A0B0C",
"r_	c #2C1414",
"s_	c #532D2E",
"t_	c #9F545B",
"u_	c #A15456",
"v_	c #572B2C",
"w_	c #603737",
"x_	c #2B090C",
"y_	c #371D1D",
"z_	c #351718",
"A_	c #864E4E",
"B_	c #2A1315",
"C_	c #2E1316",
"D_	c #522E2D",
"E_	c #A25557",
"F_	c #BB7372",
"G_	c #361E1C",
"H_	c #925558",
"I_	c #915453",
"J_	c #8F1114",
"K_	c #900E11",
"L_	c #753D3E",
"M_	c #854E4E",
"N_	c #321414",
"O_	c #2A1415",
"P_	c #2F1214",
"Q_	c #9E535A",
"R_	c #A35557",
"S_	c #441F20",
"T_	c #432022",
"U_	c #432021",
"V_	c #2F0A0A",
"W_	c #2C0909",
"X_	c #2C090A",
"Y_	c #2C090C",
"Z_	c #311A1A",
"`_	c #8E545A",
" :	c #925557",
".:	c #925353",
"+:	c #56090A",
"@:	c #361914",
"#:	c #420508",
"$:	c #40070A",
"%:	c #874F51",
"&:	c #894F53",
"*:	c #854E50",
"=:	c #301513",
"-:	c #291214",
";:	c #281212",
">:	c #2E1312",
",:	c #512E2C",
"':	c #552D2D",
"):	c #572D2D",
"!:	c #552E2D",
"~:	c #582F2F",
"{:	c #9B5758",
"]:	c #A25757",
"^:	c #A15657",
"/:	c #C47474",
"(:	c #C27470",
"_:	c #BB7470",
"::	c #562A29",
"<:	c #4E2625",
"[:	c #4C2625",
"}:	c #431E1E",
"|:	c #441E1F",
"1:	c #451F1E",
"2:	c #452121",
"3:	c #603534",
"4:	c #300807",
"5:	c #2C0505",
"6:	c #2C0606",
"7:	c #2C060A",
"8:	c #331718",
"9:	c #311919",
"0:	c #311A18",
"a:	c #391C1B",
"b:	c #8E565A",
"c:	c #925659",
"d:	c #925759",
"e:	c #915759",
"f:	c #915755",
"g:	c #590E0D",
"h:	c #560704",
"i:	c #590509",
"j:	c #5A0609",
"k:	c #56090C",
"l:	c #331B1D",
"m:	c #3E0706",
"n:	c #410506",
"o:	c #3F0707",
"p:	c #410707",
"q:	c #410507",
"r:	c #8B1012",
"s:	c #8D100F",
"t:	c #8D0E0F",
"u:	c #703B3C",
"v:	c #5A3435",
"w:	c #583437",
"x:	c #583436",
"y:	c #593435",
"z:	c #5A3536",
"A:	c #553433",
"B:	c #4C2A2B",
"C:	c #4C282E",
"D:	c #4C292C",
"E:	c #4D292E",
"F:	c #4C282D",
"G:	c #4D282A",
"H:	c #712022",
"I:	c #761E21",
"J:	c #751F21",
"K:	c #771F21",
"L:	c #771E21",
"M:	c #751F22",
"N:	c #741F23",
"O:	c #732022",
"P:	c #8F3538",
"Q:	c #913538",
"R:	c #913539",
"S:	c #923637",
"T:	c #913637",
"U:	c #933839",
"V:	c #B86F67",
"W:	c #B97168",
"X:	c #BA6F68",
"Y:	c #BA7266",
"Z:	c #B97266",
"`:	c #B97165",
" <	c #B57163",
".<	c #824F3E",
"+<	c #7F4D41",
"@<	c #804D41",
"#<	c #804C42",
"$<	c #824744",
"%<	c #834648",
"&<	c #85444A",
"*<	c #854449",
"=<	c #864548",
"-<	c #854648",
";<	c #85474A",
"><	c #97585B",
",<	c #95595A",
"'<	c #955958",
")<	c #925858",
"!<	c #5E2C2C",
"~<	c #59292A",
"{<	c #592B2D",
"]<	c #5A2A2D",
"^<	c #5A2A2E",
"/<	c #582B2B",
"(<	c #482122",
"_<	c #482424",
":<	c #482322",
"<<	c #482324",
"[<	c #472323",
"}<	c #6C3E40",
"|<	c #6D3F40",
"1<	c #6C3F40",
"2<	c #6D4041",
"3<	c #6C4040",
"4<	c #6C403E",
"5<	c #451211",
"6<	c #440F0F",
"7<	c #450E10",
"8<	c #460F11",
"9<	c #430F11",
"0<	c #25110E",
"a<	c #201111",
"b<	c #201011",
"c<	c #211012",
"d<	c #201112",
"e<	c #2A1517",
"f<	c #A26063",
"g<	c #A85F61",
"h<	c #A95F64",
"i<	c #A96062",
"j<	c #A86161",
"k<	c #A76162",
"l<	c #A56162",
"m<	c #C07764",
"n<	c #C17863",
"o<	c #C37662",
"p<	c #1F0A09",
"q<	c #160809",
"r<	c #180808",
"s<	c #5A3437",
"t<	c #613539",
"u<	c #63353C",
"v<	c #64353B",
"w<	c #65343C",
"x<	c #63353A",
"y<	c #871314",
"z<	c #8C100F",
"A<	c #8C0E0F",
"B<	c #8B0F11",
"C<	c #8B100F",
"D<	c #8A1111",
"E<	c #820C11",
"F<	c #810A10",
"G<	c #810C10",
"H<	c #821616",
"I<	c #B16D5C",
"J<	c #B1705E",
"K<	c #B1715C",
"L<	c #B07159",
"M<	c #B1715B",
"N<	c #AF705A",
"O<	c #9E654D",
"P<	c #9C624E",
"Q<	c #9D614E",
"R<	c #9F604E",
"S<	c #A45957",
"T<	c #A5595C",
"U<	c #A6585E",
"V<	c #A6585C",
"W<	c #A6585B",
"X<	c #A55A5C",
"Y<	c #B56A6C",
"Z<	c #B56A6D",
"`<	c #B46C6B",
" [	c #B46B6B",
".[	c #B16B6A",
"+[	c #763C3B",
"@[	c #6F3A3A",
"#[	c #552628",
"$[	c #512924",
"%[	c #4F2926",
"&[	c #4A2524",
"*[	c #492525",
"=[	c #4A2425",
"-[	c #321615",
";[	c #321415",
">[	c #311515",
",[	c #0C0A08",
"'[	c #0A080A",
")[	c #0A090A",
"![	c #0E0A0B",
"~[	c #231414",
"{[	c #D28285",
"][	c #D78282",
"^[	c #DA8283",
"/[	c #DA8284",
"([	c #DB8386",
"_[	c #DE8285",
":[	c #DE8284",
"<[	c #DB8482",
"[[	c #E09F82",
"}[	c #DFA180",
"|[	c #E29F7F",
"1[	c #E2A080",
"2[	c #200B0D",
"3[	c #160B09",
"4[	c #603637",
"5[	c #613534",
"6[	c #851413",
"7[	c #8A0D11",
"8[	c #890B0E",
"9[	c #890D0E",
"0[	c #890B10",
"a[	c #831613",
"b[	c #AF6E59",
"c[	c #B0715B",
"d[	c #B0715A",
"e[	c #A0624C",
"f[	c #9D624B",
"g[	c #A05F4D",
"h[	c #A75859",
"i[	c #B8696B",
"j[	c #B8696C",
"k[	c #B7696B",
"l[	c #B16A6A",
"m[	c #773B39",
"n[	c #713A37",
"o[	c #482426",
"p[	c #492427",
"q[	c #2F1615",
"r[	c #2F1616",
"s[	c #301518",
"t[	c #2B1517",
"u[	c #0E0A0A",
"v[	c #0A0A0B",
"w[	c #0A0A0A",
"x[	c #0B0A0B",
"y[	c #211414",
"z[	c #D08183",
"A[	c #D88080",
"B[	c #D98183",
"C[	c #D98282",
"D[	c #DA8281",
"E[	c #DE9F7F",
"F[	c #DDA37F",
"G[	c #6E383D",
"H[	c #1F0A0C",
"I[	c #5A3537",
"J[	c #841413",
"K[	c #840D10",
"L[	c #83090E",
"M[	c #A1624C",
"N[	c #A05F4E",
"O[	c #B96A6C",
"P[	c #783B39",
"Q[	c #482328",
"R[	c #472528",
"S[	c #D98080",
"T[	c #D98184",
"U[	c #D98382",
"V[	c #E09F7F",
"W[	c #DEA27F",
"X[	c #5A3538",
"Y[	c #613531",
"Z[	c #841414",
"`[	c #84090E",
" }	c #472328",
".}	c #492528",
"+}	c #0B0A0A",
"@}	c #D9807F",
"#}	c #DA8382",
"$}	c #6D393D",
"%}	c #150C0A",
"&}	c #1B0C0C",
"*}	c #5B3638",
"=}	c #840B0F",
"-}	c #821513",
";}	c #A1604F",
">}	c #A75659",
",}	c #703839",
"'}	c #532928",
")}	c #2B1617",
"!}	c #CF8082",
"~}	c #DA8381",
"{}	c #E09E7F",
"]}	c #6C3A3D",
"^}	c #613533",
"/}	c #851414",
"(}	c #850B0F",
"_}	c #B16A69",
":}	c #482528",
"<}	c #2B1615",
"[}	c #D98380",
"}}	c #E09E80",
"|}	c #DFA380",
"1}	c #703938",
"2}	c #6C3A3C",
"3}	c #1C0B0C",
"4}	c #15080C",
"5}	c #16090D",
"6}	c #170A0B",
"7}	c #1B0A0C",
"8}	c #5A3439",
"9}	c #5C3534",
"0}	c #5E3534",
"a}	c #603334",
"b}	c #850B0C",
"c}	c #850B0D",
"d}	c #860C0D",
"e}	c #831412",
"f}	c #B1705D",
"g}	c #B1745B",
"h}	c #B0735C",
"i}	c #B1735C",
"j}	c #B2745C",
"k}	c #B1745C",
"l}	c #9F624B",
"m}	c #A0604D",
"n}	c #A75A5A",
"o}	c #A85A5C",
"p}	c #A75A5C",
"q}	c #A85A5B",
"r}	c #A95B5D",
"s}	c #B7686C",
"t}	c #B4696C",
"u}	c #B4686D",
"v}	c #B7686E",
"w}	c #783B3A",
"x}	c #542828",
"y}	c #532628",
"z}	c #492524",
"A}	c #492426",
"B}	c #472427",
"C}	c #311314",
"D}	c #311315",
"E}	c #2D1414",
"F}	c #0A0808",
"G}	c #0A0909",
"H}	c #090909",
"I}	c #080909",
"J}	c #09080A",
"K}	c #211411",
"L}	c #D18384",
"M}	c #DC8383",
"N}	c #DB8384",
"O}	c #DA8483",
"P}	c #DA8481",
"Q}	c #D9857F",
"R}	c #DE9F81",
"S}	c #DFA17F",
"T}	c #E0A281",
"U}	c #793C3F",
"V}	c #391E20",
"W}	c #361E1E",
"X}	c #361E1D",
"Y}	c #351D1D",
"Z}	c #371C1B",
"`}	c #3E1E1F",
" |	c #92585C",
".|	c #965A58",
"+|	c #985A59",
"@|	c #965B58",
"#|	c #975759",
"$|	c #871614",
"%|	c #860E10",
"&|	c #730C07",
"*|	c #740809",
"=|	c #74090A",
"-|	c #75090C",
";|	c #75090A",
">|	c #730C0A",
",|	c #6E1212",
"'|	c #835143",
")|	c #825343",
"!|	c #815246",
"~|	c #825245",
"{|	c #835245",
"]|	c #825345",
"^|	c #805445",
"/|	c #9F5C52",
"(|	c #A55C53",
"_|	c #A55E53",
":|	c #A55C54",
"<|	c #A45E52",
"[|	c #A35D50",
"}|	c #7F3F38",
"||	c #7E3E3C",
"1|	c #803C3C",
"2|	c #813C3C",
"3|	c #7E3C3E",
"4|	c #7E3E3E",
"5|	c #7F4140",
"6|	c #CB8C7C",
"7|	c #CF8D7C",
"8|	c #CD8D7C",
"9|	c #CE8C7C",
"0|	c #CD8D79",
"a|	c #CE8B7C",
"b|	c #804443",
"c|	c #793F3D",
"d|	c #7C3F3F",
"e|	c #7D3F3F",
"f|	c #7C403F",
"g|	c #7B423E",
"h|	c #906051",
"i|	c #8F5F50",
"j|	c #916051",
"k|	c #915F52",
"l|	c #916052",
"m|	c #8F5F4F",
"n|	c #56302E",
"o|	c #532E30",
"p|	c #532E31",
"q|	c #532D31",
"r|	c #441F22",
"s|	c #431E22",
"t|	c #431F21",
"u|	c #431E20",
"v|	c #472222",
"w|	c #8D5559",
"x|	c #905659",
"y|	c #8F5759",
"z|	c #905759",
"A|	c #A25C5C",
"B|	c #A75959",
"C|	c #A75B5A",
"D|	c #A75B59",
"E|	c #A65F5B",
"F|	c #AA6D5C",
"G|	c #AC6D5B",
"H|	c #AE6F5B",
"I|	c #AE6F5A",
"J|	c #823F43",
"K|	c #804043",
"L|	c #804041",
"M|	c #7D4144",
"N|	c #4F292B",
"O|	c #4D2828",
"P|	c #57292A",
"Q|	c #BF7078",
"R|	c #C17072",
"S|	c #881615",
"T|	c #840F0D",
"U|	c #630505",
"V|	c #5F0807",
"W|	c #5F0808",
"X|	c #5C080D",
"Y|	c #381919",
"Z|	c #37181A",
"`|	c #351B1B",
" 1	c #351A1A",
".1	c #351A18",
"+1	c #361B1B",
"@1	c #A2565D",
"#1	c #A9575A",
"$1	c #A5585A",
"%1	c #A5575A",
"&1	c #4A090B",
"*1	c #450608",
"=1	c #450507",
"-1	c #450607",
";1	c #440607",
">1	c #450606",
",1	c #4E1712",
"'1	c #DFA986",
")1	c #E2AA85",
"!1	c #E2AC86",
"~1	c #E4AC85",
"{1	c #E5AB86",
"]1	c #E4A688",
"^1	c #834646",
"/1	c #864545",
"(1	c #874345",
"_1	c #864546",
":1	c #864843",
"<1	c #BD8369",
"[1	c #C08169",
"}1	c #C28168",
"|1	c #C18168",
"11	c #BC8064",
"21	c #633937",
"31	c #5D3739",
"41	c #5D363A",
"51	c #603738",
"61	c #51292A",
"71	c #52282A",
"81	c #5A2929",
"91	c #CF7A7E",
"01	c #D57D7E",
"a1	c #D57D7D",
"b1	c #D77D7A",
"c1	c #D67D7B",
"d1	c #D57D7B",
"e1	c #D67E7A",
"f1	c #D47D7B",
"g1	c #580703",
"h1	c #5A0603",
"i1	c #5B0606",
"j1	c #823F41",
"k1	c #7D4143",
"l1	c #4F282A",
"m1	c #572A2C",
"n1	c #BF7072",
"o1	c #871615",
"p1	c #84110F",
"q1	c #640506",
"r1	c #5D080D",
"s1	c #381C1B",
"t1	c #391A1B",
"u1	c #361C1B",
"v1	c #361C1C",
"w1	c #361C19",
"x1	c #3E1D1E",
"y1	c #A3575B",
"z1	c #490B0C",
"A1	c #470808",
"B1	c #501612",
"C1	c #E1A885",
"D1	c #E3AA86",
"E1	c #E5AA87",
"F1	c #E8A887",
"G1	c #E6AA86",
"H1	c #E3A787",
"I1	c #824544",
"J1	c #824545",
"K1	c #844743",
"L1	c #BC8268",
"M1	c #BF8169",
"N1	c #C18068",
"O1	c #C08067",
"P1	c #C08168",
"Q1	c #BD8164",
"R1	c #5D3639",
"S1	c #5C3539",
"T1	c #CC7A80",
"U1	c #D47C7F",
"V1	c #D57D7F",
"W1	c #D57E7C",
"X1	c #D17A78",
"Y1	c #61100E",
"Z1	c #5B0406",
"`1	c #7F4141",
" 2	c #7D4145",
".2	c #502928",
"+2	c #59282C",
"@2	c #C07079",
"#2	c #BF7071",
"$2	c #871818",
"%2	c #851013",
"&2	c #5F0507",
"*2	c #39181D",
"=2	c #371D1A",
"-2	c #3E1D20",
";2	c #4B0B0C",
">2	c #47080A",
",2	c #4F1712",
"'2	c #E1A786",
")2	c #E3A887",
"!2	c #884B4A",
"~2	c #834545",
"{2	c #BD8168",
"]2	c #C08166",
"^2	c #D37D80",
"/2	c #D47F7D",
"(2	c #D47F7C",
"_2	c #D07C79",
":2	c #61120F",
"<2	c #C07078",
"[2	c #640508",
"}2	c #5D070A",
"|2	c #3A181D",
"12	c #A3575D",
"22	c #BE8265",
"32	c #58272B",
"42	c #C07179",
"52	c #881916",
"62	c #851010",
"72	c #640509",
"82	c #5D080A",
"92	c #3C181C",
"02	c #490B0B",
"a2	c #804142",
"b2	c #56282A",
"c2	c #871816",
"d2	c #87100E",
"e2	c #5C0709",
"f2	c #3B191C",
"g2	c #4A0A0B",
"h2	c #E1A785",
"i2	c #E4A985",
"j2	c #E3A886",
"k2	c #874949",
"l2	c #BB8366",
"m2	c #BF8166",
"n2	c #C08065",
"o2	c #D47E7E",
"p2	c #D47E7C",
"q2	c #D47E7B",
"r2	c #D37D7C",
"s2	c #D17B7B",
"t2	c #60120E",
"u2	c #804242",
"v2	c #7B4241",
"w2	c #502827",
"x2	c #56292A",
"y2	c #C17172",
"z2	c #890F0E",
"A2	c #3A191C",
"B2	c #371C1F",
"C2	c #401D22",
"D2	c #450609",
"E2	c #501611",
"F2	c #E1A886",
"G2	c #E3AA85",
"H2	c #E5AA86",
"I2	c #844843",
"J2	c #BB8369",
"K2	c #C18069",
"L2	c #C18169",
"M2	c #C1816A",
"N2	c #BD8064",
"O2	c #5E373A",
"P2	c #5B2A2B",
"Q2	c #D37D7F",
"R2	c #D57F81",
"S2	c #D37C7F",
"T2	c #D37C7E",
"U2	c #D37B7E",
"V2	c #D17A7D",
"W2	c #5F1110",
"X2	c #5B0409",
"Y2	c #6B3836",
"Z2	c #6C3A39",
"`2	c #683A36",
" 3	c #62201E",
".3	c #651B1D",
"+3	c #651B1F",
"@3	c #641F1E",
"#3	c #B46D67",
"$3	c #B76F66",
"%3	c #B86F66",
"&3	c #B86F65",
"*3	c #B66F65",
"=3	c #863732",
"-3	c #873534",
";3	c #873334",
">3	c #883233",
",3	c #873434",
"'3	c #873433",
")3	c #883234",
"!3	c #863333",
"~3	c #6B2724",
"{3	c #682725",
"]3	c #682623",
"^3	c #692625",
"/3	c #642724",
"(3	c #311317",
"_3	c #2A1413",
":3	c #2C1416",
"<3	c #2D1517",
"[3	c #2D1417",
"}3	c #2D1515",
"|3	c #36161D",
"13	c #A2585D",
"23	c #612424",
"33	c #5D2422",
"43	c #5E2224",
"53	c #5E2324",
"63	c #622828",
"73	c #BF8771",
"83	c #C08972",
"93	c #C28A72",
"03	c #C48A72",
"a3	c #C28872",
"b3	c #814443",
"c3	c #7D4140",
"d3	c #7D413F",
"e3	c #7C4140",
"f3	c #7E433F",
"g3	c #A36A5C",
"h3	c #A56A5D",
"i3	c #A76A5C",
"j3	c #A56A5B",
"k3	c #A7695B",
"l3	c #A6695B",
"m3	c #A26855",
"n3	c #4D2B28",
"o3	c #482A2B",
"p3	c #47292A",
"q3	c #482929",
"r3	c #482928",
"s3	c #4A2829",
"t3	c #4B2829",
"u3	c #582E2F",
"v3	c #5D2F2F",
"w3	c #A26266",
"x3	c #A56363",
"y3	c #A46362",
"z3	c #A56262",
"A3	c #A75E60",
"B3	c #660F0C",
"C3	c #650907",
"D3	c #650806",
"E3	c #650909",
"F3	c #682729",
"G3	c #68282A",
"H3	c #69282A",
"I3	c #4D2722",
"J3	c #4D2822",
"K3	c #4D2724",
"L3	c #790B12",
"M3	c #7E0A0C",
"N3	c #7E0A0D",
"O3	c #7E080F",
"P3	c #78150F",
"Q3	c #A96651",
"R3	c #A86A53",
"S3	c #A96A54",
"T3	c #A86A54",
"U3	c #A56A53",
"V3	c #8C504F",
"W3	c #8A4F53",
"X3	c #884F53",
"Y3	c #874F53",
"Z3	c #783D41",
"`3	c #763C3E",
" 4	c #703C39",
".4	c #170907",
"+4	c #150A08",
"@4	c #220E11",
"#4	c #9F575B",
"$4	c #793C3A",
"%4	c #743D39",
"&4	c #773D3C",
"*4	c #773C3B",
"=4	c #783D3F",
"-4	c #874C4F",
";4	c #864D4F",
">4	c #864D50",
",4	c #864D51",
"'4	c #874C51",
")4	c #864C4F",
"!4	c #733C38",
"~4	c #733D3A",
"{4	c #713D3A",
"]4	c #713D3B",
"^4	c #713D3D",
"/4	c #713C3A",
"(4	c #764042",
"_4	c #774043",
":4	c #783F41",
"<4	c #783F40",
"[4	c #793F40",
"}4	c #793E42",
"|4	c #763F3C",
"14	c #210A0A",
"24	c #1C0A07",
"34	c #1B0906",
"44	c #1A0906",
"54	c #1E0C09",
"64	c #5D3637",
"74	c #633637",
"84	c #4C2628",
"94	c #4C2527",
"04	c #4D2527",
"a4	c #4D2626",
"b4	c #512420",
"c4	c #700D0C",
"d4	c #730A0C",
"e4	c #72080B",
"f4	c #730D10",
"g4	c #793E3A",
"h4	c #783F3E",
"i4	c #7A413F",
"j4	c #532425",
"k4	c #760E11",
"l4	c #7D0A0D",
"m4	c #7E080D",
"n4	c #A86653",
"o4	c #A86955",
"p4	c #AA6A55",
"q4	c #A86A52",
"r4	c #8A4F4C",
"s4	c #894E4C",
"t4	c #783D3C",
"u4	c #733D3B",
"v4	c #713C39",
"w4	c #190A08",
"x4	c #190809",
"y4	c #1A0709",
"z4	c #9F565B",
"A4	c #A2595A",
"B4	c #783C38",
"C4	c #743D3C",
"D4	c #864F4D",
"E4	c #85524E",
"F4	c #85514F",
"G4	c #743E3C",
"H4	c #764041",
"I4	c #774142",
"J4	c #774143",
"K4	c #1E0908",
"L4	c #210C08",
"M4	c #5F3533",
"N4	c #623638",
"O4	c #4F2826",
"P4	c #700D0F",
"Q4	c #720A0B",
"R4	c #700B0B",
"S4	c #700E0F",
"T4	c #773D39",
"U4	c #753F3D",
"V4	c #763F3D",
"W4	c #76403E",
"X4	c #542426",
"Y4	c #770E11",
"Z4	c #7B1311",
"`4	c #A86855",
" 5	c #A86952",
".5	c #763B3B",
"+5	c #1C0C0D",
"@5	c #1A080A",
"#5	c #240D12",
"$5	c #793D39",
"%5	c #774041",
"&5	c #784142",
"*5	c #1E090A",
"=5	c #603634",
"-5	c #700D11",
";5	c #542428",
">5	c #790B0E",
",5	c #7C0B0E",
"'5	c #A76855",
")5	c #A96A53",
"!5	c #A96B53",
"~5	c #A86954",
"{5	c #8A4E4B",
"]5	c #763B3D",
"^5	c #703A3E",
"/5	c #1E0A0D",
"(5	c #190A0B",
"_5	c #250D13",
":5	c #A35A5A",
"<5	c #864E4F",
"[5	c #794041",
"}5	c #77413F",
"|5	c #78413F",
"15	c #7B4042",
"25	c #763F42",
"35	c #220B09",
"45	c #200B09",
"55	c #5F3634",
"65	c #623738",
"75	c #4D2926",
"85	c #764040",
"95	c #250D12",
"05	c #A25B5A",
"a5	c #774141",
"b5	c #7A4042",
"c5	c #790D0F",
"d5	c #6F3A3E",
"e5	c #180806",
"f5	c #A15959",
"g5	c #773C39",
"h5	c #783E42",
"i5	c #1F0A08",
"j5	c #4F2828",
"k5	c #542427",
"l5	c #790F11",
"m5	c #7D0C0D",
"n5	c #7C0B0C",
"o5	c #7A0B0C",
"p5	c #7D0C0A",
"q5	c #7C1310",
"r5	c #A96755",
"s5	c #A66B53",
"t5	c #A86B54",
"u5	c #A86B53",
"v5	c #8A4E4A",
"w5	c #753B3D",
"x5	c #70393D",
"y5	c #1A0908",
"z5	c #A7585A",
"A5	c #A25859",
"B5	c #8C4E51",
"C5	c #7A3F41",
"D5	c #7B3F43",
"E5	c #7A4043",
"F5	c #783F42",
"G5	c #210B09",
"H5	c #1E090C",
"I5	c #200A09",
"J5	c #643737",
"K5	c #4E2927",
"L5	c #75070D",
"M5	c #72080C",
"N5	c #710E10",
"O5	c #75423D",
"P5	c #76413D",
"Q5	c #77403E",
"R5	c #763F3E",
"S5	c #532D2B",
"T5	c #562B2E",
"U5	c #680A0C",
"V5	c #680A0B",
"W5	c #68080B",
"X5	c #680A09",
"Y5	c #6A100D",
"Z5	c #A6685B",
"`5	c #AA685B",
" 6	c #AA695B",
".6	c #AA685A",
"+6	c #A8675D",
"@6	c #6C3539",
"#6	c #1C0B09",
"$6	c #19080A",
"%6	c #240E0D",
"&6	c #965756",
"*6	c #9D5356",
"=6	c #9E5456",
"-6	c #9D5457",
";6	c #995655",
">6	c #763A38",
",6	c #8F5355",
"'6	c #905356",
")6	c #8F5356",
"!6	c #633435",
"~6	c #633336",
"{6	c #653234",
"]6	c #280A0A",
"^6	c #230808",
"/6	c #260709",
"(6	c #270708",
"_6	c #250809",
":6	c #2D0C0B",
"<6	c #8B5054",
"[6	c #8B5052",
"}6	c #874F52",
"|6	c #512928",
"16	c #5E090C",
"26	c #5F080B",
"36	c #60090B",
"46	c #600B09",
"56	c #600B08",
"66	c #5D0E0E",
"76	c #653637",
"86	c #663537",
"96	c #673438",
"06	c #5F3534",
"a6	c #3A0808",
"b6	c #430D0F",
"c6	c #AB6568",
"d6	c #AD6766",
"e6	c #AC6565",
"f6	c #894E4B",
"g6	c #854E4C",
"h6	c #643031",
"i6	c #602F2F",
"j6	c #602F31",
"k6	c #5D2F31",
"l6	c #210908",
"m6	c #1F0909",
"n6	c #1A0A0A",
"o6	c #1B0A0A",
"p6	c #240C0E",
"q6	c #844D4B",
"r6	c #874F4D",
"s6	c #884E4C",
"t6	c #783C3E",
"u6	c #995D5B",
"v6	c #9D5E5D",
"w6	c #9D5E5C",
"x6	c #9F5D5F",
"y6	c #9C5C5E",
"z6	c #703B3D",
"A6	c #2E110F",
"B6	c #28100F",
"C6	c #281010",
"D6	c #281012",
"E6	c #280F12",
"F6	c #310A0D",
"G6	c #320909",
"H6	c #320908",
"I6	c #330909",
"J6	c #33080A",
"K6	c #3B0F11",
"L6	c #C06F72",
"M6	c #BC6E74",
"N6	c #562929",
"O6	c #502524",
"P6	c #3B0903",
"Q6	c #390803",
"R6	c #3A0A06",
"S6	c #3A0B06",
"T6	c #3A080A",
"U6	c #2E1817",
"V6	c #31181A",
"W6	c #301818",
"X6	c #3B0909",
"Y6	c #430E10",
"Z6	c #AD6566",
"`6	c #854D4E",
" 7	c #64302F",
".7	c #613033",
"+7	c #5D3031",
"@7	c #8B4E4E",
"#7	c #884D4E",
"$7	c #985D5A",
"%7	c #9F5D5C",
"&7	c #A05C5C",
"*7	c #9D5C5E",
"=7	c #2F1410",
"-7	c #291110",
";7	c #291113",
">7	c #30090C",
",7	c #32080B",
"'7	c #32080C",
")7	c #B86D6F",
"!7	c #BE6D70",
"~7	c #BA6C71",
"{7	c #4F2625",
"]7	c #3A0909",
"^7	c #390707",
"/7	c #3B0705",
"(7	c #3B070A",
"_7	c #3C090B",
":7	c #430E0D",
"<7	c #250D0C",
"[7	c #854E4B",
"}7	c #9B5D5A",
"|7	c #2D1510",
"17	c #2D0F12",
"27	c #291111",
"37	c #320808",
"47	c #32090B",
"57	c #3B0F0F",
"67	c #B86D70",
"77	c #BC6D6F",
"87	c #BD6E70",
"97	c #3B0A07",
"07	c #390705",
"a7	c #854E4A",
"b7	c #753E3F",
"c7	c #9B5D5B",
"d7	c #2E1510",
"e7	c #300A0D",
"f7	c #BA6B71",
"g7	c #3E070B",
"h7	c #AB6666",
"i7	c #5D3032",
"j7	c #2A1212",
"k7	c #4F2726",
"l7	c #3C0A07",
"m7	c #AD6666",
"n7	c #AC6666",
"o7	c #602F30",
"p7	c #733B3C",
"q7	c #9A5E5B",
"r7	c #9E5E5C",
"s7	c #9E5D5C",
"t7	c #723D3E",
"u7	c #2F1411",
"v7	c #291013",
"w7	c #29110F",
"x7	c #2A1111",
"y7	c #2F090D",
"z7	c #33080C",
"A7	c #B86C71",
"B7	c #502726",
"C7	c #3C0905",
"D7	c #3D0706",
"E7	c #3E0808",
"F7	c #311817",
"G7	c #3C090C",
"H7	c #420E0B",
"I7	c #AC6265",
"J7	c #AD6565",
"K7	c #AE6466",
"L7	c #AB6565",
"M7	c #844C4E",
"N7	c #633030",
"O7	c #603132",
"P7	c #5E3033",
"Q7	c #240C0F",
"R7	c #743A3C",
"S7	c #9C5C5C",
"T7	c #773B3E",
"U7	c #703A3D",
"V7	c #2A1114",
"W7	c #300A0F",
"X7	c #32070D",
"Y7	c #33080E",
"Z7	c #33070D",
"`7	c #3A1012",
" 8	c #B96D70",
".8	c #552B2A",
"+8	c #502728",
"@8	c #3C0909",
"#8	c #3F0808",
"$8	c #3D0605",
"%8	c #3E0807",
"&8	c #311816",
"*8	c #804C4D",
"=8	c #7F4C4C",
"-8	c #804D4D",
";8	c #814D4E",
">8	c #804D4E",
",8	c #814E4E",
"'8	c #834B4D",
")8	c #6B2F30",
"!8	c #68302E",
"~8	c #69302E",
"{8	c #68302D",
"]8	c #672F2D",
"^8	c #925355",
"/8	c #935657",
"(8	c #945557",
"_8	c #935456",
":8	c #8E5555",
"<8	c #764342",
"[8	c #552929",
"}8	c #522A2A",
"|8	c #53292C",
"18	c #4F292F",
"28	c #22090C",
"38	c #230C0B",
"48	c #7B4947",
"58	c #804849",
"68	c #814847",
"78	c #824849",
"88	c #82494B",
"98	c #7E4849",
"08	c #6E3232",
"a8	c #6E2F2E",
"b8	c #6E2F30",
"c8	c #6F2F31",
"d8	c #6F2F34",
"e8	c #703132",
"f8	c #8A5053",
"g8	c #623134",
"h8	c #603232",
"i8	c #613334",
"j8	c #613335",
"k8	c #623135",
"l8	c #5F3236",
"m8	c #683E3F",
"n8	c #6D3F41",
"o8	c #6E4041",
"p8	c #6E4040",
"q8	c #6D3F3E",
"r8	c #6E3E3F",
"s8	c #6E3E3E",
"t8	c #4D0E0F",
"u8	c #4D080B",
"v8	c #4E080C",
"w8	c #510F14",
"x8	c #AD6667",
"y8	c #AE6767",
"z8	c #AF6767",
"A8	c #613232",
"B8	c #5A2F30",
"C8	c #5A2E30",
"D8	c #5C2D30",
"E8	c #5C2D31",
"F8	c #5D2724",
"G8	c #5D2820",
"H8	c #5F2821",
"I8	c #5E2820",
"J8	c #58281F",
"K8	c #432522",
"L8	c #432325",
"M8	c #432327",
"N8	c #C37675",
"O8	c #C47675",
"P8	c #C67576",
"Q8	c #AC5C5B",
"R8	c #A95C5A",
"S8	c #A95B5A",
"T8	c #A45A5A",
"U8	c #321112",
"V8	c #251013",
"W8	c #25100F",
"X8	c #26100F",
"Y8	c #270F0F",
"Z8	c #260F0F",
"`8	c #281110",
" 9	c #2E1719",
".9	c #2F181B",
"+9	c #291010",
"@9	c #2B0D0F",
"#9	c #2B0E10",
"$9	c #2B0E12",
"%9	c #270F11",
"&9	c #1E0808",
"*9	c #230B0E",
"=9	c #693639",
"-9	c #693837",
";9	c #673839",
">9	c #673A38",
",9	c #6B3637",
"'9	c #590205",
")9	c #590206",
"!9	c #5A0307",
"~9	c #5B0305",
"{9	c #482121",
"]9	c #452221",
"^9	c #462223",
"/9	c #1E0605",
"(9	c #1A0504",
"_9	c #170604",
":9	c #180705",
"<9	c #BF7677",
"[9	c #C47677",
"}9	c #C57775",
"|9	c #C67774",
"19	c #C67676",
"29	c #C67675",
"39	c #C57471",
"49	c #781516",
"59	c #770A0D",
"69	c #780C0B",
"79	c #760C13",
"89	c #8B4B4D",
"99	c #874D4E",
"09	c #773C40",
"a9	c #733C3F",
"b9	c #763C40",
"c9	c #8E5043",
"d9	c #91523F",
"e9	c #905340",
"f9	c #8F523F",
"g9	c #8D5140",
"h9	c #633832",
"i9	c #623837",
"j9	c #633739",
"k9	c #331515",
"l9	c #281211",
"m9	c #281210",
"n9	c #311818",
"o9	c #31181B",
"p9	c #2A1011",
"q9	c #281111",
"r9	c #65383B",
"s9	c #683A3A",
"t9	c #673A3A",
"u9	c #6C373A",
"v9	c #59060C",
"w9	c #5B060C",
"x9	c #492324",
"y9	c #462326",
"z9	c #472326",
"A9	c #200907",
"B9	c #1B0907",
"C9	c #1C0809",
"D9	c #1D0808",
"E9	c #2C0D12",
"F9	c #BC7176",
"G9	c #C07170",
"H9	c #751516",
"I9	c #750D0C",
"J9	c #760C0B",
"K9	c #750D0A",
"L9	c #740F10",
"M9	c #8F4E40",
"N9	c #8A4F3E",
"O9	c #633634",
"P9	c #A35859",
"Q9	c #291210",
"R9	c #2B1111",
"S9	c #230B0B",
"T9	c #442426",
"U9	c #C27275",
"V9	c #894F3E",
"W9	c #341415",
"X9	c #6D373A",
"Y9	c #BC7174",
"Z9	c #C07070",
"`9	c #761315",
" 0	c #643634",
".0	c #A4575A",
"+0	c #341416",
"@0	c #2C0F13",
"#0	c #6D383A",
"$0	c #C0706F",
"%0	c #760C0D",
"&0	c #760E0B",
"*0	c #2C0F14",
"=0	c #230B0C",
"-0	c #5A060B",
";0	c #462325",
">0	c #1E0A07",
",0	c #1C0807",
"'0	c #751010",
")0	c #894C4B",
"!0	c #331316",
"~0	c #291114",
"{0	c #311B1A",
"]0	c #341919",
"^0	c #291212",
"/0	c #271110",
"(0	c #1C0A08",
"_0	c #683A39",
":0	c #663A3A",
"<0	c #580707",
"[0	c #5B0608",
"}0	c #5B060A",
"|0	c #482326",
"10	c #442428",
"20	c #1B0908",
"30	c #290E10",
"40	c #BD7274",
"50	c #C37476",
"60	c #771415",
"70	c #750E0A",
"80	c #751013",
"90	c #894C4A",
"00	c #874E4E",
"a0	c #753D3C",
"b0	c #743D3B",
"c0	c #733C3B",
"d0	c #8B4E40",
"e0	c #8A4F40",
"f0	c #9D5857",
"g0	c #9D5557",
"h0	c #9E5557",
"i0	c #9F5556",
"j0	c #451D1F",
"k0	c #3F1B1F",
"l0	c #3D1C1E",
"m0	c #3D1C1D",
"n0	c #411D1F",
"o0	c #693A3E",
"p0	c #6D383D",
"q0	c #6B3B3C",
"r0	c #6C3A3A",
"s0	c #6B3A3A",
"t0	c #683B3D",
"u0	c #693A3B",
"v0	c #471212",
"w0	c #451010",
"x0	c #44100F",
"y0	c #450F0F",
"z0	c #451111",
"A0	c #441010",
"B0	c #522A2B",
"C0	c #512A2C",
"D0	c #512B2C",
"E0	c #522A2C",
"F0	c #54292C",
"G0	c #54292E",
"H0	c #65383A",
"I0	c #66373A",
"J0	c #4D0B0D",
"K0	c #4B0806",
"L0	c #4B0707",
"M0	c #4C0807",
"N0	c #4F2C28",
"O0	c #502B2D",
"P0	c #4F2A2C",
"Q0	c #4F2B2D",
"R0	c #4F2B2E",
"S0	c #4F2C2B",
"T0	c #4C0C0D",
"U0	c #4C0B0C",
"V0	c #4B0D0D",
"W0	c #4A0E0D",
"X0	c #4E0C0D",
"Y0	c #4F0C0D",
"Z0	c #521116",
"`0	c #BD6F71",
" a	c #BF6F72",
".a	c #BE6F71",
"+a	c #BF7173",
"@a	c #BD6E6F",
"#a	c #701316",
"$a	c #6F0A0D",
"%a	c #71070D",
"&a	c #70090D",
"*a	c #6C0A0A",
"=a	c #6E0D14",
"-a	c #905151",
";a	c #915252",
">a	c #915151",
",a	c #713333",
"'a	c #703330",
")a	c #6F3230",
"!a	c #6F3231",
"~a	c #6F3232",
"{a	c #713433",
"]a	c #884B45",
"^a	c #884B40",
"/a	c #884D41",
"(a	c #884D40",
"_a	c #874C41",
":a	c #563130",
"<a	c #54302F",
"[a	c #543130",
"}a	c #553130",
"|a	c #553132",
"1a	c #C97979",
"2a	c #CA7576",
"3a	c #894D4A",
"4a	c #804A46",
"5a	c #824A47",
"6a	c #814B48",
"7a	c #663536",
"8a	c #653235",
"9a	c #693637",
"0a	c #C9777E",
"aa	c #CE777C",
"ba	c #CE787C",
"ca	c #CD787C",
"da	c #CC797D",
"ea	c #CF787C",
"fa	c #7F1716",
"ga	c #7C0E0D",
"ha	c #7D0E0C",
"ia	c #7C0C0C",
"ja	c #7C0E0C",
"ka	c #7D0E0D",
"la	c #7C1314",
"ma	c #AF5E58",
"na	c #AE615F",
"oa	c #B15F62",
"pa	c #B05F62",
"qa	c #AF5E61",
"ra	c #AA5E5E",
"sa	c #673432",
"ta	c #5C3535",
"ua	c #1D0907",
"va	c #200B07",
"wa	c #663B3A",
"xa	c #683B3B",
"ya	c #683A38",
"za	c #693B39",
"Aa	c #693B3B",
"Ba	c #6E383A",
"Ca	c #94181C",
"Da	c #991517",
"Ea	c #991515",
"Fa	c #991615",
"Ga	c #9C1415",
"Ha	c #9D1516",
"Ia	c #9B191C",
"Ja	c #B16666",
"Ka	c #B16668",
"La	c #B26769",
"Ma	c #B16769",
"Na	c #B26768",
"Oa	c #B06666",
"Pa	c #5D0E10",
"Qa	c #5A0607",
"Ra	c #580503",
"Sa	c #590603",
"Ta	c #5D0A0E",
"Ua	c #9E5C5F",
"Va	c #590E0E",
"Wa	c #5A0308",
"Xa	c #5A030B",
"Ya	c #58080D",
"Za	c #7D3F3D",
"`a	c #7A403D",
" b	c #7B403F",
".b	c #38181A",
"+b	c #CB7677",
"@b	c #804C4C",
"#b	c #814D4D",
"$b	c #653434",
"%b	c #643033",
"&b	c #683535",
"*b	c #C67478",
"=b	c #CB7576",
"-b	c #C97677",
";b	c #CA7777",
">b	c #CB7475",
",b	c #7D1615",
"'b	c #7C0C0A",
")b	c #AB5B55",
"!b	c #AB5D5C",
"~b	c #A95C5E",
"{b	c #A85B5D",
"]b	c #A75C5E",
"^b	c #663337",
"/b	c #5C3635",
"(b	c #6E3739",
"_b	c #95171B",
":b	c #9A1315",
"<b	c #991314",
"[b	c #9B1214",
"}b	c #98181A",
"|b	c #B56667",
"1b	c #5B0706",
"2b	c #5E0B0F",
"3b	c #9D5B5E",
"4b	c #9E5C5E",
"5b	c #9F5A5A",
"6b	c #5A0E0E",
"7b	c #5B040A",
"8b	c #5A0B10",
"9b	c #7D403E",
"0b	c #7B413E",
"ab	c #39191C",
"bb	c #804E4D",
"cb	c #7F4D4C",
"db	c #653232",
"eb	c #643032",
"fb	c #643134",
"gb	c #683536",
"hb	c #C6737A",
"ib	c #CB7579",
"jb	c #CB7474",
"kb	c #7C0E0A",
"lb	c #AB5A56",
"mb	c #AB5D5E",
"nb	c #A95B5B",
"ob	c #AA5C5C",
"pb	c #A65D5D",
"qb	c #643537",
"rb	c #5B3735",
"sb	c #220A0C",
"tb	c #230B08",
"ub	c #673B3A",
"vb	c #6F3636",
"wb	c #97151B",
"xb	c #9B1017",
"yb	c #9B1215",
"zb	c #9C1014",
"Ab	c #B36666",
"Bb	c #B06968",
"Cb	c #5D0D10",
"Db	c #5B0704",
"Eb	c #9D5B5B",
"Fb	c #9E5D5B",
"Gb	c #A0585A",
"Hb	c #5B0D0F",
"Ib	c #5B090F",
"Jb	c #7D4040",
"Kb	c #683736",
"Lb	c #C6747A",
"Mb	c #CB7679",
"Nb	c #C97678",
"Ob	c #AB5B56",
"Pb	c #A65C5D",
"Qb	c #6E3738",
"Rb	c #9A1117",
"Sb	c #A05859",
"Tb	c #7B403D",
"Ub	c #39191E",
"Vb	c #643131",
"Wb	c #CB7476",
"Xb	c #AA5A55",
"Yb	c #AA5C5D",
"Zb	c #A95B5C",
"`b	c #A55B5B",
" c	c #9A1317",
".c	c #B16969",
"+c	c #5B0708",
"@c	c #A2595B",
"#c	c #5C0D0F",
"$c	c #7E4040",
"%c	c #7B4240",
"&c	c #7C403D",
"*c	c #37181D",
"=c	c #CA7979",
"-c	c #643133",
";c	c #C57579",
">c	c #CA777A",
",c	c #CA7779",
"'c	c #C97779",
")c	c #C87779",
"!c	c #CB7477",
"~c	c #AA5955",
"{c	c #AB5A5C",
"]c	c #AB5B5D",
"^c	c #A55B5C",
"/c	c #5B3736",
"(c	c #991317",
"_c	c #9C1015",
":c	c #9D0F15",
"<c	c #961A1A",
"[c	c #B26766",
"}c	c #B16667",
"|c	c #5C0F10",
"1c	c #5A0904",
"2c	c #5D0B0F",
"3c	c #9D5B5D",
"4c	c #7B4140",
"5c	c #7B3F3F",
"6c	c #371A1A",
"7c	c #7E4C4C",
"8c	c #632F32",
"9c	c #633033",
"0c	c #C6767A",
"ac	c #C8777A",
"bc	c #CA7477",
"cc	c #7E1415",
"dc	c #A45A5B",
"ec	c #633537",
"fc	c #1D090C",
"gc	c #961A1B",
"hc	c #B16768",
"ic	c #5B0F10",
"jc	c #590807",
"kc	c #9D5A5D",
"lc	c #7D3F41",
"mc	c #371A19",
"nc	c #BC6D70",
"oc	c #B96E70",
"pc	c #794347",
"qc	c #744446",
"rc	c #754547",
"sc	c #744547",
"tc	c #724547",
"uc	c #5C2D2F",
"vc	c #592B2F",
"wc	c #592B31",
"xc	c #592D2D",
"yc	c #5A2D2D",
"zc	c #5A2D2E",
"Ac	c #5E3031",
"Bc	c #BF7277",
"Cc	c #C37376",
"Dc	c #C47273",
"Ec	c #781514",
"Fc	c #79090C",
"Gc	c #780A0E",
"Hc	c #780A0D",
"Ic	c #770C0D",
"Jc	c #761012",
"Kc	c #A15452",
"Lc	c #A05557",
"Mc	c #A0555B",
"Nc	c #A1565C",
"Oc	c #A1575C",
"Pc	c #603230",
"Qc	c #5E312F",
"Rc	c #5F312F",
"Sc	c #5E3130",
"Tc	c #5A302F",
"Uc	c #290B08",
"Vc	c #240B07",
"Wc	c #240809",
"Xc	c #240909",
"Yc	c #603536",
"Zc	c #871113",
"`c	c #881314",
" d	c #881112",
".d	c #89161A",
"+d	c #B2685F",
"@d	c #AE6B66",
"#d	c #B06B67",
"$d	c #B16B67",
"%d	c #B26C67",
"&d	c #B06A65",
"*d	c #5F0E0F",
"=d	c #5E0604",
"-d	c #5F0803",
";d	c #5F0B0E",
">d	c #9C5A5C",
",d	c #9D5C5C",
"'d	c #9F5B5E",
")d	c #651F21",
"!d	c #641A1E",
"~d	c #651A1D",
"{d	c #73383B",
"]d	c #73393E",
"^d	c #73393D",
"/d	c #6F3A3C",
"(d	c #683432",
"_d	c #683431",
":d	c #673331",
"<d	c #663531",
"[d	c #663331",
"}d	c #2D100F",
"|d	c #27110C",
"1d	c #28110C",
"2d	c #29110C",
"3d	c #230805",
"4d	c #230706",
"5d	c #240708",
"6d	c #240707",
"7d	c #260707",
"8d	c #2F100D",
"9d	c #A76668",
"0d	c #B06566",
"ad	c #B06465",
"bd	c #610F10",
"cd	c #5E0803",
"dd	c #5D0701",
"ed	c #5B0709",
"fd	c #6E3531",
"gd	c #6C3536",
"hd	c #6A3935",
"id	c #6B3835",
"jd	c #560708",
"kd	c #560707",
"ld	c #570607",
"md	c #560508",
"nd	c #3B090A",
"od	c #3C090A",
"pd	c #502725",
"qd	c #4C2724",
"rd	c #400807",
"sd	c #3D0509",
"td	c #3D0608",
"ud	c #3E0608",
"vd	c #441008",
"wd	c #B0705A",
"xd	c #AF6F59",
"yd	c #69120C",
"zd	c #6A090C",
"Ad	c #6A070C",
"Bd	c #6B0709",
"Cd	c #6A0908",
"Dd	c #690F13",
"Ed	c #965555",
"Fd	c #945758",
"Gd	c #965758",
"Hd	c #975655",
"Id	c #884949",
"Jd	c #8A4949",
"Kd	c #8A494A",
"Ld	c #87494B",
"Md	c #351413",
"Nd	c #2F1212",
"Od	c #2F1112",
"Pd	c #2F1012",
"Qd	c #2F1013",
"Rd	c #2E1512",
"Sd	c #331815",
"Td	c #693636",
"Ud	c #673636",
"Vd	c #673637",
"Wd	c #673633",
"Xd	c #2F1111",
"Yd	c #27090A",
"Zd	c #31100F",
"`d	c #AB666B",
" e	c #AF6868",
".e	c #B16466",
"+e	c #610F12",
"@e	c #5F0804",
"#e	c #5D0705",
"$e	c #6B3838",
"%e	c #6B373A",
"&e	c #6D3639",
"*e	c #580A0C",
"=e	c #3F0706",
"-e	c #3C0906",
";e	c #3B0A0A",
">e	c #512624",
",e	c #4F2725",
"'e	c #3B0707",
")e	c #43100C",
"!e	c #B16F5B",
"~e	c #B1725A",
"{e	c #AE7058",
"]e	c #691010",
"^e	c #6B090C",
"/e	c #6B070C",
"(e	c #6A0709",
"_e	c #6A0708",
":e	c #690A08",
"<e	c #6A0D0F",
"[e	c #864949",
"}e	c #894748",
"|e	c #85474B",
"1e	c #351415",
"2e	c #2F1217",
"3e	c #270809",
"4e	c #300F0F",
"5e	c #AB656B",
"6e	c #B26365",
"7e	c #6E3735",
"8e	c #6A3735",
"9e	c #6A3737",
"0e	c #6C3838",
"ae	c #5A090D",
"be	c #570808",
"ce	c #3E0605",
"de	c #3B0B0B",
"ee	c #522723",
"fe	c #44100C",
"ge	c #AF6F5B",
"he	c #B1705B",
"ie	c #680A08",
"je	c #680807",
"ke	c #6A0706",
"le	c #2F1417",
"me	c #2F1415",
"ne	c #2E1515",
"oe	c #6E3736",
"pe	c #6E3538",
"qe	c #3D0607",
"re	c #450F0C",
"se	c #AE705B",
"te	c #884748",
"ue	c #85474C",
"ve	c #351416",
"we	c #2E1514",
"xe	c #3E0705",
"ye	c #4E2624",
"ze	c #690807",
"Ae	c #690D0F",
"Be	c #975656",
"Ce	c #351417",
"De	c #B06365",
"Ee	c #690D0D",
"Fe	c #351419",
"Ge	c #693535",
"He	c #683537",
"Ie	c #2F1211",
"Je	c #250A0A",
"Ke	c #AA6569",
"Le	c #B26164",
"Me	c #610D12",
"Ne	c #6E3637",
"Oe	c #6B3735",
"Pe	c #6C3635",
"Qe	c #6A3538",
"Re	c #6D3538",
"Se	c #590908",
"Te	c #580708",
"Ue	c #3E0A0B",
"Ve	c #3C0907",
"We	c #45100D",
"Xe	c #B17059",
"Ye	c #B06F58",
"Ze	c #AD7056",
"`e	c #69100F",
" f	c #6B0909",
".f	c #6B0907",
"+f	c #6A0606",
"@f	c #6A0D0D",
"#f	c #955656",
"$f	c #945755",
"%f	c #945754",
"&f	c #935654",
"*f	c #864946",
"=f	c #894545",
"-f	c #884645",
";f	c #88444A",
">f	c #85474D",
",f	c #2D1514",
"'f	c #2D1513",
")f	c #753B3C",
"!f	c #763A3E",
"~f	c #753A3E",
"{f	c #4C2224",
"]f	c #492124",
"^f	c #4A2224",
"/f	c #4A2123",
"(f	c #492022",
"_f	c #3F191B",
":f	c #3A191A",
"<f	c #3A191B",
"[f	c #391A1A",
"}f	c #3A1A1B",
"|f	c #401C1C",
"1f	c #9F5E62",
"2f	c #A25F62",
"3f	c #A35F62",
"4f	c #A15D5E",
"5f	c #5F1212",
"6f	c #5F0B09",
"7f	c #5F090E",
"8f	c #5E0B0C",
"9f	c #5C0C11",
"0f	c #5F3432",
"af	c #603435",
"bf	c #653233",
"cf	c #540B10",
"df	c #50090C",
"ef	c #51070C",
"ff	c #51070D",
"gf	c #52080B",
"hf	c #500A0B",
"if	c #3E0A0A",
"jf	c #602C2D",
"kf	c #602D31",
"lf	c #602D32",
"mf	c #5F2E30",
"nf	c #5E2F2E",
"of	c #57231F",
"pf	c #58251D",
"qf	c #58251C",
"rf	c #5A251D",
"sf	c #5A2721",
"tf	c #A06656",
"uf	c #A16757",
"vf	c #A26857",
"wf	c #A26956",
"xf	c #A36956",
"yf	c #A26756",
"zf	c #6F1F1A",
"Af	c #6F1C15",
"Bf	c #701E16",
"Cf	c #701C15",
"Df	c #6F1C16",
"Ef	c #6F1C17",
"Ff	c #6E1E19",
"Gf	c #8A5252",
"Hf	c #8A5253",
"If	c #895153",
"Jf	c #885052",
"Kf	c #7D4547",
"Lf	c #7A4345",
"Mf	c #7D4245",
"Nf	c #7D4446",
"Of	c #7B4446",
"Pf	c #7D4348",
"Qf	c #361619",
"Rf	c #321617",
"Sf	c #34141A",
"Tf	c #532F2E",
"Uf	c #A75A59",
"Vf	c #A65A59",
"Wf	c #A85A5A",
"Xf	c #A95B5E",
"Yf	c #874E4C",
"Zf	c #844D4E",
"`f	c #854C4E",
" g	c #7E4D4F",
".g	c #3F1B1C",
"+g	c #3E1C1C",
"@g	c #3E1C1D",
"#g	c #401C1E",
"$g	c #411C1C",
"%g	c #5D1C19",
"&g	c #5D1E19",
"*g	c #5D1E18",
"=g	c #5A1C1C",
"-g	c #210706",
";g	c #1D0606",
">g	c #180606",
",g	c #1A0605",
"'g	c #1B0607",
")g	c #1A0907",
"!g	c #291012",
"~g	c #2C0F11",
"{g	c #2C0E11",
"]g	c #2D0D12",
"^g	c #2D0E10",
"/g	c #2D0F10",
"(g	c #2E0E0F",
"_g	c #390908",
":g	c #390903",
"<g	c #420D0D",
"[g	c #A3565C",
"}g	c #A5565D",
"|g	c #A6575C",
"1g	c #A6575E",
"2g	c #A6575F",
"3g	c #A5575F",
"4g	c #B47263",
"5g	c #B3735F",
"6g	c #B3745E",
"7g	c #B3735E",
"8g	c #B27161",
"9g	c #522722",
"0g	c #472221",
"ag	c #934F43",
"bg	c #955141",
"cg	c #975042",
"dg	c #964F41",
"eg	c #954F41",
"fg	c #955242",
"gg	c #965245",
"hg	c #944E43",
"ig	c #3E1917",
"jg	c #3A1818",
"kg	c #39191A",
"lg	c #3A181A",
"mg	c #3A171A",
"ng	c #39181B",
"og	c #39181E",
"pg	c #3D191C",
"qg	c #3C1A1D",
"rg	c #3E1A1E",
"sg	c #3E1A1D",
"tg	c #391F1E",
"ug	c #422221",
"vg	c #BA7676",
"wg	c #C27575",
"xg	c #C37577",
"yg	c #C4747A",
"zg	c #C3747A",
"Ag	c #A5585E",
"Bg	c #A3575A",
"Cg	c #834A4C",
"Dg	c #824A4C",
"Eg	c #7D4C4E",
"Fg	c #451F22",
"Gg	c #421D21",
"Hg	c #421E23",
"Ig	c #411E23",
"Jg	c #411E20",
"Kg	c #5C1D17",
"Lg	c #5C1E19",
"Mg	c #5B1D19",
"Ng	c #5B1E18",
"Og	c #571D19",
"Pg	c #271211",
"Qg	c #281113",
"Rg	c #3A0904",
"Sg	c #A35659",
"Tg	c #A4575B",
"Ug	c #A3565A",
"Vg	c #A45659",
"Wg	c #A65957",
"Xg	c #B36F5D",
"Yg	c #AC725A",
"Zg	c #AE725A",
"`g	c #AC705C",
" h	c #4A2528",
".h	c #4B2428",
"+h	c #904E3F",
"@h	c #91503F",
"#h	c #925140",
"$h	c #914F3F",
"%h	c #90513F",
"&h	c #914F43",
"*h	c #391A1F",
"=h	c #381C1C",
"-h	c #391D1E",
";h	c #3C1B1D",
">h	c #3B1B1D",
",h	c #3D1B1D",
"'h	c #3A1E1E",
")h	c #412423",
"!h	c #BB7075",
"~h	c #C17071",
"{h	c #C27073",
"]h	c #834B4B",
"^h	c #814B4D",
"/h	c #7D4C4F",
"(h	c #421D20",
"_h	c #401C1F",
":h	c #421D1D",
"<h	c #5C1B16",
"[h	c #5B1E17",
"}h	c #581F17",
"|h	c #2A1014",
"1h	c #420D0E",
"2h	c #A25659",
"3h	c #A55857",
"4h	c #B36F5B",
"5h	c #AE7259",
"6h	c #AF725A",
"7h	c #AD6F5E",
"8h	c #522824",
"9h	c #492423",
"0h	c #8E503F",
"ah	c #915240",
"bh	c #8F5240",
"ch	c #915043",
"dh	c #401B1D",
"eh	c #38191E",
"fh	c #381B1B",
"gh	c #3A1D1D",
"hh	c #3F1B1D",
"ih	c #3F1B1E",
"jh	c #422222",
"kh	c #BE7176",
"lh	c #411C1F",
"mh	c #401D1D",
"nh	c #421D1E",
"oh	c #5C1D14",
"ph	c #5B1E13",
"qh	c #5B1D15",
"rh	c #1E0A08",
"sh	c #2A110F",
"th	c #2A1112",
"uh	c #2D0E11",
"vh	c #3B070B",
"wh	c #A55856",
"xh	c #B16F5A",
"yh	c #AE7257",
"zh	c #AD705D",
"Ah	c #492327",
"Bh	c #412422",
"Ch	c #421D1F",
"Dh	c #581E17",
"Eh	c #2D0E13",
"Fh	c #A45856",
"Gh	c #4A2327",
"Hh	c #3F1A1C",
"Ih	c #A55757",
"Jh	c #B36F59",
"Kh	c #A4585B",
"Lh	c #7D4D4F",
"Mh	c #401D1E",
"Nh	c #5B1E14",
"Oh	c #572018",
"Ph	c #A55756",
"Qh	c #AC7259",
"Rh	c #B0725B",
"Sh	c #AC705D",
"Th	c #915044",
"Uh	c #9A5555",
"Vh	c #9A5358",
"Wh	c #985459",
"Xh	c #7C494A",
"Yh	c #78484A",
"Zh	c #78484B",
"`h	c #73494A",
" i	c #3C1B1C",
".i	c #3B1A1C",
"+i	c #3A1B1C",
"@i	c #3A1A1C",
"#i	c #541C19",
"$i	c #561C16",
"%i	c #551C15",
"&i	c #551C16",
"*i	c #4E1F16",
"=i	c #18070B",
"-i	c #260F12",
";i	c #280F10",
">i	c #261010",
",i	c #380809",
"'i	c #370708",
")i	c #370706",
"!i	c #3C0C10",
"~i	c #955357",
"{i	c #975455",
"]i	c #985457",
"^i	c #995454",
"/i	c #985552",
"(i	c #A46A5A",
"_i	c #A26C56",
":i	c #A36D57",
"<i	c #A46C57",
"[i	c #A56B57",
"}i	c #A36C57",
"|i	c #A06B5B",
"1i	c #4D2526",
"2i	c #452124",
"3i	c #432224",
"4i	c #452123",
"5i	c #854C3D",
"6i	c #874D3E",
"7i	c #874D3F",
"8i	c #884D3E",
"9i	c #864C41",
"0i	c #3B191A",
"ai	c #341918",
"bi	c #351918",
"ci	c #361718",
"di	c #351B1D",
"ei	c #341C1C",
"fi	c #3F1F21",
"gi	c #AF6D70",
"hi	c #B36D6E",
"ii	c #B56F6F",
"      . + + +   @ # # # # # # # # # # # # # # $ % & & & & & * = - ; > , , , , ' ) ! ~ { { { { ] ^ / / ( ( _ _ : : : < < < < < < < < < < < < < [ } | 1 1 1 1 2 3 4 5 + + + + 6 7 8 # # # # # # 9 0 a a a a a a b c < < < < < < d e f g g g g g h i j j + + + + + ",
"    k l + + +   @ # # # # # # # # # # # # # # $ % & & & & & * m - n o , , , p ' ) ! ~ { { { { ] ^ / / ( _ _ _ : : : < < < < < < < < < < < < < [ } | 1 1 1 1 q 3 r 5 + + + + 6 7 8 # # # # # # s t a a a a a a b c < < < < < < d e f g g g g g h i j j + + + + + ",
"u u + + + + + u v # # # # # # # # # # # # # # $ % & & & & & & w x y y , , z A ' B C ~ { { { { D E F F _ _ _ _ : : : < < < < < < < < < < < < < G } | 1 1 1 1 1 H I 5 + + + + 6 7 8 # # # # # J K L a a a a a a M N < < < < < < O P f g g g g g h i j j + + + + + ",
"Q l + + + + + u v # # # # # # # # # # # # # # $ % & & & & & & m R y y p p z A ' B C ~ { { { { D S F F _ _ _ _ : : : < < < < < < < < < < < < < G } | T 1 1 1 1 U I 5 + + + + 6 V 8 # # # # # W K L a a a a a a b c < < < < < < X P h g g g g g h i j Y Z Z Z Z Z ",
"+ + + + + + + u v # # # # # # # # # # # # # # $ % & & & & & & m - y y z z z z ' B ! ~ { { { { { ` F F _  ._ _ : : : < < < < < < < < < < < < < G } | ..T 1 1 1 H I . + + + + + V +.# # # # # @.K L a a a a a a b c < < < < < < X P f g g g g g h i j j l l l l l ",
"+ + + + + + + u v # # # # # # # W #.#.9 W # 8 $ * $.& & & & * %.&.*.=.z z -.-.;.>.C { { { { { ,.E '.'. . . .'.).!.: ~.< {.].].].].< < < < < < ^./.(._._._._.:.<.[.}.Y |.+ + l 1.2.# # # # # # $ L a a a a a 3.4.5.].].< < < 6.7.e 8.g g g g g h j     9.9.9.0.a.",
"+ + + + + + + u v # # # # # # 2.b.c.# d.b.b.e.f.%.g.h.i.i.h.* j.k.l.m.n.o.p., q.r.s.{ t.{ { u.v.w.x.x.y.x.x.z.x.A.B.B.C.C.C.C.D.E.< < < < < < F.G.H.I.J.K.J.L.M.N.  O.P.Q.5 R.9.2.# # # # # f.S.T.a U.U.U.U.U.b ( V.].< < < < W.X.Y.Z.Z.Z.Z.Z.`. +  u u u u .+.+",
"+ + + + + + + u v # # # # # # ++@+#+$+$+%+%+%+&+*+=+-+-+-+-+-+;+>+,+'+)+)+!+)+~+{+]+^+/+(+_+(+:+<+[+[+}+[+[+|+1+2+3+4+5+5+4+4+6+7+< < < < < < 8+9+0+a+a+b+a+c+d+e+f+g+h+i+i+j+k+l+m+n+n+n+n+o+p+q+r+s+t+s+u+v+w+x+y+y+z+z+z+A+B+C+D+E+E+E+F+G+H+I+J+K+K+K+K+K+K+",
"+ + + + + + + u v # # # # # # L+M+N+O+O+O+O+O+P+Q+R+-+-+-+-+S+T+U+V+W+X+Y+Z+Z+`+ @.@].< ~.+@@@#@$@Z Z Z Z Z %@&@*@=@-@-@-@-@;@>@A.< < < < < < 8+,@'@)@)@)@)@!@~@{@]@^@^@^@^@^@/@(@!@!@!@!@!@_@:@<@[@[@[@[@}@|@1@2@3@4@5@5@5@5@6@7@8@8@8@8@8@9@0@I+a@b@c@c@c@c@c@",
"+ + + + + + + u v # # # # # # d@M+e@e@O+O+O+f@g@h@R+i@i@i@i@j@k@l@m@m@m@m@m@n@o@p@q@q@< < r@s@t@u@+ + + + + %@v@w@x@1 1 1 1 1 y@z@: A@< < < < B@C@'@D@D@D@D@!@(@E@]@F@F@F@F@G@/@H@D@D@D@D@D@D@I@J@K@K@K@K@K@L@<@M@N@5@5@5@5@O@P@Q@Q@Q@Q@Q@Q@Q@R@S@a@a@b@b@b@b@b@",
"+ + + + + + + u v # # # # # # d@M+O+e@O+O+O+f@T@h@R+i@i@i@i@j@k@l@m@m@m@m@m@n@o@p@q@q@< < r@s@U@V@+ + + + + %@W@w@x@1 1 1 1 1 y@^.: A@< < < < X@Y@!@D@D@D@D@!@(@E@^@F@F@F@F@G@Z@`@D@D@D@D@D@D@I@J@K@K@K@K@K@K@ #.#N@5@5@5@5@+#P@Q@Q@Q@Q@Q@Q@Q@R@S@a@a@b@b@b@b@b@",
"+ + + + + + + u v # # # # # # d@@#O+O+O+O+O+##$#%#R+i@i@i@i@j@k@l@m@m@&#&#&#n@o@*#=#q@< < r@!.U@-#+ + + + + k ;#>#,#1 1 1 1 1 y@'#: A@< < < < X@)#!#D@D@D@D@!@(@E@^@F@F@F@F@G@~#(@_@D@D@D@D@D@I@{#K@K@K@K@K@K@ #N@N@5@5@5@5@3@]#Q@Q@Q@Q@Q@Q@Q@^#/#a@a@b@b@b@b@b@",
"+ + + + + + + %@(#8 8 8 8 8 8 _#@#O+O+f@:#:#<#T@%#R+[#[#i@i@}#|#1#m@m@&#&#&#Y+2#3#=#q@< < < 4#5#-#+ + + + + Y 6#w@x@1 1 1 1 1 y@'#: A@< < ].~.7#8#9#9#9#9#9#0#a#E@^@F@F@F@F@G@b#c#D@D@D@D@D@D@d#{#K@K@K@K@K@K@e#f#N@5@5@5@5@O@P@Q@Q@Q@Q@Q@Q@Q@^#/#a@a@b@b@b@b@b@",
"+ + + + + + + 6 g#8 8 8 8 8 8 h#@#N+O+<#i#i#i#T@j#R+k#k#l#l#m#|#n#m@m@&#&#&#o#p#3#=#q@< < < : q#r#+ + + + + Y s#w@t#u#u#u#u#1 G.s@: r@< v#v#6.w#x#y#y#y#y#y#)#z#A#B#F@F@F@F@G@C#H@D@D@D@D@D@D@d#{#K@K@K@K@K@K@D#E#N@5@5@5@5@O@P@Q@Q@F#F#Q@Q@Q@^#/#a@a@b@b@b@b@b@",
"G#G#G#H#I#J#J#K#L#2.2.2.2.2.M#N#O###P#<#<#Q#R#S#T#U#V#V#V#V#U#W#X#Y#Z#`#`# $.$+$@$#$$$$$c C.%$&$$@+ + + + + Y s#*$=$-$L.;$>$>$,$@$'$)$!$~${${$w#]$^$/$/$/$($_$:$<$[$F@F@F@F@G@{@H@D@D@D@D@D@!@}$|$1$2$1$2$3$4$5$6$7$7$8$8$8$O@9$0$a$F#F#F#F#F#b$c$/#d$b@b@b@b@b@",
"e$e$f$g$h$i$j$j$k$l$l$m$n$n$m$o$p$q$r$s$t$q$u$v$w$x$y$z$z$y$A$B$C$D$E$F$G$H$I$J$K$L$M$N$O$P$N$Q$R$+ + + + + Q.S$T$U$V$W$X$Y$U$Z$`$ %.%+%+%+%@%#%$%%%&%*%=%-%-%;%>%,%'%)%)%,%!%~%{%D@D@D@D@D@D@]%^%/%/%/%/%/%(%_%:%<%[%}%|%|%1%8@2%3%4%4%5%6%6%7%8%9%9%0%0%0%a%0%",
"b%b%b%c%d%d%d%e%f%~ ~ ~ ~ ~ ~ ~ g%h%i%i%i%i%j%k%l%m%m%n%n%o%p%q%r%s%t%s%s%s%s%u%v%-$1 1 1 1 u#w%x%+ + + + + y%z%A%b+B%B%B%B%B%C%D%E%F%F%F%F%F%G%H%I%J%J%J%K%L%M%N%O%P%P%P%P%O%Q%R%!@D@D@D@D@S%8#T%U%V%V%V%V%V%W%X%Y%Z%Z%Z%Z%`% &.&+&@&#&#&#&$&%&&&*&=&-&-&-&-&-&",
";&>&,&'&)&)&)&!&f%{ { { { { { { ~&{&-+-+-+-+[#]&^&m%/&/&/&(&_&:&r%t%t%t%t%t%<&[&}&T 1 1 1 1 u#|&1&+ + + + + 2&3&4&b+5&5&5&5&5&6&7&E%E%F%F%F%F%G%H%K%I%I%I%K%I%8&9&O%P%P%P%P%O%0&R%!@D@D@D@D@a&8#b&U%V%V%V%V%V%c&X%Z%Z%Z%Z%Z%d&e&.&f&g&h&i&i&j&k&&&l&*&8%8%8%8%8%",
"m&m&m&n&n&n&n&o&p&{ { { { { { q&j@i@i@i@i@i@[#r&s&t&(&(&(&(&(&u&r%t%t%t%t%t%<&[&v&1 1 1 1 1 u#|&1&+ + + + 6 w&x&4&b+b+b+b+b+b+y&7&E%E%F%F%F%F%G%H%K%K%K%K%K%I%z&A&P%P%P%P%P%P%B&R%!@D@D@D@D@C&,@b&U%V%V%V%V%V%D&E&Z%Z%Z%Z%Z%d&F&G&@&g&g&g&g&@&H&l&l&*&8%8%8%8%8%",
"n&n&n&n&n&n&n&o&p&{ { { { { { q&j@i@i@i@i@i@[#I&J&t&(&(&(&(&(&u&r%t%t%t%t%t%<&[&K&1 1 1 1 1 1 |&1&+ + + + 6 L&M&N&b+b+b+b+b+b+y&7&E%E%F%F%F%F%G%H%K%K%K%K%K%I%z&A&O&P%P%P%P%P%B&R%!@D@D@D@D@C&P&Q&U%V%V%V%V%V%W%E&Z%Z%Z%Z%Z%d&F&G&R&g&g&g&g&@&H&l&l&*&8%8%8%8%8%",
"n&n&n&n&n&n&n&o&p&{ { { { { { q&j@i@i@i@i@i@i@I&S&t&(&(&(&(&(&u&r%t%t%t%t%t%<&[&K&T 1 1 1 1 1 |&1&+ + + + 6 L&w&T&U&b+b+b+b+b+y&7&E%E%F%F%F%F%G%H%K%K%K%K%K%I%z&A&O&P%P%P%P%P%B&R%!@D@D@D@D@C&V&Q&U%V%V%V%V%V%W%E&Z%Z%Z%Z%Z%d&F&G&R&g&g&g&g&@&H&l&*&*&8%8%8%8%8%",
"n&n&n&n&n&n&n&W&4.{ { { { { X&~ Y&Z&Z&Z&Z&`&Z&Y& *.*(&(&(&(&(&u&+*<&@*#*#*$*%*&***=*1 1 1 1 u#*$-*+ + i i i Q ;*>*a+,*'*)*)*)*!*~*E%E%F%F%F%F%G%m@K%K%K%K%K%K%{*]*O%O%O%O%O%O%0&R%^*/*I@d#/*)#(*Q&U%V%V%V%V%V%_*:*Z%Z%Z%Z%Z%d&F&<*f&[*[*[*g&@&}*|**&1*1*1*1*1*1*",
"e%W&W&W&m&W&m&2*3*{ f%4*5*5*5*6*Z&7*8*9*0*a*b*c*d*e*e*e*e*e*(&f*g*h*i*j*j*i*k*l*m*n*L.2 q L.-$o*-*+ p*q*q*q*k V r*s*t*u*I@s*C&Y@v*w*w*x*x*x*x*x*y*z*A*A*A*A*I%B*C*D*E*F*F*G*H*~%I*J*K*L*C&C&M*($N*O*P*P*P*P*Q*R*S*T*T*T*U*U*T*V*W*X*Y*Z*`* =.=+=@=*&#=$=%=%=%=%=",
"&=*=====-=;=>=,='=)=)=!=~=~={=]=^=/=(=_=:=:=:=<=[=}=|=|=|=|=|=1=2=3=4=5=6=6=7=8=9=0=a=0=b=c=d=e=f=g=h=i=j=j=i=i=k=l=m=n=o=p=p=q=r=s=t=t=t=t=t=u=v=w=x=x=x=x=x=y=z=A=B=C=D=B=E=F=G=H=I=J=J=J=K=L=M=N=N=O=P=Q=R=+@S=T=U=U=V=W=X=Y=Z=`= - -m*.-+-@-#-$-%-&-*-=---;-",
">->-,-'-'-)-)-&=!-~-~-{-]-]-^-/-(-_-_-_-_-I%L%:-<-[-}-}-}-}-|-1-2-3-4-5-6-7-8-9-0-a-b-c-b-d-e-f-g-h-i-j-j-j-i-k-l-m-m-n-n-o-p-q-r-u=s-s-s-s-s-t-u-v-w-w-w-w-x-y-z-V%A-B-@%A-C-D-E-F-F-F-G-F-H-I-p@J-J-J-E.].].K-L-M-N-O-P-Q-R-S-T-U-V-W-V-X-X-Y-Z-`- ;.;'&+;@;@;",
"#;#;#;#;#;#;#;$;%;&;&;&;&;&;&;*;=;A*-;-;-;-;-;;;>;,;Z%Z%Z%Z%Z%';);!;~;{;{;{;5-];0-^;b-b-/;/;/;(;_;i-i-i-i-i-i-:;<;[;[;[;[;[;};|;1;2;s-s-s-s-3;4;5;6;7;7;7;7;7;8;9;V%V%V%V%V%V%0;a;b;b;b;b;b;c;I-d;< < < < < q@e;f;g;g;g;g;g;h;i;j;k;X-X-X-X-X-Y-l;@;@;@;@;@;@;@;",
"#;#;#;#;#;#;#;$;%;&;&;&;&;&;&;m;n;o;p;p;p;p;p;q;r;,;Z%Z%Z%Z%Z%s;t;u;~;6-6-6-5-];0-^;b-b-/;/;/;(;_;i-i-i-i-i-i-:;<;[;[;[;[;[;};v;w;2;s-s-s-s-s-x;F$7;7;7;7;7;7;8;9;V%V%V%V%V%V%0;a;b;b;b;b;b;c;I-d;< < < < < q@e;y;g;g;g;g;g;h;i;j;X-X-X-X-X-X-Y-l;@;@;@;@;@;@;@;",
"#;#;#;#;#;#;#;$;%;&;&;&;&;&;&;z;n;p;A;A;A;A;A;B;C;,;Z%Z%Z%Z%Z%D;E;F;~;6-6-6-5-];0-^;b-b-/;/;/;G;_;i-i-i-i-i-i-:;<;[;[;[;[;[;};H;1;I;s-s-s-s-s-J;K;7;7;7;7;7;7;8;9;V%V%V%V%V%V%0;a;b;b;b;b;b;c;I-d;< < < < < q@e;f;g;g;g;g;g;h;i;j;X-X-X-X-X-X-Y-l;@;@;@;@;@;@;@;",
"#;#;#;#;#;#;#;L;M;&;&;&;&;&;&;N;O;-;-;-;-;-;p;P;Q;,;Z%Z%Z%Z%Z%R;S;T;~;6-6-6-5-];0-^;b-b-/;/;/;U;_;i-i-i-i-i-i-V;};[;[;[;[;[;};H;W;4;s-s-s-s-s-J;5;X;7;7;7;7;7;8;9;V%V%V%V%V%V%0;a;b;b;b;b;b;c;I-d;< < < < < < Y;L-g;g;g;g;g;h;i;j;Z;X-X-X-X-X-Y-l;@;@;@;@;@;@;@;",
"#;#;#;#;#;#;#;L;M;&;&;&;&;&;&;/-`;A*-;-;-;-;o;P;Q;,;Z%Z%Z%Z%Z%R;S;T;~;6-6-6-5-];0-^;b-b-/;/;/;U;_;i-i-i-i-i-i-V;};[;[;[;[;[;};H; >4;s-s-s-s-s-.>5;X;7;7;7;7;7;8;9;V%V%V%V%V%V%0;a;b;b;b;b;b;c;I-d;< < < < < < Y;+>g;g;g;g;g;h;i;j;Z;X-X-X-X-X-Y-l;@;@;@;@;@;@;@;",
";=;=;=@>#>$>%>&>*>z;z;z;z;z;z;=>->;>>>>>,>'>;>)>!>Z%Z%Z%Z%Z%Z%~>{>]>^>/>/>/>(>_>:><><>b-[>/;}>(;|>1>1>1>1>1>2>3>4>5>6>7>6>5>8>9>0>a>b>c>c>c>c>d>e>e>I$f>f>f>I$g>h>i>i>i>i>i>i>j>k>l>m>n>n>m>o>p>q>].A@A@A@r@< r>s>t>u>u>u>u>u>v>w>x>y>y>z>z>z>A>B>@;@;@;@;@;@;@;",
"C>D>E>F>G>H>G>I>J>K>K>L>M>N>L>O>P>Q>R>R>S>T>U>V>W>Z%Z%Z%Z%Z%Z%~>X>Y>Z>`>`>`> ,.,+,@,@,#,$,V#V#%,&,*,*,=,*,-,=,;,>,,,',',',),!,!,~,{,],^,^,^,^,/,(,_,:,<,<,:,[,j#},|,1,2,2,2,2,3,4,5,6,7,6,8,9,0,a,b,c,c,c,d,b,i*e,f,g,f,f,f,h,i,j,>@k,l,m,m,m,n,|%F&F&F&F&F&F&F&",
"o,o,o,p,p,p,p,q,r,w&I w&s,s,W@s#t,u,v,w,x,x,y,z,A,B,Z%Z%Z%Z%Z%C,D,9.u + + + Y E,F,G,G,G,G,G,G,H,H,$=$=I,0%J,K,L,Q*M,N,N,N,O,M,P,!>Q,Q,Q,Q,Q,<-[-R,S,S,S,S,S,S,T,U,U,U,U,U,U,V,V,W,W,X,X,X,W,Y,/#a,Z,Z,Z,Z,Z,`, '.'+'+'+'+'+'@'#'$'%'&'&'&'&'&'*'}%Z%Z%Z%Z%Z%Z%Z%",
"='='='='='='='-'r,;'Q Q 5 5 >';*,''')'!'~'{']'^'/'('Z%Z%Z%Z%Z%~>_'  u + + + Y :'F,<'G,['K,['['}'|'1'1'|'['J,['2'3'4'5'5'5'4'6'7'r;[-[-8'8'8'9'0'C#a'b'c'c'c'c'b'd'd'e'e'e'e'f'f'g'g'g'g'g'X,h'/#a,Z,i'i'i'j'`,k'l'm'n'n'n'n'o'p'$'%'&'&'&'&'&'*'}%Z%Z%Z%Z%Z%Z%Z%",
"='='='='='='='q'r'6 6 + + +   ;*s't'u'u'u'u'u'v'D;w'Z%Z%Z%Z%Z%s;$@  u + + + Y :'F,<'G,J,J,J,J,J,J,J,J,J,J,J,#=2'x'y'5'5'5'5'5'z'Y%,;,;Z%Z%Z%Z%A'C#B'C'C'C'C'C'C'D'e'e'e'e'e'e'e'E'E'E'E'E'X,F'/#G'Z,H'H'H'i'`,k*I'J'J'J'J'J'K'L'$'%'&'&'&'&'&'*'}%Z%Z%Z%Z%Z%Z%Z%",
"='='='='='='='q'r'6 6 + + +   ;*s'~'u'u'u'u'u'M'N'w'Z%Z%Z%Z%Z%s;$@  u + + + Y :'O'G,G,J,J,J,J,J,J,J,J,J,J,J,#=2'P'y'5'5'5'5'5'Q'Y%,;,;Z%Z%Z%Z%A'C#B'C'C'C'C'C'C'D'e'e'e'e'e'e'e'E'E'E'E'E'X,F'/#G'Z,H'H'H'i'`,k*I'J'J'J'J'J'K'L'$'%'&'&'&'&'&'*'}%Z%Z%Z%Z%Z%Z%Z%",
"='='='='='='='R'r'6 6 + + +   ;*s'~'u'u'u'u'u'M'S'w'Z%Z%Z%Z%Z%s;$@  u + + + Y :'O'G,G,J,J,J,J,J,J,J,J,J,J,J,#=2'P'y'5'5'5'5'5'Q'Y%,;,;Z%Z%Z%Z%A'C#B'C'C'C'C'C'C'D'e'e'e'e'e'e'e'E'E'E'E'E'X,T'd$a,Z,H'H'H'i'`,k*I'J'J'J'J'J'K'L'$'%'&'&'&'&'&'*'}%Z%Z%Z%Z%Z%Z%Z%",
"='='='='='='='U'V'6 Z P.P.P.R.W'X'~'u'u'u'u'u'M'S'w'Z%Z%Z%Z%Z%~>Y'9.u u u u k :'C##=#=['J,J,J,J,J,J,J,J,J,J,Z'`' )y'5'5'5'5'5'z'Y%B,B,B,B,B,Z%.)+)@)C'C'C'C'C'C'D'e'e'e'e'e'e'e'E'E'E'E'E'X,T'#)a,i'$)$)$)%)Z,&)*)J'J'J'J'J'K'=)N$-)&'&'&'&'&'*'}%Z%Z%Z%Z%Z%Z%Z%",
";);););)>););),)')))!)~)~)!){)])^)t'/)/)/)/)/)()S'_)Z%Z%Z%Z%Z%~>:)<)[)})})|)1)2)3)4)A#5)6)7)8)7)9)J,['['['['0)`'P'a)5'5'5'5'5'b)c)d)d)e)d)f)@;g)h)i)j)k)l)l)m)n)e'o)e'f'f'e'f'p)q)E'E'E'g'X,T'#)r)s)t)t)t)u)v)w)x)y)z)z)A)A)B)C)D)E)F)F)} F)F)G)H)I)J)K)L)L)M)L)",
"N)N)N)N)N)N)N)O)P)Q)R)S)R)S)T)P)U)V)W)X)X)X)X)Y)R;B,Z%Z%Z%Z%B,Z)`) !.!+!.!+!j#@!#!$!%!&!&!&!%!*!=!-!-!-!-!-!-!;!>!,!,!,!,!'!)!!!~!{!]!]!]!]!]!^!/!(!_!:!:!<![!}!|!1!_,2!2!2!2![,3!3!3!3!3!3!3!4!5!6!7!7!7!5!8!9!0!a!b!c!d!d!e!f!g!h!i!j!j!j!j!k!l!m!n!n!o!p!p!p!",
"q!r!q!s!t!t!u!v!w!J,J,J,J,J,['['x!y!z!z!z!z!A!B!C!B,Z%Z%Z%Z%B,A'D!E!F!F!F!G!H!I!J!K!L!M!K!N!O!P!Q!l#[#[#[#[#R!S!T!s-U!U!U!s-s-V!W!X!Y!Y!Y!Y!Y!Z!`! ~.~+~@~+~+~#~$~%~&~&~*~*~*~=~G@G@G@F@F@G@G@-~;~>~,~,~,~,~'~)~!~n&c)@; ;@;~~{~]~^~/~/~/~/~/~(~_~:~<~[~f*}~}~}~",
"|~|~1~2~3~3~3~4~5~J,J,J,J,J,K,K,6~7~A!A!A!A!A!8~9~B,Z%Z%Z%Z%B,0~a~G!G!G!G!b~c~c=d~K!K!K!K!e~f~P!g~l#i@i@i@i@R!S!(=h~s-s-s-s-i~V!j~Y!Y!Y!Y!Y!Y!k~l~m~n~n~n~n~.~o~p~q~&~r~r~r~r~s~G@G@G@F@F@G@G@4)t~>~>~>~>~>~>~u~v~w~x~x~x~2*!&y~z~A~B~B~B~B~B~L%C~D~E~}~}~}~}~}~",
"F~F~F~G~G~G~G~4~H~J,J,J,J,J,K,I~J~K~z!z!z!L~L~M~R;Z%Z%Z%Z%Z%Z%N~O~G!G!G!G!G!H!I!P~K!K!Q~Q~R~f~S~T~l#i@i@i@i@R!U~_=h~s-s-s-s-i~V~W~Y!X~Y~Y~Y~Y~Z~`~ {.{.{.{.{.{+{@{q~&~r~r~r~r~s~G@G@G@F@F@F@F@4)t~>~>~>~>~>~>~#{${@;@;@;@;@;'&%{&{*{={={={={={-{_~;{>{0;0;0;0;0;",
"G~G~G~G~G~G~G~4~H~J,J,J,J,J,K,I~,{'{'{'{'{){){!{R;Z%Z%Z%Z%Z%Z%g)~{G!G!G!G!G!H!{{P~K!K!Q~Q~R~f~S~]{l#i@i@i@i@R!%#_=h~s-s-s-s-i~^{/{Y!X~g;g;g;g;({_{.{.{.{.{.{.{:{@{q~&~r~r~r~r~s~G@G@G@F@F@F@^@4)t~>~>~>~>~>~>~#{<{@;@;@;@;@;.;%{[{*{}{}{}{}{}{|{1{;{_~0;0;0;0;0;",
"G~G~G~G~G~G~G~4~H~J,J,J,J,J,K,I~,{'{'{'{'{){){!{R;Z%Z%Z%Z%Z%Z%g)~{G!G!G!G!G!H!{{P~K!K!Q~Q~R~f~S~2{k#[#i@i@i@R!%#_=h~s-s-s-s-i~V~3{Y!4{4{4{4{Y!1+_{5{.{.{.{.{.{:{6{7{8{r~r~r~r~s~G@G@G@F@F@F@^@4)t~>~>~>~>~>~>~#{<{d)d)@;@;@;.;%{9{0{}{}{}{}{}{|{1{;{_~0;0;0;0;0;",
"G~G~G~G~G~G~G~a{H~J,J,J,J,J,K,b{,{'{c{c{c{d{){!{R;Z%Z%Z%Z%Z%Z%.)e{G!G!G!G!G!H!{{f{g{h{Q~i{R~j{k{l{m{n{[#[#[#n{U~_=s-s-s-s-s-s-l!o{p{q{q{Y!Y!r{s{t{u{.{.{.{.{.{+{6{v{w{x{x{x{w{y{z{G@G@F@F@F@A{4)B{C{C{D{C{E{E{#{<{@;d)@;@;@;'&%{F{G{B~H{H{B~B~I{_~;{_~#%#%#%#%#%",
"1~1~1~1~1~J{J{a{K{K,K,K,K,K,K,b{L{'{M{M{M{'{N{!{R;Z%Z%Z%Z%Z%Z%R;O{P{G!G!G!G!P{Q{f{R{S{T{U{U{U{V{W{X{Y{i@Z{i@#,`{ ].]+]+]@]#]$]l!%]&]*]=]-];]>],]'])])])])])])]!]~]{]=~r~r~r~r~v{]@F@F@F@F@F@^@]]^]/](]_](](]:]<][%[][].;.;.;{~}]|]1]2]2]2]2]2]A;3]4]5]3]3]3]3]3]",
"6]7]6]7]7]8]9]0]a]l&l&b]b]b]c]$,d]] e]e]e]f]g]h].)Z%Z%Z%Z%Z%Z%B,i]j]j]j]j]j]k]l]<*m]n]m]X*o]X*p]q]r]s]t]t]t]u]v]w]x]x]x]y]z]A]B]x{C]C]D]E]E]F]G]H]I]J]J]J]K]K]L]M]N]O]P]P]P]P]Q]R]b]*&*&*&*&S]b]T]U]V]V]V]V]V]W]X]Y]Y]Z]`] ^.^+^@^#^$^#^%^&^Q#*^=^-^-^;^;^;^;^;^",
"(*(*(*(*(*!@D@>^S!R+[#i@i@i@i@j@,^'^{ { { { q&)^0'Z%Z%Z%Z%Z%Z%B,!^~^~^~^~^~^{^]^^^o#`;W+m@m@m@&#t=i~i~i~i~i~/^(^_ _ _ _ _ _ _ /+~>~>~>~>~>~>_^:^<^e#[^[^[^[^[^}^|^1^2^2^2^2^3^4^[#5^i@i@i@i@5^h%6^7^8^8^8^8^8^9^g%0^a^b^c^b^m{d^e^f^g^g^g^g^g^h^i^j^k^l^l^l^l^l^",
"0#!@0#0#!@D@D@m^S!R+[#i@i@i@i@j@,^n^{ { { { q&)^0'Z%Z%Z%Z%Z%Z%B,!^~^~^~^~^~^~^o^o@p^&#&#q^&#&#X+t=s-s-s-s-s-r^!!_ _ _ _ _ _ _ /+s^~>~>~>~>~>_^t^u^v^L@L@L@L@w^x^y^2^z^z^z^z^z^A^B^{&i@i@i@i@C^~&6^F#D^D^D^D^D^t^|#{&{&[#i@i@n{E^e^f^F^G^H^H^H^_$.=j^k^l^l^l^l^l^",
"D@D@D@D@D@D@I^>^J^R+[#i@i@i@i@j@,^n^{ { { { q&K^L^Z%Z%Z%Z%Z%Z%B,!^~^~^~^~^~^~^M^-%N^&#&#&#&#&#;;t=s-s-s-s-s-O^P^_ _ _ _ _ _ _ ^+~>~>~>~>~>~>_^t^Q^[@L@L@L@L@w^R^S^z^z^z^z^z^z^T^U^{&i@i@i@i@i@I&6^F#D^D^D^D^D^V^W^i@i@i@i@i@U#d^e^X^Y^Y^Y^Y^Y^h^Z^j^k^l^l^l^l^l^",
"D@D@D@D@D@C&:@m^S!R+[#i@i@i@i@j@,^n^{ { { { q&K^L^Z%Z%Z%Z%Z%Z%B,!^~^~^~^~^~^~^M^-%N^&#&#&#&#&#;;t=s-s-s-s-s-O^P^_ _ _ _ _ _ _ `^ /~>~>~>~>~>_^t^./[@L@L@L@L@w^R^S^+/z^z^z^z^z^T^B^i@i@i@i@i@i@I&6^F#D^D^D^D^D^@/W^i@i@i@i@i@n{#/e^9#Y^Y^Y^Y^Y^g^Z^l^l^l^l^l^l^l^",
"D@D@D@D@D@I@:@m^S!R+[#i@i@i@i@j@,^n^{ { { { q&K^ /Z%Z%Z%Z%Z%Z%B,!^~^~^~^~^~^~^M^-%N^&#&#&#&#&#;;t=s-s-s-s-s-O^P^_ _ _ _ _ _ _ $/ /~>~>~>~>~>_^t^%/[@L@L@L@L@w^&/S^+/z^z^z^z^z^T^B^i@i@i@i@i@i@I&6^F#D^D^D^D^D^@/W^i@i@i@i@i@*/d^e^9#Y^Y^Y^Y^Y^J*.=l^l^l^l^l^l^l^",
"D@D@D@D@D@I@:@m^S!R+[#i@i@i@i@j@,^n^{ { { { { M =/-/Z%Z%Z%Z%Z% &;/~^~^~^~^~^~^M^-%N^&#&#&#&#&#>/,/'/'/)/)/)/O^!/]+_ _ _ _ _ _ $/~/~>~>~>~>~>~>{/<^[@L@L@L@L@w^R^S^z^z^z^z^z^]/^///(/+,i@i@i@i@~&:^_/:/:/:/:/:/:^</[/Z&Z&`&}/|/S!1/2/Y^Y^Y^Y^Y^g^.=l^l^l^l^l^l^l^",
"3/3/3/3/3/4/5/6/d^R+[#i@i@i@i@j@7/8/C C C C 9/0/1-R;_)_)_)_)_)('a/b/b/c/b/d/b/e/f/g/h/h/i/j/j/k/,/l/m/n/o/)/O^!/: _ _ _ _ _ _ p/C,~> /~>~>~>~>q/r/s/K@t/K@[@u/&/v/w/x/y/z/A/B/C///D/D/i@i@i@i@E/F/G/H/I/H/I/I/F/J/D/K/L/M/N/Y{E/1/2/'@Y^Y^Y^Y^O/P/Q/R/R/R/R/Q/R/",
"S/T/T/T/T/T/U/V/W/R+[#i@i@i@i@X/q@].J-J-J-J-p@*#Y/Z/`/ (`/`/.(m&+(@(#(#(#(#($(%(&(*(=(-(=(*(;(>(,(z;'(z;z;C$C$)(!(b,b,b,b,b,b,~({(Z)](Z)Z)Z)~>C!^(/(((_(_(:(((<([(}(%>|(1(2(3(3(4(G,5(G,G,G,<'6(7(8(8(8(8(8(8(9(0()&a()&n&b(w~c)c(d(e(f(g(g(g(h(i(j(k(l(m(m(m(m(",
"n(o(n(o(p(p(p(q(;![#i@i@i@i@i@]&r(5]4]4]4]4]4]s(t(u(v(v(w(w(w(x(y(z(A(A(A(A(B(C(7 Y O.O.D(D(E(S$F(G(6.G(G(G(G(6.H(I(J(J(J(J(J(K(L(L^L^I)I)I)L^d&M(N(O(P(Q(O(P(R(S(T(t=s=U(U(V(E-W(X(Y(Z(Z(Z(`( _._a&a&a&a&a&a&+_@_)/)/)/#_#_#_$_%_&_Y*Y**_*_*_=_-_;_;_>_>_>_>_>_",
",_,_,_X&{ { { ,^'_i@i@i@i@i@i@]&)_t&t&t&t&t&t&!_~_w(w(w(w(w(w({_]_z(^_^_^_^_^_^_;*    u + l Z /_(_< < < < < < d;H(__:_:_:_:_:_<_Z%I)I)I)I)I)0'[_}_N(N(|_|_|_|_R(1_s-s-s-s-s-2_3_4_5_Y(F@F@F@6_7_8_D@D@D@D@D@D@+_9_s-s-s-s-s-0_a_b_c_b_b_b_b_b_d_e_f_g_g_g_g_g_g_",
"{ { { { { { { ,^'_i@i@i@i@i@i@]&)_t&t&t&t&t&t&u&h_w(w(w(w(w(w(i_j_z(^_^_^_^_^_^_;*    u + l Z k_l_< < < < < < d;H(__:_:_:_:_:_<_Z%I)I)I)I)I)I)_)}_N(N(m_n_n_n_o_d>s-s-s-s-s-i~a;p_Y(Y(F@F@F@6_7_q_D@D@D@D@D@D@+_9_s-s-s-s-s-0_a_b_c_b_b_b_b_b_d_e_f_f_g_g_g_g_g_",
"{ { { { { { { ,^'_i@i@i@i@i@i@]&)_t&t&t&t&t&t&r_s_w(w(w(w(w(w(i_t_u_^_^_^_^_^_^_;*    u + l Z k_v_< < < < < < d;H(__:_:_:_:_:_Z,w_I)I)I)I)I)I)_)}_N(N(m_n_n_n_x_.]s-s-s-s-s-i~y_p_Y(Y(F@F@F@&,I,q_D@D@D@D@D@D@+_9_s-s-s-s-s-0_z_b_c_b_b_b_b_b_d_e_f_g_g_g_g_g_g_",
"{ { { { { { { ,^'_i@i@i@i@i@i@A_)_t&t&t&t&t&B_C_D_w(w(w(w(w(w(i_t_E_^_^_^_^_^_^_;*    u + + + F_v_< < < < < < d;H(__:_:_:_:_:_Z,w_I)I)I)I)I)I)_)}_N(N(m_n_n_n_x_.]s-s-s-s-s-2_G_4_H_H_F@F@F@&,I_q_D@D@D@D@D@D@+_9_s-s-s-s-s-0_z_n]c_b_b_b_b_b_d_J_f_K_g_g_g_g_g_",
"{ { { { { { { L_I&{&i@[#[#[#*/M_N_t&B_t&B_B_O_P_D_w(w(w(w(w(w(i_Q_R_^_^_^_^_^_^_;*R.  Q + + Z F_v_r@r@< < < < d;S_J(:_T_U_U_U_i'}-I)J)J)J)J)I)_)V_N(N(W_X_n_n_Y_d>s-s-s-s-s-Z_3_`_H_ :F@F@F@&,.:q_D@L*L*L*L*L*+:@:s-s-s-s-s-$]z_m]#:$:$:$:$:$:d_J_f_K_g_g_g_g_g_",
"{ { { { { { { ~ %:&:D/D/K/D/Z{*:=:-:;:(&(&O_O_>:,:w(':):):):!:~:{:]:^:^:^:^:^:^:V Q 6 /:/:H#(:_:::8+<:[:[:[:[:[:}:|:|:H(1:1:H(2:I)Z).)0'0'0'Z)3:4:5:6:6:6:7:7:n_8:s-9:V(#_#_0:a:b:c:d:d:d:d:e:f:g:h:g^i:j:j:j:k:(^l:i~i~i~i~i~.>m:n:o:o:o:p:q:d_r:s:t:t:t:t:t:t:",
"f]f]f]f]f]f]f]u:v:w:x:y:z:z:x:A:B:C:D:D:E:E:F:G:H:I:J:K:L:M:N:O:P:Q:R:S:T:T:S:U:V:W:X:Y:Z:Z:`: <.<+<+<@<@<@<+<#<$<%<&<*<=<-<=<;<><5,5,,<,<,<'<)<!<~<{<]<]<^<]</<(<_<:<!(!(H$<<[<}<|<1<2<2<2<3<4<5<6<7<7<8<8<8<9<0<a<b<b<b<c<d<e<f<g<h<i<j<k<l<g<m<n<o<o<o<o<o<o<",
"'{'{'{'{'{'{'{g$p<;>;>q<p;p;-;r<s<t<u<v<u<w<x<|%y<z<A<B<z<C<D<A>E<F<E<K.K.E<G<H<I<J<K<L<[;[;M<N<O<P<P<Q<Q<Q<P<R<S<T<U<V<W<W<W<X<Y<Z<s>`<`<`< [.[+[z!f]f]f]f]f]@[#[/ / / / / $[%[&[w]P=*[=[=[P=R=-[;[>[>[>[>[>[r_,['['[)[)[)[![~[{[][^[/[([_[:[<[[[}[|[|[|[1[|[|[",
"'{'{'{'{'{'{'{f$2[}{}{}{}{}{3[O;s<_)4[4[4[4[Z%5[6[7[8[9[0[0[z>7[u#1 1 1 1 1 1 a[b[c[c[d[[;[;[;<;e[f[f[f[f[f[f[g[h[# # # # # # 2.i[j[i[i[i[k[ [l[m[n['{'{'{'{'{M~/ / _ _ _ _ _ _ &[o[&;&;&;p[&;{-q[q[q[q[q[r[s[t[u[v[v[v[w[w[x[y[z[A[B[C[D[.{.{.{E[F[F[F[F[F[F[F[",
"'{'{'{'{'{'{'{G[H[}{}{}{}{}{A;F{I[_)Z%Z%Z%Z%B,5[J[x>X-X-X-X-X-y>K[1 1 1 1 1 L[a[b[c[c[c[[;[;[;<;M[f[f[f[f[f[f[N[8 # # # # # # 2.O[O[i[i[i[i[ [l[P[n['{'{'{'{'{M~c / _ _ _ _ _ _ ,(o[&;&;&;&;Q[R[q[q[q[q[q[r[s[t[u[w[w[w[w[w[x[y[z[S[T[C[.{.{.{U[V[W[W[W[W[W[W[W[",
"'{'{'{'{'{'{'{G[H[}{}{}{}{}{A;F{X[_)Z%Z%Z%Z%Z%Y[Z[x>X-X-X-X-X-y>K[1 1 1 1 1 `[a[b[c[c[c[[;[;[;<;M[f[f[f[f[f[f[N[8 # # # # # # 2.O[O[i[i[i[i[ [l[P[n['{'{'{'{'{M~`^/ _ _ _ _ _ _ ,(o[&;&;&;&; }.}>[q[q[q[q[q[q[t[u[w[w[w[w[w[+}y[z[@}.{.{.{.{.{#}V[W[W[W[W[W[W[W[",
"'{'{'{'{'{'{'{$}H[}{}{}{}{}{%}&}*}_)Z%Z%Z%Z%Z%Y[Z[x>X-X-X-X-X-y>K[1 1 1 1 1 =}-}b[c[c[c[[;[;[;<;M[f[f[f[f[f[f[;}>}# # # # # # 2.O[O[i[i[i[i[ [l[P[n['{'{'{'{'{,}'}/ _ _ _ _ _ _ ,(o[&;&;&;&; }.}>[q[q[q[q[q[q[)}u[w[w[w[w[w[+}y[!}@}.{.{.{.{.{~}{}W[W[W[W[W[W[W[",
"'{'{'{'{'{'{'{]}Z+}{}{}{}{}{%}&}*}_)Z%Z%Z%Z%Z%^}/}x>X-X-X-X-X-y>u#1 1 1 1 1 (}-}b[c[c[c[[;[;[;<;M[f[f[f[f[f[f[;}>}# # # # # # 2.i[O[i[i[i[i[ [_}P[N{'{'{'{'{'{,}^+/ _ _ _ _ _ _ &[o[&;&;&;&;&;:};[q[q[q[q[q[q[<}![w[w[w[w[w[+}y[!}@}.{.{.{.{.{[}}}|}|}|}|}|}|}|}",
"1}1}M~K~K~K~K~2}3}4}4}4}5}5}6}7}8}9}0}0}0}0}+;a}6[X-X-X-X-X-X-7[t#b}b}b}b}c}d}e}f}g}h}i}j}k}k}i}M[l}l}l}l}l}f[m}n}]>o}p}p}p}q}r}s}Z<t}u}u}u}v}_}w}N{N{'{'{'{'{h$x}#$C.: y}y}( '.z}A}&;B}B}B}*;B};[C}C}C}C}D}D}E}F}G}H}I}I}I}J}K}L}M}N}N}N}O}P}Q}R}S}T}T}T}T}T}T}",
"U}U}U}U}U}U}U}p(V}W}X}Y}Y}Y}Z}`} |.|+|+|+|+|@|#|$|x>X-X-X-X-X-%|&|*|=|-|;|-|>|,|'|)|!|~|{|~|]|^|/|(|_|:|_|_|<|[|}|||||1|2|3|4|5|6|7|8|9|9|8|0|a|b|c|d|d|d|e|f|g|h|i|j|j|k|l|j|m|n|o|p|q|q|q|q|p|r|s|r|r|r|t|u|v|w|x|y|y|z|X(Z(`(A|B|p}p}p}C|D|E|F|G|H;H|I|I|H|I|",
"J|J|K|L|L|L|L|M|N|O|O|O|=#=#_ P|Q|6 /:/:/:/:I#R|S|k;k;k;k;k;k;T|U|b+V|V|V|V|W|X|Y|Z|`| 1.1.1+1z$@1#1$1# # # 2.%1&1*1=1-1;1>1-1,1'1)1!1!1~1!1{1]1.!!%^1/1(1(1_1:1<1[1}1|1|1|1|1112131418'4[8'515161'.71'.71'.]+819101a1b1c1d1e1f1p+I@D@D@g1h1u*!@D@C&L*i1i1d#i1d#",
"O%O%O%O%O%L|j1k1l1A@A@A@A@A@_ m1Q|+ + + + + Z n1o1k;k;k;k;k;k;p1q1a+U&U&U&U&B%r1s1t1u1u1v1w1u1x1y1#1$1# # # 2.$1z1>1>1>1>1>1A1B1C1D1E1F1F1F1G1H1+!I1J1J1J1J1J1K1L1M1N1O1O1O1P1Q121R1S1Z%Z%Z%Z%_)_ _ _ _ _ _ _ t@T1U1V1W1W1W1f1X1Y1d#0#0#0#Z1Z1D@D@I@I@I@I@I@I@I@",
"P%P%P%P%P%`1L| 2~.< < < < < .2+2@2|.+ + + + + #2$2k;k;k;k;k;k;%2q1&2U&U&U&U&U&9+*2u1u1a;a;=2u1-2y18 8 # # # 2.$1;2>1>1>1>1*1>2,2'2;)G1G1G1G1G1)2!2~2J1J1J1J1J1K1{2M1O1O1O1O1]2112131S1Z%Z%Z%Z%Z%_ _ _ _ _ _ _ t@T1^2/2(2(2(2(2_2:2d#D@D@D@D@D@D@D@D@D@D@D@D@D@D@",
"P%P%P%P%P%`1L|M|~.< < < < < q@+2<2|.+ + + + Z #2$2k;k;k;k;k;k;%2[2&2U&U&U&U&U&}2|2u1u1a;a;=2u1-2128 8 # # # 2.$1;2>1>1>1>1*1>2,2'2;)G1G1G1G1G1)2!2J1J1J1J1J1J1K1{2M1O1O1O1O1]2222131S1Z%Z%Z%Z%Z%_ _ _ _ _ _ _ t@T1^2/2(2(2(2(2_2:2s*D@D@D@D@D@D@D@D@D@D@D@D@D@D@",
"P%P%P%P%P%`1~%O&].< < < < < r@3242|.+ + + + Z 9.52k;k;k;k;k;k;6272a+U&U&U&U&U&8292u1u1a;a;=2u1-2128 8 # # # # #.02>1>1>1>1*1>2,2'2;)G1G1G1G1G1)2+!~2J1J1J1J1J1K1{2M1O1O1O1O1]2Q12131S1Z%Z%Z%Z%Z% ._ _ _ _ _ _ t@T1^2/2(2(2(2(2_2:2s*D@D@D@D@D@D@D@D@D@D@D@D@D@D@",
"P%P%P%P%P%`1a2O&].r@r@r@r@r@A@b242+ + + + + Z 1.c2d2k;k;k;k;k;6272a+U&U&U&U&U&e2f2u1u1a;y_E-u1-2128 8 # # # # _#g2>1-1-1-1*1>2,2h2i2G1G1G1G1G1j2k2J1J1J1J1J1J1K1l2m2n2n2n2O1]2Q12131S1Z%Z%Z%Z%Z% ._ _ _ _ _ _ t@T1^2o2o2p2q2r2s2t2s*C&C&C&C&C&D@D@C&C&C&C&C&C&C&",
"O%O%O%O%O%`1u2v2w2: : : : : : x2426 + + + + + y2$2z2k;k;k;k;k;6272a+U&U&U&U&U&!*A2Z}a;a;B2Z}a;C2128 8 # # # # _#02-1D2D2D2D2>2E2F2G2H2G1G1G1G1j2.!~2J1J1J1J1J1I2J2M1K2L2M2M2P1N221O2S14[Z%Z%Z%Z%_ _ _ _ _ _ _ P2T1Q2R2R2S2T2U2V2W2C&I@I@I@I@I@D@L*X2X2X2X2X2X2X2",
"Y2Y2Y2Y2Y2F!Z2`2 3.3.3+3+3+3.3@3#3$3$3$3$3%3&3*3=3-3;3>3,3'3)3!3~3{3]3]3]3]3^3/3(3_3:3<3[3}3<3|3138 8 # # # # d@233343434343536373839393939303a3b3c3c3d3d3e3e3f3g3h3i3j3k3k3l3m3n3o3p3q3r3q3s3t3u3{_{_{_{_{_{_v3w3S@S@x3y3z3]!A3B3C3V$D3D3D3D3E3^3F3G3G3G3G3H3G3",
"I3J3J3I3I3K3V.D.L3M3N3O3O3O3M3P3Q3R3S3S3S3T3T3U3V3W3X3Y3&:X3X3&:Z3`39/9/9/9/9/ 4M,.4p;p;p;+4p;@4#48 8 # # # # S.$4%4&4*4+[+[&4=4-4;4>4,4,4>4'4)4!4~4{4]4^4/4t.X&(4_4:4<4[4[4}4|4142434343434445464I)7474740'I)8'849494040404a4b4c4d4e4e4e4d4d4f4g4h4i4i4i4i4l$i4",
"V.V.V.].].].].j4k4l4l4l4l4l4m4L$n4o4S3S3S3S3p4q4*+k#l#l#r4r4r4s4t4*4+[u4u4u4)^v4W+w4J%x4y4h/x4n#z48 8 # # # $1A4B4u4u4u4u4u4u4C4D4E4E4F4E4E4F4F4G4)^{ { { { { { H4I4I4I4I4I4J4[(^^K4&#&#&#&#&#L4M4N40'0'0'0'0'}-]+< < < < < O4j4P4Q4R4R4R4R4R4S4T4U4V4W4W4W4W4W4",
"].].].].].].].X4Y4l4l4l4l4l4m4Z4`4S3S3S3S3S3S3 5*+k#i@i@i@i@i@[#t48/.5,{,{,{q&/4+5_-J%A*-;r<@5#5#48 8 # # # {>A4$5,{,{,{,{,{,{u4D4n{n{n{n{n{n{n{C4)^{ { { { { 0/%5I4I4I4I4I4&5[(^^*5&#&#&#&#&#L4=5N40'0'0'0'~/I)_ < < < < < O4j4-5Q4R4R4R4R4R4S4T4W4W4W4W4W4W4W4",
"< < < < < ].].;5>5,5,5,5,5,5l44+'5)5!5!5!5!5)5~5{5k#i@i@i@i@i@i@=4,^]5{ { { { ^5/5(5I%p;-;r<@5_5z48 8 # # # {>:5>.{ { { { { { ~ <5j@i@i@i@i@i@i@,^L_{ { { { q&,^[5}5}5}5}5|5152535*5&#&#&#&#&#4555650'0'0'0'~/Z%_ < < < < < 75A.-5Q4R4R4R4R4R4S4T4W485H4H4H4H4H4",
"< < < < < ].].;5>5,5,5,5,5,5l44+'5)5!5!5!5!5)5~5{5k#i@i@i@i@i@i@=4`3n^{ { { { ^5Z+O;I%p;-;r<@595z48 8 # # # 2.05>.{ { { { { { ~ <5j@i@i@i@i@i@i@,^L_{ { { { { n^%5a5a5a5a5a5b52535*5&#&#&#&#&#45B,L^0'0'0'0'~/R;]+< < < < < 75A.-5Q4R4R4R4R4R4S4T4W485H4H4H4H4H4",
"< < < < < ].].;5c5,5,5,5,5,5m4G)'5)5!5!5!5!5)5~5{5k#i@i@i@i@i@j@,^! { { { { { d5&#e5A*p;-;A*J%95z48 8 # # # $1f5g5{ { { { { { ~ <5i@i@i@i@i@i@i@,^L_{ { { { { { H4I4I4I4I4I4b5h535*5&#&#&#&#&#i50}Z)0'0'0'0'~/,;j5< < < < < 75A.-5Q4R4R4R4R4R4S4T4W485H4H4H4H4H4",
"< < < < < ].].k5l5l4m5n5n5o5p5q5r5S3s5s5s5t5u5~5v5k#i@i@i@i@i@h%C C w5w5'^w5'^x5o#x4-;p;p;o;y5G%z49 z5W<z5(## A5m[{ { { { { { L_h%-+C^B5B5B5i@j@=4L_{ { { { { ]5C5b5N%D5D5E5E5F5G5H5m@*5*5n@m@I5F&.)74747474J5.)K5< < < < < 75A.P4L5M5M5M5Q4Q4N5$5O5P5Q5R5R5h4W4",
"v(v(v(v(v(S5v(T5S~U5U5V5W5W5X5Y5Z5`5 6 6 6 6.6+6{5k#j@j@j@j@j@~&b~G!G!G!G!G!G!@6#6@5@5$6I%_-y5%6&6*6]_=6]_-6=6;6>6{ { { { { { ,^,6'6)6)6)6)6'6'6=4C { { { { q&M !6~6{6:/:/{6F#a}]6-%^6/6/6(6_6:6Y&i@<6(/[6[6c]}6|6< < < < < 75@$162636J!J!465666v~76869696969696",
"Z%Z%Z%Z%Z%Z%Z%06W*a6a6a6a6a6a6b6c6d6^/^/^/^/^/e6f6g6g%g%g%g%<5X/h6i6i6j6j6j6j6k6l6m6&#&#&#n6o6p6q6f6s4R+;!r6s6%#8/w5{ { { { { t6u6v6w6v6v6w6x6y6=4C { { { { { z6A6B6C6D6D6D6D6E6F6G6H6I6I6I6J6K6}+L6;*;*;*;*L6M6N6< < < < < ].O6P6Q6R6R6R6S6S6T6U69:9:V6V6t=W6W6",
"Z%Z%Z%Z%Z%Z%Z%06W*a6a6a6a6a6X6Y6c6d6^/^/^/^/^/Z6r4g6g%g%g%g%g%`6 7i60$i]i]i].7+7-%m6&#&#&#n6o6p6g6r4l#k#k#@7k##7,^w5{ { { { { L $7w6%7&7&7&7x6*7=4C { { { { { ^5=7-7;7;7;7;7;7;7>7,7'7I6I6I6I6K6)7!7!7!7!7!7({~7::< < < < < ].{7]7^7/7/7/7/7/7(7V(i~i~s-s-s-s-s-",
"Z%Z%Z%Z%Z%Z%Z%06_7g&g&g&g&g&g&:7J+^/^/^/^/^/^/Z6r4g6g%g%g%g%g%`6 7i60$i]i]i].7+7-%m6&#&#&#n6o6<7[7k#k#i@i@i@i@h%~ { { { { { { L_}7%7%7%7%7%7x6*7=4C { { { { { ^5|717U%U%V%V%-727>73737I6I6I64757677787878787({~7N6< < < < < ].{79707g&g&g&g&g&X*V6i~s-s-s-s-s-s-",
"Z%Z%Z%Z%Z%Z%Z%3:_7g&g&g&g&g&g&:7J+^/^/^/^/^/^/Z6r4g6g%g%g%g%g%`6 7i60$i]i]i].7+7-%m6&#&#&#n6o6<7a7l#[#i@i@i@[6j@~ { { { { { ~ b7c7%7%7%7%7%7x6*7=4C { { { { { ^5d7_~U%U%V%V%-727e7I6I6I6I6I64757677787878787({f7r>< < < < < ].@$$&g&g&g&g&g&g&g7V6s-s-s-s-s-s-s-",
"Z%Z%Z%Z%Z%Z%Z%3:_7g&g&g&g&g&g&:7J+^/^/^/^/^/^/h7{5g6g%g%g%g%g%`6 7i60$i]i]i].7i7-%m6&#&#&#n6o6<7a7r4i@i@i@i@[6j@~ { { { { { ~ b7c7%7%7%7%7%7x6*7=4C { { { { { ^5=7j7U%U%V%V%-727e7I6I6I6I6I64757677787878787({f7r>< < < < < k7{7l7g&g&g&g&g&g&g7V6s-s-s-s-s-s-s-",
"Z%Z%Z%Z%Z%Z%Z%06_7R&R&g&g&g&@&:7J+m7m7m7m7n7m7h7l{U~g%g%g%g%g%`6 7o7k]i]i]i]i]o&4'm6&#&#&#n6o6p6g6k#i@i@i@i@[6j@U.p7u.{ { { ~ L_q7r7s7%7%7%7x6*7=4C ~ ~ t7{ { e$u7;7U%v7w7w727x7y7'7'7'7'7'7z7K667Y>!7!7!7!7({A7/+A@A@A@A@A@B7{7<*@&C7C7D7D7D7E7F7o/o/o/o/o/o/o/",
"Z%Z%Z%F&F&F&F&d)G7X6#&@&@&@&@&H7I7J7m7m7m7K7K7L7g~S!A_g%g%g%g%M7N7j6i]i]i]i]O7P7o@m6&#&#&#n6o6Q7g6i@i@i@i@i@[6j@=4R7u.{ { { ~ b7q7w6s7%7%7%7x6S7,^]5,^`3C T7]5U7>:V7V74]4]4]4]_~W7X7X7Y7Y7Y7Z7`7 8!7!7!7!7!7({A7.8: : +8_ : : {7<*@8#8#8m:$8$8%8&8b>b>)/)/)/)/)/",
"*8=8-8;8-8>8,8'8)8!8~8{8{8{8]8!8^8G@/8(8_8_8O':8<8==|(|(|(|(-=-=[8}8}8}8}8}8|81828m6&#&#&#o6o638485858686878889808a8b8b8c8d8d8e8M/D/#,V#V#V#f8;+g8h8i8i8j8k8g8l8m8n8o8p8p8q8r8s8t8u8u8u8u8u8v8w8h7m7m7x8y8z81^Y=A8B8C8D8D8D8E8~^F8G8H8H8I8I8I8J8K8z;L8N;M8M8N;M8",
"N8N8N8N8N8O8O8P8Q8R8R8R8S8R8S8T8U8V8W8X8Y8Y8Z8`8 9.9.9.9.9.9s= 9+9@9#9#9#9#9$9%9&9m6&#&#&#*5m6*9=9-9-9;9;9;9>9,92/'9)9!9!9~9~9h^{9]9]9]9]9]9^9)(/9(9(9(9(9_9:9C-<9[9}9|91929r'39495959595959697989E/j@h%j@h%~&9909a9a9p(p(p(b9T.c9d9e9e9d9f9f9g9h9i9K)j9j9j9j9j9",
"+ + + + + 6 6 u v # # # # # 8 d@k9l9m9m9V%V%V%V%n9s-s-s-s-s-s-o9U%V%V%V%V%V%p9q9m6m6m6m6&#*5m6z&r9s9s9s9s9s9t9u9v9!@D@D@D@I@I@w9x9y9*;z9z9z9z9*;A9B9C9C9C9C9D9E9F9  j i + + + G9H9I9J9J9J9J9K9L91!D4i@i@i@i@i@j@,^{ { { { { w59/M9~'u'u'u'u'u'N9O9Z%Z%Z%Z%Z%Z%Z%",
"+ + + + + 6 6 u v # # # # # 8 P9k9l9m9Q9V%V%V%R99:s-s-s-s-s-s-o9U%V%V%V%V%V%p9q9m6m6*5*5&#*5m6S9r9s9s9s9s9s9t9u9v9!@D@D@D@I@I@w9x9y9T9z9z9z9z9*;A9B9C9C9C9C9D9E9F9  U9i + + + G9H9J9J9J9J9J9K9L91!D4i@i@i@i@i@j@,^{ { { { { w59/M9~'u'u'u'u'u'V9=/R;Z%Z%Z%Z%Z%Z%",
"+ + + + + 6 6 u v # # # # # 8 _#W9x7-7V%V%V%V%;{o9s-s-s-s-s-s-o9;{V%V%V%V%V%p9q9m6m6&#&#&#*5m6S9r9s9s9s9s9s9t9X9I*!@D@D@D@I@I@w9x9y9T9z9z9z9z9N;N^B9C9C9C9C9D9E9Y9  u u + + + Z9`9J9J9J9J9J9I9L91!D4i@i@i@i@i@j@,^{ { { { { w59/M9~'u'u'u'u'u'V9 0H)Z%Z%Z%Z%Z%Z%",
"+ + + + + 6 6 u v # # # # # 8 .0+0@0p9p9p9p9p9V7s-s-s-s-s-s-s-o9;{V%V%V%V%V%p9q9m6m6&#&#&#*5m6S9r9s9s9s9s9s9t9#0~@!@D@D@D@I@I@w9x9y9T9z9z9z9z9y9N^B9C9C9C9C9D9E9F9u u u + + + $0`9%0J9J9J9J9&0L91!m{i@i@i@i@i@j@,^{ { { { { w59/M9~'u'u'u'u'u'V9 0H)Z%Z%Z%Z%Z%Z%",
"+ + + + + 6 6 u v # # # # # 8 .0+0*0U%U%U%U%U%4]s-s-s-s-s-s-s-o9;{V%V%V%V%V%p9q9m6m6&#&#&#*5m6=0r9s9s9s9s9s9t9u9~@!@D@D@D@I@I@-0<<y9T9z9z9z9z9;0>0,0C9C9C9C9D9E9Y9  u u + + + $0`9J9J9J9J9J9J9'0)0R+i@i@i@i@i@j@,^0/{ { { { 9/,^M9~'u'u'u'u'u'V9 0H)Z%Z%Z%Z%Z%Z%",
"6 6 6 6 6 6 6 9.+.W<W<@.@.@.8 .0!0;7x7;7~0~0~0-:9:!/Z_{0u=2_!/]0^0q9`8/0/02727q9p<(0o6n6o6q^&#B*r9_0_0_0_0_0:0u9I*<09#0#)#[0[0}0x9o[o[A}|0z910M8q;20C920y5y5203040  i i i 50i G960I9I9J9J9I9708090;!n{n{n{n{n{00a0b0c00/q&b0n^L_d0x,{'{'{'{'{'e0 0,;R;}-}-}-R;R;",
"/:/:/:/:/:/:/:i f0g0g0h0h0h0i08=j0o!k0l0m0m0y$n0o0p0q0q0r0s0t0u0v0w0x0y0y0z0z0A0`^B0C0D0C0E0F0G0H0I0I0I0I0I0--s^J0K0L0M0M0M0M002N0O0P0P0Q0R0S0)=T0U0V0V0W0X0Y0Z0`0L6 a.a.a+an1@a#a$a$a%a&a$a*a=a-aw!;a;a;a;a;a>a,a'a)a!a!a~a!a{a]a^a/a(a/a/a/a_a:a<a[a[a[a}a|a|a",
"[![![![![![!1a2a3a4a5ap$p$p$p$6a7a8a8^8^8^8^8^9a0aaaaabacadadaeafagahaiahajakalamanaoaoaoapaqarasa,;,;,;,;,;,;ta-%uaC9C9C9C9C9vawaxa_0yazazaAaBaCaDaEaFaFaGaHaIaJaKaLaMaMaMaNaOaPaQaRaRaRaRaSaTaUax6x6x6x6x6x6&7Vag^J*WaWaWaXaYaZa`a b b be3e3c|.b,/'/s-s-s-s-s-",
"1a1a1a1a1a1a[!+b2{x{x{@b@b@b#b=8$b%b%b%b%b%b%b&b*b=b=b=b-b;b;b>b,bja'b'b'b'bp5G))b!b~b{b{br}u;]b^b,;,;,;,;,;}-/bo@(0&#&#&#&#&#L4*-s9_0yayayas9(b_b:b<b[b[b[b[b}b|bMaA/A/A/A/w/OaPa1bD@D@D@D@I^2b3bg-x6x6x6x64b5b6b9#9#/*/*/*7b8b9b0be3e3e3e3O&0babi~i~s-s-s-s-s-",
"1a1a1a1a1a1a[!+b]{x{x{x{x{x{bbcbdbeb%b%b%b%bfbgbhbib-b-b:!:!:!jb,bkb'b'b'b'b'bG)lbmbg r}nbr}obpbqbZ%Z%Z%Z%Z%I)rbsb&#&#&#&#&#&#tb--s9s9s9s9s9ubvbwbxbxbyb[b[bzb}bAbBbw/w/w/w/w/z^CbM*D@D@D@D@Db2bEbFb%7%7%7%7P)GbHbD@D@D@D@D@0#IbJbJbe3e3e3JbJb0babi~i~s-s-s-s-s-",
"1a1a1a1a1a1a[!+b2{x{x{x{x{x{bbcbdbeb%b%b%b%bfbKbLbMbNb-b<!<!:!>b,b'b'b'b'b'b'b4+Obmbg r}nbr}obPbqbZ%Z%Z%Z%Z%w_rbsb&#&#&#&#&#&#tb--s9s9s9s9s9t9Qb_bRbxbyb[b[bzb}bAb_}w/w/w/w/w/OaCb1bD@D@D@D@Db2bEbFb%7%7%7%7P)SbHbD@D@D@D@D@0#IbJbe3e3e3e3e3e3TbUbi~s-s-s-s-s-s-",
"1a1a1a1a1a1a[!;b2{x{x{x{x{x{cbcbVbeb%b%b%b%bfbKbLb(!:!:![![!:!Wb,bia'b'b'b'b'b4+XbYbg r}nbr}Zb`bqbZ%Z%Z%Z%Z%Z%rbsb&#&#&#&#&#&#tb--s9s9s9s9s9s9G!_b cxbyb[b[bzb}bAb.cw/w/w/w/w/OaPa+cD@D@D@D@Db2bEbFb%7%7%7%7%7@c#cD@D@D@D@D@0#Ib$c%ce3e3e3e3e3&c*cs-s-s-s-s-s-s-",
"1a1a1a1a1a=c<!+b]{x{x{x{x{x{cb=8-c%b%b%b%b%bfbF/;c>c>c,c'c'c)c!c,bia'b'b'b'b'b4+~cYbg r}{c]cr}^c1-Z%Z%Z%Z%Z%Z%/csb&#(0(0(0&#&#tb--s9s9s9s9s9s9G!_b(c cxb_c_c:c<c[c.cw/w/w/w/w/}c|cM*D@D@D@D@1c2c3cg-%7%7%7%7%7@cHb!@!@9#9#9#X^IbJbc34c4c4c4c4c5c6cs-s-s-s-s-s-s-",
":!:!:!:!:!:!:!2a1!x{x{x{x{x{cb7c-c8c8c8c8c8c9cF/0c>c>c>c>c>cacbcccjaha-)-)-)%'4+~cZbr}r}^>]cr}dcecF&F&F&F&F&Z%rbsbq^fcfcfcm@&#tb--s9s9s9s9s9s9G!_b(c(c c c cxbgc[c.cw/w/w/w/hc}cicjcD@D@D@D@1c2ckcx6%7%7%7%7%7@cHbf^X^(*(*(*/$Iblcd|e|d|d|d|d|5cmcs-s-s-s-s-s-s-",
"ncncncncncZ!oc)7pcqcqcqcrcrcsctcucvcwc]^xcyczcAcBci 50505050CcDcEcFcGcGcGcHcIcJcKcLcMcNcNcOcz4]_Pcl]QcRcRcQcScTcUcVcWcXc=%b)b)UcYc-/-/-/0~0~](O9M.Zc`c d d`c`c.d+d@d#d$d%d%d$d&d*dy&y&=d=d=d-d;d>d,d*7*7*74b'd5b)d+3!d!d!d~d~d+3{de]]d]d]d^dy!/dk>O^O^s-s-s-s-s-",
"(d(d_d:d:d<d<d[d}d|d|d|d|d|d1d2d3d4d5d6d6d6d7d8d9dd6+/+/+/+/0dadbdcddddddd5&=dedfdgdhdhdidida~H+jd_$kdldg^^*i:mdb_ndm]m]n]odo]odB.@$@$@$pdk7k7qdrdsdtdududtdo]vdH|wdd[[;[;[;d[xdydzdAdBdBdBdCdDdEdFdFdFdFdFdGdHd$~IdIdIdJd@(KdLdMdNdOdPdPdQdQdRdSdO^O^s-s-s-s-s-",
"TdTd&b&b&bUdVdWdXdm9m9-7-7-7V%A-YdYdYdYdYdYdYdZd`d ez^z^z^z^z^.e+e@e=d=d=d=d#eR%H+id$e$e$e$e%e&e*eO/g^g^J*J*J*i:=em:D7-e@&@&@&;e>eB7B7B7B7B7].,eX6P/a6g&g&g&'e)e!eM<[;[;[;~e};{e]e^e/e(e_e:e_e<e*,FdFdFdFdFdFdFd[e}e}e}e}e}es$|e1e2eC_C_C_C_C_q[)/O^9:s-s-s-s-s-",
"&b&b&b&b&bVdVdUdXdm9V%V%V%V%V%A-_6_6_6_6_6_63e4e5e ez^z^z^z^z^6e+e5&=d5&5&5&5&X|7e8e9e$e0eF!e{&eae<0<00#P&V&V&beceg&[*g&g&g&g&deeeB7B7k7k7k7].,eodtdR&g&g&g&'efegehe[;[;[;~e};{e]e^e/eieK@jeke<e*,FdFdFdFdFdFd/8q$}e}e}e}e}es$|e1elemememememeneV6U!s-s-s-s-s-s-",
"&b&b&b&b&bVdVd96Od-7V%V%V%V%V%A-_6_6_6_6_6_63e4e5e ez^z^z^z^z^6e+e5&=db+b+b+b+r1oe9e9e$eG!P{9epeR%D@D@Y^Y^Y^Y^Y^ce[*g&g&g&g&g&deeeB7k7< < < ].,eodqeg&g&g&g&R&reseM<[;[;[;~e};{e]e^e/eK@K@jeke<e*,FdFdFdFdFdFd/8q$}e}e}e}e}eteueveleweweweweweleo9s-s-s-s-s-s-s-",
"&b&b&b&b&bVdVd96Od-7V%V%V%V%V%A-_6_6_6_6_6_63e4e5e ez^z^z^z^z^6e+e5&=db+b+b+b+r1oe9e9e$eG!P{9epeR%D@D@Y^Y^Y^Y^Y^xe[*g&g&g&g&g&de>eB7k7< < < ].yeX6qeg&g&g&g&R&reseM<[;[;[;~e};{e]e^e/eK@K@jezeAeBeFdFdFdFdFdFd/8[e}e}e}e}e}es$|eCeleweweweweweleo9s-s-s-s-s-s-s-",
"&b&b&b&b&bVdVd96Od-7V%V%V%V%V%A-_6_6_6_6_6_63e4e5e ez^z^z^z^z^De+e5&=db+b+b+b+r1oe9e9e$eG!P{9epeR%D@D@Y^Y^Y^Y^Y^m:[*g&g&g&g&g&de>eB7k7< < < ].yeX6qeg&g&g&g&R&reseM<[;[;[;~e};{e]e^e/eK@K@jejeEeBeFdFdFdFdFdFd/8[e}e}e}e}e}es$|eFemeweweweweweleo9s-s-s-s-s-s-s-",
"&b&b{/&bGeHeHegbIe}~0;#%#%0;#%R9JeYdYdYdYdYdYd4eKe^/+/0d0d0dadLeMeb+b+5&5&5&c+(@Ne,9OeOePe,9QeReSe9#Te,@,@,@!@'@@&g&g&g&g&g&g&Ue7+{.].< < < ].V.G7X6-e-e-eVe%8WeH|heXem-YeYeZeA)`e f.fv^}@+f+f@f*,#f$f%f%f%f&f&f*f=f-f-f-f=f;f>fFeme,f,f,f,f,f'fo9t-.>.>.>.>.>.>",
"d])fp7p7)f!f~f~f{f]f^fE$E$E$/f(f_f:f<f[f[f[f}f|f1f2ff<f<f<f<3f4f5fJ!6f7f7f7f8f9f_/0fa}<%i8a}afbfcfdfdfefefffgfhf@&g&g&g&g&g&g&ifjfkfkflfkfkfmfnfofpfqfqfqfqfrfsftfufvfwfxfxfvfyfzfAfBfCfCfDfEfFfn{GfHf0*IfIfK/JfKfLfLfMfNfOfPfpcQfRf;[;[;[;[;[Sf~_s_D_TfTfTfTfTf",
"UfVfUf{>o}WfUf2.o}^>]cr}r}r}XfT<Yfq6q6ZfM7`fX/ g}:.g+g+g+g@g#g$g%g&g&g%g&g%g*g=g-g;g>g>g>g,g'g)g!g~g{g]g^g/gN*(g_g:gg&g&g&g&g&<g[g}g|g1g2g2g3gb.4g5g6g6g6g6g7g8g9gb,0g0g0g0gb,i*agbgcgdgegfggghgigjg.bkglglgmgngogf2f2pgqgrgsgpgb;b;tgtgtgtgtgugvgwgxgygygzgygzg",
"|g|g|gJ J J J AgAgAgAgAgAgAg@.Bg`)8{CgDg8{8{'8EgFgGgHgIgIgIgJg}:KgLgMgMgMgMgNgOgN^q^H%H%H%H%H%m@Pg;7;7U%v7~0Qg/g;eRgg&g&g&g&g&<g6=Sg.0TgUgUgVgWgXgYgZgZgZgZgZg`g_ !(r% h h h.h8++h@h#h$h@h%hf9&h@g*h=hZ}t1t1t1n>-h;h>h;h>h>h,hsg'hb;b;b;b;b;b;)h!h~hR|>'>'{h{h{h",
"W<W<W<W<W<W<W<W<W<W<W<W<W<W<W<@.j#]hx{x{x{x{^h/hFg(h#g#g#g#g_h:h<hNg[h[h[h[hNg}hN^J%J%J%J%J%J%fcq9x7x7x7U%U%|hC-T6g&g&g&g&g&g&1h2hVg%1%1%1%1#.3h4h5h[;[;[;[;6h7h8h9hA}p[p[p[p[@*0hahahahahahbhchdhehfhfhfhfhfhfhghhhhhhhhhhhihihghX}b;b;b;b;b;jhkh    Q Q Q Q Q ",
"# # # # # # # # # # # # # # W<@.j#]hx{x{x{x{^h/hFglh#gz=#gmh#gnhohphphphphphqh}hrhJ%J%J%J%J%J%fcq9shshshx7U%thuhvhg&g&g&g&g&g&1h2hVg#.#.#.#.#.whxhyh[;[;[;[;6hzh#$X;A}p[p[p[Ah@*0hbhbhbhbhahbhchdhehfhfhfhfhfhfhghhh.ghh.ghhihihghX}b;b;b;b;b;Bhkh  %@P.P.P.P.P.",
"# # # # # # # # # # # # # # W<@.j#]hx{x{x{x{^h/hFglh_h_h_h#gmhChohphphphphphqhDhrhJ%J%J%J%J%J%fcq9V%V%V%x7U%;7Ehvhg&g&g&g&g&g&1h2hVg%1#.#.#.#.Fh4h5h[;[;[;[;6hzh5.6;A}p[p[p[Gh@*0hahahahahahbhchHhehfhfhfhfhfhfhghihihihihihihihghX}b;b;b;b;b;Bhkh  k + + + + + ",
"# # # # # # # # # # # # # # W<@.j#]hx{x{x{x{^h/hFglh_h_h_h#gmhChohphphphphphqhDhrhJ%J%J%J%J%J%fcq9V%V%V%x7U%;7Ehvhg&g&g&g&g&g&1h2hVg%1#.#.#.P9IhJh5h[;[;[;[;6hzh5.6;A}p[p[p[Gh@*0hahahahahahbhchHhehfhfhfhfhfhfhghihihihihihihihghX}b;b;b;b;b;Bhkh;*k + + + + + ",
"# # # # # # # # # # # # # # W<Khj#]hx{x{x{x{#bLhr|n0_h_h_hMhmhChohphphNhphNhqhOhrhJ%J%J%J%J%J%fcq9V%V%V%p9U%;7Eh(7g&g&g&g&g&g&1h2hVg#.#.#._#P9PhxhQhRh[;[;[;6hSh5.6;A}p[p[p[5;@*0hahahahahahbhThHhehfhfhfhfhfhfhH-ihihihihihihihghb;b;b;b;b;b;Bhkh;*%@+ + + + + ",
"UhUhUhUhUhUhUhUhUhUhUhUhUhUhVhWhXhY]YhYhYhYhZh`hmh i.i+i@i+i@i i#i$i%i%i%i%i&i*iD9=i=i=i=i=i=i@5-i;i;i;i;i;i>i%9,i'i)i)i)i)i)i!i~i{i]i]i]i]i^i/i(i_i:i<i<i[i}i|i1i2i3i2i2i2i4if>5i6i6i7i6i7i8i9i0it-aiaibiaiaici.bt1a:t1a:t1t1a:dieidididididifigihiW~iiiiiiiiii"};
