/* XPM */
static char * West_xpm[] = {
"128 128 240 2",
"  	c #0D1316",
". 	c #0D1318",
"+ 	c #0D1317",
"@ 	c #121A20",
"# 	c #101B21",
"$ 	c #111B21",
"% 	c #052A31",
"& 	c #042A32",
"* 	c #062A33",
"= 	c #101C23",
"- 	c #052A33",
"; 	c #0D1319",
"> 	c #121B22",
", 	c #042A31",
"' 	c #052932",
") 	c #0E1319",
"! 	c #0E1218",
"~ 	c #121B21",
"{ 	c #062A32",
"] 	c #042932",
"^ 	c #101C22",
"/ 	c #052B31",
"( 	c #0D1218",
"_ 	c #111A20",
": 	c #062932",
"< 	c #072932",
"[ 	c #072931",
"} 	c #111B22",
"| 	c #062931",
"1 	c #062831",
"2 	c #0E1219",
"3 	c #121B20",
"4 	c #052A32",
"5 	c #0E1318",
"6 	c #101B22",
"7 	c #0F1C23",
"8 	c #0F1B22",
"9 	c #0F1C22",
"0 	c #111B20",
"a 	c #0C1317",
"b 	c #111A21",
"c 	c #0D1219",
"d 	c #101C21",
"e 	c #062933",
"f 	c #0C1318",
"g 	c #121C22",
"h 	c #052F36",
"i 	c #042F36",
"j 	c #053037",
"k 	c #062E37",
"l 	c #0D141A",
"m 	c #121A21",
"n 	c #0D1419",
"o 	c #052E36",
"p 	c #111C22",
"q 	c #0D1217",
"r 	c #042A33",
"s 	c #042B32",
"t 	c #042B31",
"u 	c #052F35",
"v 	c #028F92",
"w 	c #019092",
"x 	c #019192",
"y 	c #062E35",
"z 	c #052931",
"A 	c #042933",
"B 	c #052933",
"C 	c #052934",
"D 	c #019093",
"E 	c #019094",
"F 	c #028F91",
"G 	c #062E36",
"H 	c #042F35",
"I 	c #009195",
"J 	c #052E35",
"K 	c #062A31",
"L 	c #019194",
"M 	c #029094",
"N 	c #019095",
"O 	c #018F94",
"P 	c #052F37",
"Q 	c #018F92",
"R 	c #062930",
"S 	c #019193",
"T 	c #0C1419",
"U 	c #032F36",
"V 	c #111C23",
"W 	c #101B23",
"X 	c #062F36",
"Y 	c #0C1418",
"Z 	c #072A31",
"` 	c #10191F",
" .	c #101920",
"..	c #11191F",
"+.	c #101B20",
"@.	c #111D22",
"#.	c #111C21",
"$.	c #10181E",
"%.	c #0F1319",
"&.	c #0F1B23",
"*.	c #062A30",
"=.	c #052B32",
"-.	c #04404E",
";.	c #023F4F",
">.	c #024050",
",.	c #034050",
"'.	c #04404F",
").	c #111920",
"!.	c #044050",
"~.	c #043F4F",
"{.	c #034150",
"].	c #054050",
"^.	c #052E37",
"/.	c #101D22",
"(.	c #029091",
"_.	c #121D22",
":.	c #043F50",
"<.	c #042E35",
"[.	c #043F4E",
"}.	c #05404F",
"|.	c #111D23",
"1.	c #03404F",
"2.	c #0C141A",
"3.	c #111A22",
"4.	c #101A21",
"5.	c #062F37",
"6.	c #042F37",
"7.	c #101A1F",
"8.	c #131B23",
"9.	c #121C24",
"0.	c #121C23",
"a.	c #0E1419",
"b.	c #03414F",
"c.	c #121A22",
"d.	c #062B33",
"e.	c #04414F",
"f.	c #0E151C",
"g.	c #044352",
"h.	c #044452",
"i.	c #044451",
"j.	c #0C161B",
"k.	c #101A20",
"l.	c #018F93",
"m.	c #009094",
"n.	c #034352",
"o.	c #044051",
"p.	c #054051",
"q.	c #11181D",
"r.	c #0E1C21",
"s.	c #0E1D22",
"t.	c #0E1C22",
"u.	c #072A32",
"v.	c #0E1217",
"w.	c #034353",
"x.	c #029193",
"y.	c #034452",
"z.	c #11181E",
"A.	c #0D1C23",
"B.	c #044453",
"C.	c #029194",
"D.	c #009194",
"E.	c #10181F",
"F.	c #0F1C21",
"G.	c #101E25",
"H.	c #042C33",
"I.	c #044150",
"J.	c #053F50",
"K.	c #0E141A",
"L.	c #111D24",
"M.	c #0C1319",
"N.	c #04404D",
"O.	c #043F4D",
"P.	c #11191E",
"Q.	c #034151",
"R.	c #044151",
"S.	c #0D151B",
"T.	c #0D161C",
"U.	c #054856",
"V.	c #054958",
"W.	c #054959",
"X.	c #054858",
"Y.	c #0B161D",
"Z.	c #0D141B",
"`.	c #0D131A",
" +	c #101A1E",
".+	c #062B32",
"++	c #019091",
"@+	c #0D1519",
"#+	c #03404D",
"$+	c #03404E",
"%+	c #03414E",
"&+	c #29DBE5",
"*+	c #29DCE8",
"=+	c #29DCE9",
"-+	c #2ADCE9",
";+	c #054855",
">+	c #0F1A1F",
",+	c #054857",
"'+	c #29DDE8",
")+	c #29DEEA",
"!+	c #29DFEB",
"~+	c #2ADEEA",
"{+	c #044957",
"]+	c #2ADEE9",
"^+	c #044958",
"/+	c #29DDEA",
"(+	c #29DDE9",
"_+	c #029092",
":+	c #052B33",
"<+	c #05414F",
"[+	c #29DAE5",
"}+	c #2ADDEA",
"|+	c #2ADCE8",
"1+	c #28DAE4",
"2+	c #062D35",
"3+	c #0C161C",
"4+	c #044856",
"5+	c #044855",
"6+	c #111E25",
"7+	c #04424F",
"8+	c #024150",
"9+	c #121D23",
"0+	c #0F1A20",
"a+	c #0F1218",
"b+	c #06353C",
"c+	c #05363D",
"d+	c #042B33",
"e+	c #05353C",
"f+	c #29DAE3",
"g+	c #28DCE8",
"h+	c #28DDE8",
"i+	c #2BD9E3",
"j+	c #06343C",
"k+	c #05363C",
"l+	c #29DCE7",
"m+	c #06363C",
"n+	c #2ADDE9",
"o+	c #29DEE7",
"p+	c #052B34",
"q+	c #28DDE7",
"  . . . . . . . . . . . . . . . . . . . . . . . . . . . . . . + @ # # # # # # # # # # # # # # # # # # # # # # $ % & & & & & & * = # # # # # # $ % & & & & & & - ; . . . . . . . . . . . . . . + @ # # # # # # # # # # # # # # > , & & & & & & ' ) ! . . . . . . ",
". . . . . . . . . . . . . . . . . . . . . . . . . . . . . . . . ~ # # # # # # # # # # # # # # # # # # # # # # $ % & & & & & & { = # # # # # # $ % & & & & & & ] ; . . . . . . . . . . . . . . . ~ # # # # # # # # # # # # # # ^ / & & & & & & ' ) . . . . . . . ",
". . . . . . . . . . . . . . . . . . . . . . . . . . . . . . . . ~ # # # # # # # # # # # # # # # # # # # # # # $ % & & & & & & { = # # # # # # $ % & & & & & & ] ; . . . . . . . . . . . . . . . ~ # # # # # # # # # # # # # # ^ / & & & & & & ' ) . . . . . . . ",
". . . . . . . . . . . . . . . . . . . . . . . . . . . . . . . . ~ # # # # # # # # # # # # # # # # # # # # # # $ % & & & & & & { = # # # # # # $ % & & & & & & ] ; . . . . . . . . . . . . . . . ~ # # # # # # # # # # # # # # ^ / & & & & & & ' ) . . . . . . . ",
". . . . . . . . . . . . . . . . . . . . . . . . . . . . . . . . ~ # # # # # # # # # # # # # # # # # # # # # # $ % & & & & & & { = # # # # # # $ % & & & & & & ] ; . . . . . . . . . . . . . . . ~ # # # # # # # # # # # # # # ^ / & & & & & & ' ) . . . . . . . ",
". . . . . . . . . . . . . . . . . . . . . . . . . . . . . . . . ~ # # # # # # # # # # # # # # # # # # # # # # $ % & & & & & & { = # # # # # # $ % & & & & & & ] ; . . . . . . . . . . . . . . . ~ # # # # # # # # # # # # # # ^ / & & & & & & ' ) . . . . . . . ",
". . . . . . . . . . . . . . . . . . . . . . . . . . . . . . . . ~ # # # # # # # # # # # # # # # # # # # # # # $ % & & & & & & { = # # # # # # $ % & & & & & & ' . . . . . . . . . . . . . . . . ~ # # # # # # # # # # # # # # ^ % & & & & & & ' ) . . . . . . . ",
". . . . . . . . . . . . . . . . . . . . . . . + . . . . . . ( ( _ # # # # # # # # # # # # # # # # # # # # # $ $ % : < < < < : [ ^ # # # # # # $ % - * * * * * : . . . . . . . . . . . . . . . . $ $ $ $ $ $ $ $ # # # # # # # } | { { { { { : 1 2 ! ! ! ! ! ! ! ",
". . . . . . . . . . . . . . . . 3 ~ ~ ~ ~ ~ ~ $ < 4 4 4 4 % % | ; 5 5 5 5 5 5 5 5 5 5 5 5 5 5 5 5 5 5 5 5 5 ! ! 6 7 7 7 7 7 8 6 $ # # # # # # # 9 ^ ^ ^ ^ ^ ^ ^ # $ $ $ $ $ $ 0 . . . . . . . a : - - - - - 4 < $ # # # # # # # ^ 9 9 9 9 9 9 9 b b $ $ $ $ $ $ ",
". . . . . . . . . . . . . . . . ~ # # # # # # # { & & & & & & : c . . . . . . . . . . . . . . . . . . . . . . ( } # # # # # # # # # # # # # # # # # # # # # # # # # # # # # # $ . . . . . . . ( ' & & & & & & 4 } # # # # # # # # # # # # # # # # # # # # # # # ",
". . . . . . . . . . . . . . . . ~ # # # # # # # { & & & & & & : c . . . . . . . . . . . . . . . . . . . . . . ( } # # # # # # # # # # # # # # # # # # # # # # # # # # # # # # $ . . . . . . . ( ' & & & & & & { } # # # # # # # # # # # # # # # # # # # # # # # ",
". . . . . . . . . . . . . . . . ~ # # # # # # d { & & & & & & : c . . . . . . . . . . . . . . . . . . . . . . ( } # # # # # # # # # # # # # # # # # # # # # # # # # # # # # # $ . . . . . . . ( ' & & & & & & { } # # # # # # # # # # # # # # # # # # # # # # # ",
". . . . . . . . . . . . . . . . ~ # # # # # # d { & & & & & & : c . . . . . . . . . . . . . . . . . . . . . . ( } # # # # # # # # # # # # # # # # # # # # # # # # # # # # # # $ . . . . . . . ( ' & & & & & & { } # # # # # # # # # # # # # # # # # # # # # # # ",
". . . . . . . . . . . . . . . . ~ # # # # # # d { & & & & & & : c . . . . . . . . . . . . . . . . . . . . . . ( } # # # # # # # # # # # # # # # # # # # # # # # # # # # # # # $ . . . . . . . ( ' & & & & & & { } # # # # # # # # # # # # # # # # # # # # # # # ",
". . . . . . . . . . . . . . . . ~ # # # # # # # { & & & & & & e c . . . . . . . . . . . . . . . . . . . . . . ( } # # # # # # # # # # # # # # # # # # # # # # # # # # # # # # $ . . . . . . . f 4 & & & & & & 4 } # # # # # # # # # # # # # # # # # # # # # # # ",
". . . . . . . . . . . . . . . . $ > > > > > > g h i j j j j j k l ; . ( ( ( ( . . . . . . . . . . . . . . . . ! $ $ $ $ $ $ $ $ # # # # # # # # # # # # # # # # $ $ # # # # $ m . . . . . . . n h o o o o o o o p d # # # # # # # # # # # # # # # # # # # # # # ",
". . . . . . . . . . . . . . . q : r s t t t s u v w x x x x x v y { 4 4 4 4 4 z . . . . . . . . . . . . . . . . . + + + + + + . $ # # # # # # # # # # # # # # $ ! ! ! ! ! ! ! 5 : A B B B C - h v D E E E E D F G { { { { { { : } # # # # # # # # # # # # # # # ",
". . . . . . . . . . . . . . . ( : & & & & & & H E I I I I I I D J & & & & & & z . . . . . . . . . . . . . . . . . . . . . . . . $ # # # # # # # # # # # # # # $ ! . . . . . . 5 ' & & & & & & h E I I I I I I E i & & & & & & K } # # # # # # # # # # # # # # # ",
". . . . . . . . . . . . . . . ( : & & & & & & H L I I I I I I M h & & & & & & z . . . . . . . . . . . . . . . . . . . . . . . . $ # # # # # # # # # # # # # # # ! . . . . . . 5 ' & & & & & & h E I I I I I I D i & & & & & & K } # # # # # # # # # # # # # # # ",
". . . . . . . . . . . . . . . ( : & & & & & & H E I I I I I I M h & & & & & & z . . . . . . . . . . . . . . . . . . . . . . . . $ # # # # # # # # # # # # # # # ! . . . . . . 5 ' & & & & & & h E I I I I I I D i & & & & & & K } # # # # # # # # # # # # # # # ",
". . . . . . . . . . . . . . . ( : & & & & & & H L I I I I I I M h & & & & & & z . . . . . . . . . . . . . . . . . . . . . . . . $ # # # # # # # # # # # # # # # ! . . . . . . 5 ' & & & & & & h N I I I I I I D i & & & & & & K } # # # # # # # # # # # # # # # ",
". . . . . . . . . . . . . . . ( : & & & & & & H E I I I I I I M h & & & & & & z . . . . . . . . . . . . . . . . . . . . . . . . $ # # # # # # # # # # # # # # # ! . . . . . . 5 ' & & & & & & h N I I I I I I D i & & & & & & K } # # # # # # # # # # # # # # # ",
". . . . . . . . . . . . . . . ( : & & & & & & H E I I I I I I M h & & & & & & z . . . . . . . . . . . . . . . . . . . . . . . . $ # # # # # # # # # # # # # # # ! . . . . . . 5 ' & & & & & & h O I I I I I I D P & & & & & & K } # # # # # # # # # # # # # # # ",
". . . . . . . . . . . . . . . . e ] - ' - ' ' o v E L L L L L Q u - * * * * - | . . . . . . . . . . . . . . . . . . . . . . . . $ # # # # # # # $ $ $ $ $ $ $ $ ! 5 5 5 5 5 5 . R K { { { { { o F S L L L L L v o { K K K K K | } # # # # # # # $ $ $ $ $ $ $ $ ",
"$ b b b b b b b b b b b b b b _ ( 5 ( ! ( ( 5 T J U U U U U U P V ^ ^ ^ ^ ^ ^ W _ $ $ $ $ $ $ $ . . . . . . . . . . . . . . . . $ # # # # # # $ R % % % % % % | # # # # # # # _ ; . ( ( ( ( ( T G h h h h h o X l . . . . . . . $ # # # # # # $ R % % % % % % % ",
"# # # # # # # # # # # # # # # $ ( . . . . . . Y * s & & & & & { p # # # # # # # # # # # # # # $ + . . . . . . . . . . . . . . . $ # # # # # # $ % & & & & & & { # # # # # # # b . . . . . . . f - & & & & & & 4 ! . . . . . . . } # # # # # # $ % & & & & & & & ",
"# # # # # # # # # # # # # # # $ ( . . . . . . Y : & & & & & & { ^ # # # # # # # # # # # # # # $ + . . . . . . . . . . . . . . . $ # # # # # # $ % & & & & & & K # # # # # # # b . . . . . . . f ' & & & & & & % ! . . . . . . . } # # # # # # $ % & & & & & & & ",
"# # # # # # # # # # # # # # # $ ( . . . . . . Y : & & & & & & { ^ # # # # # # # # # # # # # # $ + . . . . . . . . . . . . . . . $ # # # # # # $ % & & & & & & K # # # # # # # b . . . . . . . f ' & & & & & & % ! . . . . . . . } # # # # # # $ % & & & & & & & ",
"# # # # # # # # # # # # # # # $ ( . . . . . . Y : & & & & & & { ^ # # # # # # # # # # # # # # $ + . . . . . . . . . . . . . . . $ # # # # # # $ % & & & & & & K # # # # # # # b . . . . . . . f ' & & & & & & % ! . . . . . . . } # # # # # # $ % & & & & & & & ",
"# # # # # # # # # # # # # # # $ ( . . . . . . Y : & & & & & & 4 ^ # # # # # # # # # # # # # # $ + . . . . . . . . . . . . . . . $ # # # # # # $ % & & & & & & K # # # # # # # b . . . . . . . f ' & & & & & & % ! . . . . . . . } # # # # # # $ % & & & & & & & ",
"# # # # # # # # # # # # # # # $ ( . . . . . . Y { & & & & & & 4 ^ # # # # # # # # # # # # # # $ + . . . . . . . . . . . . . . . $ # # # # # # $ % & & & & & & K # # # # # # # b . . . . . . . f ' & & & & & & z ! . . . . . . . } # # # # # # $ % & & & & & & & ",
"# # # # # # # # $ # # # # # # # 5 . . . . . . f : { { { { { { K ^ # # # # # # # # # # # # # # $ . + + + + + + . . . . . . . . . $ # # # # # # $ | : K K K K K | d # # # # # # _ . . . . . . . f ' ' e ' e : ' z ! . . . . . . + $ $ $ $ $ $ $ $ Z ' ' ' ' ' ' ' ",
"# # # # # # # } K / / / / / % | } ~ ~ ~ ~ ~ ~ ~ d d ^ ^ ^ ^ ^ ^ # # # # # # # # # # # # # # # # $ $ $ $ $ $ $ ~ . . . . . . . . + + . . . . . . $ $ $ $ $ $ $ $ ! ! ! ! ! ! ! 5 . . . . . . . . . . . . . . . . . . . . . . . . . + + + + + + . `  . . . . . . .",
"# # # # # # # p K & & & & & & { } # # # # # # # # # # # # # # # # # # # # # # # # # # # # # # # # # # # # # # b . . . . . . . . . . . . . . . . ~ # # # # # # $ . . . . . . . . . . . . . . . . . . . . . . . . . . . . . . . . . . . . . . . . ................",
"# # # # # # # p / & & & & & & K } # # # # # # # # # # # # # # # # # # # # # # # # # # # # # # # # # # # # # # b . . . . . . . . . . . . . . . . ~ # # # # # # $ . . . . . . . . . . . . . . . . . . . . . . . . . . . . . . . . . . . . . . . . ................",
"# # # # # # # p / & & & & & & K } # # # # # # # # # # # # # # # # # # # # # # # # # # # # # # # # # # # # # # b . . . . . . . . . . . . . . . . ~ # # # # # # $ . . . . . . . . . . . . . . . . . . . . . . . . . . . . . . . . . . . . . . . . ................",
"# # # # # # # p / & & & & & & K } # # # # # # # # # # # # # # # # # # # # # # # # # # # # # # # # # # # # # # b . . . . . . . . . . . . . . . . ~ # # # # # # $ . . . . . . . . . . . . . . . . . . . . . . . . . . . . . . . . . . . . . . . . ................",
"# # # # # # # p / & & & & & & K } # # # # # # # # # # # # # # # # # # # # # # # # # # # # # # # # # # # # # # b . . . . . . . . . . . . . . . . ~ # # # # # # $ . . . . . . . . . . . . . . . . . . . . . . . . . . . . . . . . . . . . . . . . ................",
"# # # # # # # } K & & & & & & K } # # # # # # # # # # # # # # # # # # # # # # # # # # # # # # # # # # # # # # $ . . . . . . . . . . . . . . . . ~ # # # # # # $ . . . . . . . . . . . . . . . . . . . . . . . . . . . . . . . . . . . . . . . . ................",
"+.# # # # # # $ K 4 { { { { { | } # # # # # # # # # # # # # # # # # # # # # # # $ $ $ $ $ $ $ } @.@.@.@.@.@.@.p . . . . . . . . . . . . . . . . $ d d d d d d #.. . . . . . . . . . . . . . . . . . . . . . . . . . . . . . . . . . . . . . . . $...............",
"%.! ! ! ! ! ! ! 6 &.&.&.&.&.7 6 # # # # # # # # # # # # # # # # # # # # # # # $ *.% % % % % % =.-.;.>.>.>.>.,.'.p b b b b b b m . . . . . . . . { 4 4 4 4 4 { : $ b b b b b b b b b b b b b b ~ . . . . . . . . . . . . . . . . ).m @ m @ m @ ... . . . . . . . ",
". . . . . . . . $ # # # # # # # # # # # # # # # # # # # # # # # # # # # # # # $ % & & & & & & - '.,.,.,.,.,.,.!.@.# # # # # # $ . . . . . . . . 4 & & & & & & : $ # # # # # # # # # # # # # # # . . . . . . . . . . . . . . . + @ m m m m m m @ ; . . . . . . . ",
". . . . . . . . $ # # # # # # # # # # # # # # # # # # # # # # # # # # # # # # $ % & & & & & & - !.,.,.,.,.,.,.!.p # # # # # # $ . . . . . . . . 4 & & & & & & K $ # # # # # # # # # # # # # # # . . . . . . . . . . . . . . . . @ m m m m m m @ ; . . . . . . . ",
". . . . . . . . $ # # # # # # # # # # # # # # # # # # # # # # # # # # # # # # $ % & & & & & & - !.,.,.,.,.,.,.!.p # # # # # # $ . . . . . . . . 4 & & & & & & K $ # # # # # # # # # # # # # # # . . . . . . . . . . . . . . . . @ m m m m m m @ ; . . . . . . . ",
". . . . . . . . $ # # # # # # # # # # # # # # # # # # # # # # # # # # # # # # $ % & & & & & & - !.,.,.,.,.,.,.!.p # # # # # # $ . . . . . . . . 4 & & & & & & K $ # # # # # # # # # # # # # # # . . . . . . . . . . . . . . . . @ m m m m m m @ ; . . . . . . . ",
". . . . . . . . $ # # # # # # # # # # # # # # # # # # # # # # # # # # # # # # $ % & & & & & & - !.,.,.,.,.,.,.!.p # # # # # # $ . . . . . . . . 4 & & & & & & K $ # # # # # # # # # # # # # # # . . . . . . . . . . . . . . . . @ m m m m m m @ ; . . . . . . . ",
". . . . . . . . $ # # # # # # # # # # # # # # # # # # # # # # # # # # # # # # $ % & & & & & & - ~.,.,.,.,.,.,.!.p # # # # # # $ + . . . . . . . 4 & & & & & & { p # # # # # # # # # # # # # # # . . . . . . . . . . . . . . . . @ m m m m m m @ . . . . . . . . ",
". . . . . . . . m $ $ $ $ $ $ $ ~ ^ ^ ^ ^ ^ ^ $ # # # # # # # # # # # # # # # $ | { { { { { { - '.,.,.,.,.,.{.].#.$ $ $ $ $ $ $ + . . . . . . n ^.h h h h h h X = > > > > > > ~ # $ $ $ $ $ $ $ . . . . . . . . . . . . . . . . } d #.#.#.#.#.$ . . . . . . . . ",
". . . . . . . . . + + + + + + . | K K K K K K | 6 # # # # # # # # # # # # # # # $ } } } } } } p ^ /./././././.^ 5 + + + + + + . | ' ' ' ' ' * o v D D D D D D (.y * * * * * * : ( 5 5 5 5 5 5 ! . . . . . . . . 3 b b b b b $ p '.!.,.,.,.,.!.'.p $ $ $ $ $ $ $ ",
". . . . . . . . . . . . . . . ( : & & & & & & { = # # # # # # # # # # # # # # # # # # # # # # # # # # # # # # $ 5 . . . . . . ( ' & & & & & & H D I I I I I I D o & & & & & & ' ! . . . . . . . . . . . . . . . b # # # # # # _.!.:.,.,.,.,.,.!.p # # # # # # # ",
". . . . . . . . . . . . . . . ( : & & & & & & { = # # # # # # # # # # # # # # # # # # # # # # # # # # # # # # $ ! . . . . . . ( : & & & & & & H N I I I I I I D i & & & & & & ' ! . . . . . . . . . . . . . . . b # # # # # # _.!.,.,.,.,.,.,.,.p # # # # # # # ",
". . . . . . . . . . . . . . . ( : & & & & & & { = # # # # # # # # # # # # # # # # # # # # # # # # # # # # # # $ ( . . . . . . ( : & & & & & & H N I I I I I I D i & & & & & & ' 5 . . . . . . . . . . . . . . . b # # # # # # _.!.,.,.,.,.,.,.,.p # # # # # # # ",
". . . . . . . . . . . . . . . ( : & & & & & & { = # # # # # # # # # # # # # # # # # # # # # # # # # # # # # # $ ( . . . . . . ( : & & & & & & H N I I I I I I D i & & & & & & ' 5 . . . . . . . . . . . . . . . b # # # # # # _.!.,.,.,.,.,.,.,.p # # # # # # # ",
". . . . . . . . . . . . . . . ( : & & & & & & { = # # # # # # # # # # # # # # # # # # # # # # # # # # # # # # $ ( . . . . . . ( : & & & & & & H N I I I I I I D i & & & & & & ' 5 . . . . . . . . . . . . . . . b # # # # # # _.!.,.,.,.,.,.,.,.p # # # # # # # ",
". . . . . . . . . . . . . . . ( : & & & & & & { = # # # # # # # # # # # # # # # # # # # # # # # # # # # # # # $ ( . . . . . . . : & & & & & & H E I I I I I I D i & & & & & & ' 5 . . . . . . . . . . . . . . . b # # # # # # _.!.,.,.,.,.,.,.,.@.# # # # # # # ",
". . . . . . . . . . . . . . . ( { - - - - - - * ^ # # # # # # # # # # # # # # # # # # # # # # # # # # # # # # $ ! . . . . . . . : % % % % % 4 J v D L L L L D w <.- * * * * - : 5 . . . . . . . . . . . . . . . b # # # # # # _.[.}.'.'.'.'.'.'.|.# # # # # # # ",
". . . . . . . . . . . . . . . n ,.'.'.'.'.'.'.1.2.5 ! ! ! ! ! ! ! ! ! ! ! ! ! ! ! ! ! ! ! ! ! 5 b m m m m m m b ! . . . . . . . 3.4.b b b b $ } 5.6.6.6.6.6.6.o V # # # # # # # + . . . . . . . . . . . . . . . ` 7.7.7.7.7.7...8.9.9.9.9.9.0.V b # # # # # # # ",
". . . . . . . . . . . . . . . a.{.,.,.,.,.,.,.b.2.. . . . . . . . . . . . . . . . . . . . . . . @ m m m m m m b ! . . . . . . . _ m m m m m m c.d.s & & & & & - > # # # # # # b + . . . . . . . . . . . . . . . ................# # # # # # # # # # # # # # # # ",
". . . . . . . . . . . . . . . a.{.,.,.,.,.,.,.'.l . . . . . . . . . . . . . . . . . . . . . . . @ m m m m m m b ! . . . . . . . @ m m m m m m b - & & & & & & { > # # # # # # b + . . . . . . . . . . . . . . . ................# # # # # # # # # # # # # # # # ",
". . . . . . . . . . . . . . . a.{.,.,.,.,.,.,.'.l . . . . . . . . . . . . . . . . . . . . . . + @ m m m m m m b ! . . . . . . . @ m m m m m m b - & & & & & & { > # # # # # # b + . . . . . . . . . . . . . . . ................# # # # # # # # # # # # # # # # ",
". . . . . . . . . . . . . . . a.{.,.,.,.,.,.,.'.l . . . . . . . . . . . . . . . . . . . . . . . @ m m m m m m b ! . . . . . . . @ m m m m m m b - & & & & & & { > # # # # # # b + . . . . . . . . . . . . . . . ................# # # # # # # # # # # # # # # # ",
". . . . . . . . . . . . . . . a.{.,.,.,.,.,.,.'.l . . . . . . . . . . . . . . . . . . . . . . . @ m m m m m m b ! . . . . . . . @ m m m m m m b 4 & & & & & & { > # # # # # # b + . . . . . . . . . . . . . . . ................# # # # # # # # # # # # # # # # ",
". . . . . . . . . . . . . . . n {.,.,.,.,.,.,.e.l . . . . . . . . . . . . . . . . . . . . . . . @ m m m m m m b ! . . . . . . . @ m m m m m m b { & & & & & & { > # # # # # # b + . . . . . . . . . . . . . . . ................# # # # # # # # # # # # # # # # ",
"+ . . . . . . . n n n n n n n f.g.g.g.g.g.g.h.i.j.T n n n n n n . . . . . . . . . . . . . . . . ).m m m m m m k.5 . . . . . . . ).@ @ @ @ @ @ c.e B ' ' ' ' ' : ~ $ $ $ $ $ $ b + . . . . . . . q q q q q q q . $...............} # # # # # # $ # $ $ $ $ $ $ $ ",
"@ ~ ~ ~ ~ ~ $ p [.!.{.{.{.{.{.g.l.E m.N N N N D n.o.p.p.p.p.p.].T . . . . . . . . . . . . . . . + + + + + + + . q.$.$.$.$.$.$.$.+ + + + + + + + $ $ $ $ $ $ $ $ ( ! ! ! ! ! ! ( . . . . . . . q r.s.s.s.s.s.s.t.c . + + + + + . u.- 4 % % % % | ( 5 v.v.v.v.v.v.",
"# # # # # # # @.1.,.,.,.,.,.,.w.x.I I I I I I E y.,.,.,.,.,.,.e.n . . . . . . . . . . . . . . . . . . . . . . . z.$.$.$.$.$.$.$.. . . . . . . . ~ # # # # # # $ + . . . . . . . . . . . . . . q s.A.A.A.A.A.A.t.2 . . . . . . . { & & & & & & : ( . . . . . . . ",
"# # # # # # # p 1.,.,.,.,.,.,.B.C.I I I I I I D.y.,.,.,.,.,.,.e.n . . . . . . . . . . . . . . . . . . . . . . . z.$.$.$.$.$.$.$.. . . . . . . . ~ # # # # # # $ + . . . . . . . . . . . . . . . s.A.A.A.A.A.A.t.2 . . . . . . . { & & & & & & : ( . . . . . . . ",
"# # # # # # # p b.,.,.,.,.,.,.B.C.I I I I I I D.y.,.,.,.,.,.,.e.n . . . . . . . . . . . . . . . . . . . . . . . z.$.$.$.$.$.$.$.. . . . . . . . ~ # # # # # # $ + . . . . . . . . . . . . . . + s.A.A.A.A.A.A.t.2 . . . . . . . { & & & & & & : ( . . . . . . . ",
"# # # # # # # p b.,.,.,.,.,.,.B.C.I I I I I I D.y.,.,.,.,.,.,.e.n . . . . . . . . . . . . . . . . . . . . . . . z.$.$.$.$.$.$.$.. . . . . . . . ~ # # # # # # $ + . . . . . . . . . . . . . . . s.A.A.A.A.A.A.t.2 . . . . . . . { & & & & & & : ( . . . . . . . ",
"# # # # # # # p b.,.,.,.,.,.,.B.C.I I I I I I D.y.,.,.,.,.,.,.e.n . . . . . . . . . . . . . . . . . . . . . . . z.$.$.$.$.$.$.$.. . . . . . . . ~ # # # # # # $ + . . . . . . . . . . . . . . . s.A.A.A.A.A.A.t.2 . . . . . . . { & & & & & & : ( . . . . . . . ",
"# # # # # # # p 1.,.,.,.,.,.,.w.D I I I I I I D y.,.,.,.,.,.,.'.l . . . . . . . . . . . . . . . . . . . . . . . z.$.$.$.$.$.$.$.. . . . . . . . ~ # # # # # # $ + . . . . . . . . . . . . . . . s.A.A.A.A.A.A.t.2 . . . . . . . { & & & & & & : ( . . . . . . . ",
"+.# # # # # # p -.!.!.!.!.!.!.n.D E L L L L E l.n.!.'.'.'.'.'.}.l . . . . . . . . . . . . . . . . . . . . . . . E.E.E.E.E.E.E.E.. . . . . . . . ~ # # # # # # $ . . . . . . . . . . . . . . . . t.s.s.s.s.s.s.F.c . . . . . . . | % % % % % % [ ( . . . . . . . ",
"%.! ! ! ! ! ! ! p /.@.@.@.@.@.G.y.w.w.w.w.w.w.n.H.* * * * * * =.$ # # # # # # 0 . . . . . . . . 3 ~ ~ ~ ~ ~ ~ p *.% % % % % % u.$ ~ ~ ~ ~ ~ ~ b # # # # # # # # _ b b b b b b @ . . . . . . . . . + + + + + + . ................ . . . . . . .k.. . . . . . . . ",
". . . . . . . . $ # # # # # # |.'.,.,.,.,.,.,.I.d.& & & & & & { } # # # # # # b . . . . . . . . ~ # # # # # # #.% & & & & & & { $ # # # # # # # # # # # # # # # # # # # # # # $ . . . . . . . . . . . . . . . . ................................+ . . . . . . . ",
". . . . . . . . $ # # # # # # |.'.,.,.,.,.,.,.!.d.& & & & & & { } # # # # # # b . . . . . . . . ~ # # # # # # #.% & & & & & & { $ # # # # # # # # # # # # # # # # # # # # # # $ . . . . . . . . . . . . . . . . ................................+ . . . . . . . ",
". . . . . . . . $ # # # # # # |.'.,.,.,.,.,.,.!.d.& & & & & & { } # # # # # # b . . . . . . . . ~ # # # # # # #.% & & & & & & { $ # # # # # # # # # # # # # # # # # # # # # # $ . . . . . . . . . . . . . . . . ................................+ . . . . . . . ",
". . . . . . . . b # # # # # # |.'.,.,.,.,.,.,.!.d.& & & & & & { } # # # # # # b . . . . . . . . ~ # # # # # # #.% & & & & & & { $ # # # # # # # # # # # # # # # # # # # # # # $ . . . . . . . . . . . . . . . . ................................+ . . . . . . . ",
". . . . . . . . b # # # # # # |.'.,.,.,.,.,.,.!.d.& & & & & & { } # # # # # # b . . . . . . . . ~ # # # # # # #.% & & & & & & { $ # # # # # # # # # # # # # # # # # # # # # # $ . . . . . . . . . . . . . . . . ................................+ . . . . . . . ",
". . . . . . . . b # # # # # # |.'.,.,.,.,.,.,.!.d.& & & & & & { } # # # # # # b . . . . . . . . ~ # # # # # # #.% & & & & & & { $ # # # # # # # # # # # # # # # # # # # # # # $ . . . . . . . . . . . . . . . . ................................+ . . . . . . . ",
". . . . . . . . b # # # # # # |.'.].J.J.J.J.].}.d.& & & & & & { } $ $ $ $ $ $ b . . . . . . . . b $ # $ $ $ $ # | { K K K K K | $ # # # # # # # # $ $ $ $ # # # # # # # # # # $ . . . . . . . . T a.a.a.a.a.K.n z.............................$.. + + + + + + + ",
". . . . . . . . m m m m m m m m @.@.@.@.@.@.@.L.R & & & & & & | M.. . . . . . . . . . . . . . . + + . . . . . . $ $ $ $ $ $ $ $ # # # # # # # # ! ! ! ! ! ! ! ! $ # # # # # # $ . . . . . . . T N.'.!.!.!.!.!.O.l ! ! ! ! ! ! ! ! ! ! ! ! ! ! . P...............",
". . . . . . . . m m m m m m m m # # # # # # # = Z & & & & & & | 5 . . . . . . . . . . . . . . . . . . . . . . . ~ # # # # # # # # # # # # # # +.! . . . . . . + $ # # # # # # $ . . . . . . . a.{.,.,.,.,.,.,.'.l . . . . . . . . . . . . . . . ................",
". . . . . . . . m m m m m m m m # # # # # # # = Z & & & & & & | 5 . . . . . . . . . . . . . . . . . . . . . . . ~ # # # # # # # # # # # # # # # ! . . . . . . + $ # # # # # # $ . . . . . . . a.Q.,.,.,.,.,.,.!.l . . . . . . . . . . . . . . . ................",
". . . . . . . . m m m m m m m m # # # # # # # = Z & & & & & & | 5 . . . . . . . . . . . . . . . . . . . . . . . ~ # # # # # # # # # # # # # # # ! . . . . . . + $ # # # # # # $ . . . . . . . a.Q.,.,.,.,.,.,.!.l . . . . . . . . . . . . . . . ................",
". . . . . . . . m m m m m m m m # # # # # # # = Z & & & & & & | 5 . . . . . . . . . . . . . . . . . . . . . . . ~ # # # # # # # # # # # # # # # ! . . . . . . + $ # # # # # # $ . . . . . . . a.Q.,.,.,.,.,.,.!.l . . . . . . . . . . . . . . . ................",
". . . . . . . . m m m m m m m m # # # # # # # = Z & & & & & & | 5 . . . . . . . . . . . . . . . . . . . . . . . ~ # # # # # # # # # # # # # # # ! . . . . . . + $ # # # # # # $ . . . . . . . a.Q.,.,.,.,.,.,.!.l . . . . . . . . . . . . . . . ................",
". . . . . . . . m m m m m m m m # # # # # # # = K & & & & & & K 5 . . . . . . . . . . . . . . . . . . . . . . . ~ # # # # # # # # # # # # # # # ! . . . . . . + $ # # # # # # $ . . . . . . . K.Q.{.,.,.,.,.,.R.l . . . . . . . . . . . . . . . ................",
". . . . . . . . ).@ @ @ @ @ @ @ $ $ $ $ $ $ $ = G P P P P P P h M.. . . . . . . . . . . . . . . . . . . . . . . $ # # # # # # # # # # # # # # # ! . . . . . . + b b b b b b b m S.S.S.S.S.S.S.T.U.V.W.W.W.W.V.X.Y.Z.`.`.`.`.`.`.. . . . . . . . P...............",
" + + + + + + +).. . . . . . . 5 K =./ / / / .+u (.D D S S S D ++y =.4 4 4 4 4 | ( . . . . . . . 3 ~ ~ ~ ~ ~ ~ b # # # # # # # # # # # # # # # # ! . . . . . . . . . . . . . . @+#+$+$+$+$+$+%+U.&+*+=+=+=+=+-+&+;+R.o.o.o.o.o.1.T . . . . . . . . + + + + + + + ",
">+>+>+>+>+>+>+k.. . . . . . . 5 & & & & & & & u M I I I I I I L h & & & & & & K ( . . . . . . . ~ # # # # # # # # # # # # # # # # # # # # # # # ! . . . . . . . . . . . . . . n $+1.,.,.,.,.{.,+'+)+!+!+!+!+~+*+{+Q.,.,.,.,.,.b.T . . . . . . . . . . . . . . . ",
">+>+>+>+>+>+>+k.. . . . . . . 5 4 & & & & & & J M I I I I I I D.h & & & & & & K ( . . . . . . . ~ # # # # # # # # # # # # # # # # # # # # # # # ! . . . . . . . . . . . . . . n %+,.,.,.,.,.Q.V.]+)+!+!+!+!+~+*+{+Q.,.,.,.,.,.b.T . . . . . . . . . . . . . . . ",
">+>+>+>+>+>+>+k.. . . . . . . 5 4 & & & & & & J M I I I I I I D.h & & & & & & K ( . . . . . . . ~ # # # # # # # # # # # # # # # # # # # # # # # ! . . . . . . . . . . . . . . n %+,.,.,.,.,.Q.V.]+)+!+!+!+!+~+*+^+Q.,.,.,.,.,.b.T . . . . . . . . . . . . . . . ",
">+>+>+>+>+>+>+k.. . . . . . . 5 4 & & & & & & J M I I I I I I D.h & & & & & & K ( . . . . . . . ~ # # # # # # # # # # # # # # # # # # # # # # # ! . . . . . . . . . . . . . . n %+,.,.,.,.,.Q.V.]+)+!+!+!+!+~+*+^+Q.,.,.,.,.,.b.T . . . . . . . . . . . . . . . ",
">+>+>+>+>+>+>+k.. . . . . . . 5 4 & & & & & & J M I I I I I I D.h & & & & & & K ( . . . . . . . ~ # # # # # # # # # # # # # # # # # # # # # # # ! . . . . . . . . . . . . . . n %+,.,.,.,.,.Q.V.]+)+!+!+!+!+~+*+^+Q.,.,.,.,.,.b.T . . . . . . . . . . . . . . . ",
">+>+>+>+>+>+>+k.. . . . . . . 5 4 & & & & & 4 J M I I I I I I E h 4 & & & & & | ( . . . . . . . ~ # # # # # # # # # # # # # # # # # # # # # # +.! . . . . . . . . . . . . . . n %+,.,.,.,.,.Q.V.*+/+)+)+)+)+(+*+^+Q.,.,.,.,.,.b.T . . . . . . . . . . . . . . . ",
">+>+>+>+>+>+>+k.+ . . . . . . . K 4 4 4 4 4 4 o _+D D D D D D l.J :+- - - - ' z ( . . . . . . . b $ # $ $ $ $ # # # # # # # # # ~ ^ ^ ^ ^ ^ ^ $ ! + + + + + + + . . . . . . . n -.<+e.e.e.e.I.U.[+-+}+}+}+}+|+1+,+e.e.e.e.e.e.-.@+. . . . . . . . . . . . . . . ",
"# # # # # # # # # $ $ $ $ # # $ ; ; ; ; ; ; ; n 2+5.5.G k k o o 2.f f f f f f f . . . . . . . . + + . . . . . . _ # # # # # # ~ | K % % % % K | } ~ ~ ~ ~ ~ ~ b + . . . . . . . T n n n n n n 3+4+{+{+{+{+{+{+5+6+@././././././.+.$ $ $ $ $ $ m . . . . . . . . ",
"# # # # # # # # # # # # # # # $ v.. . . . . . f 4 & & & & & & :+f . . . . . . . . . . . . . . . . . . . . . . . _ # # # # # # ^ K & & & & & & { 6 # # # # # # $ + . . . . . . . . . . . . . . n 7+8+8+8+8+8+8+I.9+# # # # # # # # # # # # # # b . . . . . . . . ",
"# # # # # # # # # # # # # # # $ v.. . . . . . f 4 & & & & & & :+f . . . . . . . . . . . . . . . . . . . . . . . b # # # # # # ^ % & & & & & & { 9 # # # # # # $ . . . . . . . . . . . . . . . ; %+,.,.,.,.,.,.'._.# # # # # # # # # # # # # # b . . . . . . . . ",
"# # # # # # # # # # # # # # # $ v.. . . . . . f 4 & & & & & & :+f . . . . . . . . . . . . . . . . . . . . . . . b # # # # # # ^ % & & & & & & { 9 # # # # # # $ . . . . . . . . . . . . . . . a.$+,.,.,.,.,.,.1._.# # # # # # # # # # # # # # b . . . . . . . . ",
"# # # # # # # # # # # # # # # $ v.. . . . . . f 4 & & & & & & r f . . . . . . . . . . . . . . . . . . . . . . . b # # # # # # ^ % & & & & & & { 9 # # # # # # $ . . . . . . . . . . . . . . . a.$+,.,.,.,.,.,.1._.# # # # # # # # # # # # # # b . . . . . . . . ",
"# # # # # # # # # # # # # # # $ v.. . . . . . f 4 & & & & & & r f . . . . . . . . . . . . . . . . . . . . . . . b # # # # # # ^ % & & & & & & { 9 # # # # # # $ . . . . . . . . . . . . . . . a.$+,.,.,.,.,.,.1._.# # # # # # # # # # # # # # b . . . . . . . . ",
"# # # # # # # # # # # # # # # $ v.. . . . . . f % & & & & & & r f . . . . . . . . . . . . . . . . . . . . . . . b # # # # # # ^ K & & & & & & { 9 # # # # # # $ . . . . . . . . . . . . . . . a.$+,.,.,.,.,.,.'._.# # # # # # # # # # # # # # b . . . . . . . . ",
"# # # # # # # # $ $ $ $ $ $ $ $ 5 . . . . . . . R | z z z z | K f . . . . . . . . . . . . . . . . . . . . . . . @ $ $ $ $ $ $ $ % K K K K K | | } $ $ $ $ $ $ ~ . . . . . . . . . . . . . . . n N.1.1.1.1.1.1.-.|.# # # # # # # # # # # # # # _ . . . . . . . . ",
"# # # # # # # $ R % % % % % % | $ $ $ $ $ $ $ _ f . ; ; ; ; ; . . . . . . . . . . . . . . . . . . . . . . . . . . . . . . . . + 4.0+0+0+0+0+0+4.. . . . . . . . . . . . . . . . . . . . . . . . . n n n n n n a.+.# # # # # # # ! ! ! ! ! ! ! 5 . . . . . . . . ",
"# # # # # # # $ % & & & & & & : p # # # # # # # . . . . . . . . . . . . . . . . . . . . . . . . . . . . . . . . . . . . . . . + _ >+>+>+>+>+>+` . . . . . . . . . . . . . . . . . . . . . . . . . . . . . . . 5 # # # # # # # $ v.. . . . . . . . . . . . . . . ",
"# # # # # # # $ % & & & & & & K p # # # # # # # . . . . . . . . . . . . . . . . . . . . . . . . . . . . . . . . . . . . . . . + _ >+>+>+>+>+>+` . . . . . . . . . . . . . . . . . . . . . . . . . . . . . . . 5 # # # # # # # $ v.. . . . . . . . . . . . . . . ",
"# # # # # # # $ % & & & & & & K p # # # # # # # . . . . . . . . . . . . . . . . . . . . . . . . . . . . . . . . . . . . . . . + _ >+>+>+>+>+>+` . . . . . . . . . . . . . . . . . . . . . . . . . . . . . . . 5 # # # # # # # $ v.. . . . . . . . . . . . . . . ",
"# # # # # # # $ % & & & & & & K p # # # # # # # . . . . . . . . . . . . . . . . . . . . . . . . . . . . . . . . . . . . . . . + _ >+>+>+>+>+>+7.. . . . . . . . . . . . . . . . . . . . . . . . . . . . . . . 5 # # # # # # # $ v.. . . . . . . . . . . . . . . ",
"# # # # # # # $ % & & & & & & K p # # # # # # # . . . . . . . . . . . . . . . . . . . . . . . . . . . . . . . . . . . . . . . + _ >+>+>+>+>+>+` . . . . . . . . . . . . . . . . . . . . . . . . . . . . . . . 5 # # # # # # # $ v.. . . . . . . . . . . . . . . ",
"# # # # # # # $ % & & & & & & K p # # # # # # # . . . . . . . . . . . . . . . . . . . . . . . . . . . . . . . . . . . . . . . + _ >+>+>+>+>+>+k.. . . . . . . . . . . . . . . . . . . . . . . . . . . . . . . 5 # # # # # # # $ v.. . . . . . . . . . . . . . . ",
"$ # # # # # # $ | : K K K K K | $ # # # # # # +.. . . . . . . . . . . . . . . . . . . . . . . . . . . . . . . . . q q q q q q . k.0+0+0+0+0+0+k.. . . . . . . f . . . . . . . . . . . . . . . . . . . . . . . 5 $ $ # # # # # $ . . . . . . . . + + + + + + + + ",
"a+v.v.v.v.v.v.v.$ # # # # # # d ( . . . . . . . . . . . . . . . . . . . . . . . 3 b b b b b b _ + . . . . . . . $ $ $ $ $ $ $ $ ( v.v.v.v.v.v.2 : B e e e e e B . . . . . . . . . . . . . . . . . . . . . . . . . + + + + + + . | : : : : : : : 6 # $ $ $ $ $ $ ",
". . . . . . . ! $ # # # # # # $ ! . . . . . . . . . . . . . . . . . . . . . . . b # # # # # # $ + . . . . . . . $ # # # # # # $ q . . . . . . ; 4 & & & & & & 4 . . . . . . . . . . . . . . . . . . . . . . . . . . . . . . . . ' & & & & & & 4 } # # # # # # # ",
". . . . . . . ! $ # # # # # # $ ! . . . . . . . . . . . . . . . . . . . . . . . b # # # # # # $ . . . . . . . . $ # # # # # # # q . . . . . . ; ' & & & & & & 4 . . . . . . . . . . . . . . . . . . . . . . . . . . . . . . . . ' & & & & & & % } # # # # # # # ",
". . . . . . . ! $ # # # # # # $ ! . . . . . . . . . . . . . . . . . . . . . . . b # # # # # # $ . . . . . . . . $ # # # # # # $ q . . . . . . ; ' & & & & & & 4 . . . . . . . . . . . . . . . . . . . . . . . . . . . . . . . . ' & & & & & & % } # # # # # # # ",
". . . . . . . ! $ # # # # # # $ ! . . . . . . . . . . . . . . . . . . . . . . . b # # # # # # $ . . . . . . . . $ # # # # # # # q . . . . . . ; ' & & & & & & 4 . . . . . . . . . . . . . . . . . . . . . . . . . . . . . . . . ' & & & & & & % } # # # # # # # ",
". . . . . . . ! $ # # # # # # $ ! . . . . . . . . . . . . . . . . . . . . . . . b # # # # # # $ . . . . . . . . $ # # # # # # $ q . . . . . . ; ' & & & & & & 4 . . . . . . . . . . . . . . . . . . . . . . . . . . . . . . . . ' & & & & & & % } # # # # # # # ",
". . . . . . . ! $ # # # # # # $ ! . . . . . . . . . . . . . . . . . . . . . . . $ # # $ # $ # $ . . . . . . . . $ # # # # # # $ q . . . . . . ; - - :+:+:+:+:+4 . . . . . . . . . . . . . . . . . . . . . . . . . . . . . . . . ' & & & & & & % } # # # # # # # ",
". . . . . . . . 0 b b b b b b b 5 . . . . . . . . . . . . . . . . . . . . . . . p g g g p g p p . . . . . . . . $ # # # # # # # ( . . . . . . l b+c+c+c+c+c+c+b+n . . . . . . . . . . . . . . . . . . . . . . + ( . . . . . . ; =.d+d+d+d+d+d+=.p d d d d d d d ",
". . . . . . . . . . . . . . . . . . . . . . . . . . . . . . . . 3 ~ ~ ~ ~ ~ $ p '.!.!.!.!.!.!.'.p $ $ $ $ $ $ $ # # # # # # # # : e e e e e * e+f+g+h+h+h+h+g+i+j+:+- - - - - | . . . . . . . . 3 ~ ~ ~ ~ ~ ~ $ | , % % % % % - $+'.'.'.'.'.'.e.{ { { { { { { { ",
". . . . . . . . . . . . . . . . . . . . . . . . . . . . . . . . ~ # # # # # # 9+!.,.,.,.,.,.,.'.9+# # # # # # # # # # # # # # # 4 & & & & & :+k+*+/+)+)+)+)+)+l+e+d+& & & & & z ( . . . . . . . ~ # # # # # # # 4 & & & & & & r b.,.,.,.,.,.,.e.- & & & & & & & ",
". . . . . . . . . . . . . . . . . . . . . . . . . . . . . . . . ~ # # # # # # 9+,.,.,.,.,.,.,.'.0.# # # # # # # # # # # # # # # 4 & & & & & :+m+n+~+!+!+!+!+)+o+k+d+& & & & & z ( . . . . . . . ~ # # # # # # # 4 & & & & & & p+b.,.,.,.,.,.,.e.- & & & & & & & ",
". . . . . . . . . . . . . . . . . . . . . . . . . . . . . . . . ~ # # # # # # 9+,.,.,.,.,.,.,.'.0.# # # # # # # # # # # # # # # 4 & & & & & :+m+n+~+!+!+!+!+)+q+k+d+& & & & & z ( . . . . . . . ~ # # # # # # d 4 & & & & & & p+b.,.,.,.,.,.,.e.- & & & & & & & ",
". . . . . . . . . . . . . . . . . . . . . . . . . . . . . . . . ~ # # # # # # 9+,.,.,.,.,.,.,.'.0.# # # # # # # # # # # # # # # 4 & & & & & :+m+n+~+!+!+!+!+)+q+k+d+& & & & & z ( . . . . . . . ~ # # # # # # d 4 & & & & & & p+b.,.,.,.,.,.,.e.- & & & & & & & ",
". . . . . . . . . . . . . . . . . . . . . . . . . . . . . . . . ~ # # # # # # 9+,.,.,.,.,.,.,.'.0.# # # # # # # # # # # # # # # 4 & & & & & :+m+n+~+!+!+!+!+)+q+k+d+& & & & & z ( . . . . . . . ~ # # # # # # d 4 & & & & & & p+b.,.,.,.,.,.,.e.- & & & & & & & ",
". . . . . . . . . . . . . . . . . . . . . . . . . . . . . . . . ~ # # # # # # 9+,.,.,.,.,.,.,.'.0.# # # # # # # # # # # # # # # 4 & & & & & :+m+n+~+!+!+!+!+)+q+k+d+& & & & & z ( . . . . . . . ~ # # # # # # d 4 & & & & & & p+b.,.,.,.,.,.,.e.- & & & & & & & ",
". . . . . . . . . . . . . . . . . . . . . . . . . . . . . . . . ~ # # # # # # 9+,.,.,.,.,.,.,.'.0.# # # # # # # # # # # # # # # 4 & & & & & :+m+n+~+!+!+!+!+)+q+k+d+& & & & & z ( . . . . . . . ~ # # # # # # d 4 & & & & & & p+b.,.,.,.,.,.,.e.- & & & & & & & "};
